Vahgar8work/Data-Generation-using-Modelling-and-Simulation-for-Machine-Learning/data.csv
in_rootz,in_rooty,in_thigh_joint,in_leg_joint,in_foot_joint,in_thigh_left_joint,in_leg_left_joint,in_foot_left_joint,in_rootx_vel,in_rootz_vel,in_rooty_angvel,in_thigh_joint_angvel,in_leg_joint_angvel,in_foot_joint_angvel,in_thigh_left_joint_angvel,in_leg_left_joint_angvel,in_foot_left_joint_angvel,thigh_joint,leg_joint,foot_joint,thigh_left_joint,leg_left_joint,foot_left_joint,out_rootz,out_rooty,out_thigh_joint,out_leg_joint,out_foot_joint,out_thigh_left_joint,out_leg_left_joint,out_foot_left_joint,out_rootx_vel,out_rootz_vel,out_rooty_angvel,out_thigh_joint_angvel,out_leg_joint_angvel,out_foot_joint_angvel,out_thigh_left_joint_angvel,out_leg_left_joint_angvel,out_foot_left_joint_angvel
1.2504024743650424,-0.002824007277029357,-0.003362963707742611,0.004125990993422041,-0.0011903945392983985,0.0017130744428626157,-0.0008965847303077593,0.0031314435926217887,-0.0019731315811640404,-0.0037413399588541174,0.0013768684927181248,0.00371821982578474,-0.0028456140377645235,0.0010259833903908944,-0.003498207409651576,0.002989075097969306,0.001283608470231055,-0.6412653923034668,0.01866176538169384,-0.060293130576610565,0.9236710667610168,-0.4941556453704834,0.14942549169063568,1.2500003088358678,-0.00926334405065254,-0.010349406484509494,0.004252090620477131,-0.0035148953674358297,0.0026979713883647743,-0.01755286237811227,0.01822001799069234,-0.3049788629910587,-0.0993086209755382,-1.6290991523679992,-1.7694080199125108,0.030003762948292094,-0.5692390592468819,0.2171960606771378,-4.1424068109791925,3.720244435944039
1.2500003088358678,-0.00926334405065254,-0.010349406484509494,0.004252090620477131,-0.0035148953674358297,0.0026979713883647743,-0.01755286237811227,0.01822001799069234,-0.3049788629910587,-0.0993086209755382,-1.6290991523679992,-1.7694080199125108,0.030003762948292094,-0.5692390592468819,0.2171960606771378,-4.1424068109791925,3.720244435944039,0.382526695728302,0.6387377381324768,-0.9612212181091309,0.9447481632232666,0.17542289197444916,-0.815423309803009,1.2501961799416499,-0.01661192532522544,-0.017313593931866475,0.005148667686175362,-0.06283632651085481,0.005333925553281189,-0.03727314607545007,-0.0052234601249738066,-0.20015561198947518,0.14988768498873062,-0.23568357906410314,0.03351186893545993,0.1758690116647564,-10.0,0.40940858779567046,-0.7539963269238174,-9.552606512362313
1.2501961799416499,-0.01661192532522544,-0.017313593931866475,0.005148667686175362,-0.06283632651085481,0.005333925553281189,-0.03727314607545007,-0.0052234601249738066,-0.20015561198947518,0.14988768498873062,-0.23568357906410314,0.03351186893545993,0.1758690116647564,-10.0,0.40940858779567046,-0.7539963269238174,-9.552606512362313,-0.04349447786808014,-0.6961668729782104,-0.5608356595039368,0.6915197372436523,-0.46867966651916504,0.11288776248693466,1.2513516921761194,-0.023230429098296947,-0.015451489405488874,-0.0037555447538366107,-0.20173567346258273,0.008814560768790962,-0.05320572312542776,-0.07330206714836318,-0.5652101542072503,0.13432517413168277,-1.4269001066702074,0.4145006373620431,-2.313429138305251,-10.0,0.44437417489882636,-3.2193486632354036,-7.463104551712082
1.2513516921761194,-0.023230429098296947,-0.015451489405488874,-0.0037555447538366107,-0.20173567346258273,0.008814560768790962,-0.05320572312542776,-0.07330206714836318,-0.5652101542072503,0.13432517413168277,-1.4269001066702074,0.4145006373620431,-2.313429138305251,-10.0,0.44437417489882636,-3.2193486632354036,-7.463104551712082,0.22739502787590027,-0.7592923045158386,0.018190324306488037,0.6745697855949402,0.04941269010305405,0.8978549242019653,1.2512890561458183,-0.03654788647159514,-0.0034501627224162454,-0.043456879786256036,-0.30264898010230934,0.01233063570954343,-0.08409265352537434,-0.08263934680413049,-0.7889655905864126,-0.15670320449999836,-1.9009027466699115,2.598542112366433,-7.69979047496156,-5.153069869811949,0.424705982989787,-4.496995475091098,5.125924158466866
1.2512890561458183,-0.03654788647159514,-0.0034501627224162454,-0.043456879786256036,-0.30264898010230934,0.01233063570954343,-0.08409265352537434,-0.08263934680413049,-0.7889655905864126,-0.15670320449999836,-1.9009027466699115,2.598542112366433,-7.69979047496156,-5.153069869811949,0.424705982989787,-4.496995475091098,5.125924158466866,0.5630664825439453,0.005563473328948021,0.003411157988011837,-0.45195335149765015,0.3059193789958954,0.49893122911453247,1.2493086194821037,-0.0550365570723133,0.013881770144107988,-0.10845135495596432,-0.30961768485798113,0.006025190495682229,-0.1097838198650849,-0.018554074207312813,-0.7499929818647089,-0.3389348597355033,-2.9389373302563855,1.3938779091676505,-8.368148394107038,2.621628770687474,-2.305057400822368,-1.8008342662367014,10.0
1.2493086194821037,-0.0550365570723133,0.013881770144107988,-0.10845135495596432,-0.30961768485798113,0.006025190495682229,-0.1097838198650849,-0.018554074207312813,-0.7499929818647089,-0.3389348597355033,-2.9389373302563855,1.3938779091676505,-8.368148394107038,2.621628770687474,-2.305057400822368,-1.8008342662367014,10.0,0.519462525844574,-0.6744219660758972,0.03827013447880745,0.9797149300575256,-0.5638741850852966,-0.889139711856842,1.2464941126161915,-0.08183143656398029,0.023137935872712023,-0.1775632599390005,-0.27486115055997934,-0.005018654986683923,-0.14259296051919176,0.02683872878516593,-1.1065005700414214,-0.37253766124582116,-3.7120448199186575,0.95571544627331,-8.849924927617975,5.623569098271771,-0.34888916009180626,-6.533200327621452,0.47826866894772024
1.2464941126161915,-0.08183143656398029,0.023137935872712023,-0.1775632599390005,-0.27486115055997934,-0.005018654986683923,-0.14259296051919176,0.02683872878516593,-1.1065005700414214,-0.37253766124582116,-3.7120448199186575,0.95571544627331,-8.849924927617975,5.623569098271771,-0.34888916009180626,-6.533200327621452,0.47826866894772024,-0.820919930934906,0.7321248650550842,0.1342574506998062,-0.9960962533950806,0.12243440747261047,-0.8976308107376099,1.2436694879178858,-0.159192881867633,-0.0494180558854051,-0.2035595354947019,-0.23332726926643177,-0.08578353450830059,-0.15028060063686585,-0.0271477591278993,-1.413812603843095,-0.40298612283026963,-10.0,-10.0,2.258787209898891,4.748816226497879,-10.0,4.631785415885427,-10.0
1.2436694879178858,-0.159192881867633,-0.0494180558854051,-0.2035595354947019,-0.23332726926643177,-0.08578353450830059,-0.15028060063686585,-0.0271477591278993,-1.413812603843095,-0.40298612283026963,-10.0,-10.0,2.258787209898891,4.748816226497879,-10.0,4.631785415885427,-10.0,-0.28495264053344727,0.6267231106758118,-0.04878803715109825,-0.15447784960269928,-0.3660352826118469,0.47125542163848877,1.238283343106455,-0.29393376567258345,-0.2232620576531295,-0.16806765227556025,-0.19314389277608957,-0.25338050544457535,-0.11969363442797003,-0.11422352221984844,-1.3979299617676046,-0.9753361606786752,-10.0,-10.0,6.623937093116666,5.08521044377932,-10.0,2.9150751017102725,-7.6050355062988295
1.238283343106455,-0.29393376567258345,-0.2232620576531295,-0.16806765227556025,-0.19314389277608957,-0.25338050544457535,-0.11969363442797003,-0.11422352221984844,-1.3979299617676046,-0.9753361606786752,-10.0,-10.0,6.623937093116666,5.08521044377932,-10.0,2.9150751017102725,-7.6050355062988295,-0.026540059596300125,0.29818668961524963,0.3493601977825165,-0.8852332830429077,-0.04227804020047188,-0.49717146158218384,1.227222977471274,-0.45843036945181503,-0.448135059380865,-0.10351637366651359,-0.14232519585487657,-0.46364118076188476,-0.07640624364548569,-0.15726051733816807,-1.360277579448607,-1.8550892104390615,-10.0,-10.0,9.38269680428021,7.487323797967916,-10.0,7.6728941686196155,-3.0884577447061865
1.227222977471274,-0.45843036945181503,-0.448135059380865,-0.10351637366651359,-0.14232519585487657,-0.46364118076188476,-0.07640624364548569,-0.15726051733816807,-1.360277579448607,-1.8550892104390615,-10.0,-10.0,9.38269680428021,7.487323797967916,-10.0,7.6728941686196155,-3.0884577447061865,0.5413420796394348,0.25042206048965454,0.5914108753204346,0.22549296915531158,0.7888261675834656,0.6590240597724915,1.2101666766600205,-0.6235045753913648,-0.6743838769873478,-0.04047884609573843,-0.04957893646099422,-0.6865565611622719,-0.015594891036199333,-0.14653982531067997,-0.7545833852366716,-2.345615762598011,-10.0,-10.0,6.4930798445582925,10.0,-10.0,7.699941133329542,5.659068576226679
1.2101666766600205,-0.6235045753913648,-0.6743838769873478,-0.04047884609573843,-0.04957893646099422,-0.6865565611622719,-0.015594891036199333,-0.14653982531067997,-0.7545833852366716,-2.345615762598011,-10.0,-10.0,6.4930798445582925,10.0,-10.0,7.699941133329542,5.659068576226679,0.04411216452717781,-0.7034069299697876,0.46935486793518066,0.9313285946846008,-0.762889564037323,-0.16197583079338074,1.1926390271035132,-0.7434475655891031,-0.8229939126515345,-0.026408579558077173,0.1109903027768348,-0.8359270300165293,0.0030610054930165966,-0.08966435223829543,-0.9490891030385247,-1.9785802163143245,-10.0,-10.0,-2.7677561529927903,10.0,-10.0,-2.9654653029804834,8.300855368790344
1.1926390271035132,-0.7434475655891031,-0.8229939126515345,-0.026408579558077173,0.1109903027768348,-0.8359270300165293,0.0030610054930165966,-0.08966435223829543,-0.9490891030385247,-1.9785802163143245,-10.0,-10.0,-2.7677561529927903,10.0,-10.0,-2.9654653029804834,8.300855368790344,-0.7044691443443298,-0.5615534782409668,-0.6295310854911804,-0.39684736728668213,0.2746649384498596,0.8507879376411438,1.1734058870233988,-0.856488520917015,-0.9450634978889343,-0.04302129681843188,0.26994299056311744,-0.9565121389215289,-0.01544598986088694,0.014705835537207761,-0.9813425083508509,-2.8472867479925723,-10.0,-10.0,-1.597321275728863,10.0,-10.0,-1.64613157928492,10.0
1.1734058870233988,-0.856488520917015,-0.9450634978889343,-0.04302129681843188,0.26994299056311744,-0.9565121389215289,-0.01544598986088694,0.014705835537207761,-0.9813425083508509,-2.8472867479925723,-10.0,-10.0,-1.597321275728863,10.0,-10.0,-1.64613157928492,10.0,0.18130497634410858,-0.695257842540741,-0.7725119590759277,-0.19405454397201538,-0.7737002372741699,0.12964658439159393,1.1504614746753492,-0.9847946840349153,-1.0725192863709339,-0.07749941541917545,0.35689762106889555,-1.0814663166018823,-0.0544559636699282,0.16582011128142085,-1.278028365061081,-2.890930742093262,-10.0,-10.0,-7.100278715189778,6.215167276315833,-10.0,-8.083101202532799,10.0
1.1504614746753492,-0.9847946840349153,-1.0725192863709339,-0.07749941541917545,0.35689762106889555,-1.0814663166018823,-0.0544559636699282,0.16582011128142085,-1.278028365061081,-2.890930742093262,-10.0,-10.0,-7.100278715189778,6.215167276315833,-10.0,-8.083101202532799,10.0,-0.4847390353679657,-0.3571690022945404,-0.7062195539474487,-0.845773458480835,0.2249722182750702,0.6154996156692505,1.1230677602686039,-1.1318457348904893,-1.2095167106713225,-0.13023971969508702,0.36555294051238707,-1.2183619191523496,-0.10378531257963043,0.3447012613889616,-1.0184606920316748,-3.9638698113624558,-10.0,-10.0,-6.211313365491741,-4.046025358621942,-10.0,-4.239710317096987,10.0
1.2467609233853558,0.0013882309856480257,0.0007884797340109665,0.0023478124833039215,0.0027261501636556733,-0.000970368121138823,-0.0033605461879768696,0.002946404354829274,0.0047393972035229765,-0.0036240661697792965,-0.004078998920464843,0.0014585563551365865,-0.0007828357752194936,-0.00016930129369682224,-0.0015888324448875778,0.004756874855952403,-0.004755075673721656,-0.17886997759342194,0.5864028930664062,0.02891329675912857,0.5855970978736877,0.48198336362838745,-0.4772418141365051,1.2467388212975057,0.0026135874736789295,0.0012592376251453247,0.003137496510619053,0.0025791211391871264,-0.0028779003692863555,0.005076926038712374,-0.026245925730720588,0.040340876893364526,-0.0011253025214321782,0.26286257406714403,0.11519794407533682,0.1734151900606908,-0.05884574865230029,-0.04265248247008399,1.1396187166022516,-6.8795039373965
1.2467388212975057,0.0026135874736789295,0.0012592376251453247,0.003137496510619053,0.0025791211391871264,-0.0028779003692863555,0.005076926038712374,-0.026245925730720588,0.040340876893364526,-0.0011253025214321782,0.26286257406714403,0.11519794407533682,0.1734151900606908,-0.05884574865230029,-0.04265248247008399,1.1396187166022516,-6.8795039373965,0.6419282555580139,-0.15488940477371216,-0.09828541427850723,0.9845196604728699,0.9111912250518799,-0.07130724936723709,1.2465376587800465,0.006600175878605566,0.004145018710815508,0.004163831290753565,-0.003027303326327179,0.0011572074051111516,0.01147306788411475,-0.08496279040912913,0.028096418016224,-0.04933588607282821,0.5925706333066545,0.4782429813497478,0.054355500284304976,-1.3254487058661055,0.8257741011406396,0.5465991240343769,-7.799340994100479
1.2465376587800465,0.006600175878605566,0.004145018710815508,0.004163831290753565,-0.003027303326327179,0.0011572074051111516,0.01147306788411475,-0.08496279040912913,0.028096418016224,-0.04933588607282821,0.5925706333066545,0.4782429813497478,0.054355500284304976,-1.3254487058661055,0.8257741011406396,0.5465991240343769,-7.799340994100479,-0.08702924847602844,-0.10867143422365189,-0.6266919374465942,0.3575286567211151,-0.1894277185201645,0.2643958628177643,1.246100654399992,0.007420340642179764,0.004424646701556295,0.00446951685003874,-0.0454880839121634,0.0062613315559187045,0.009718692131745171,-0.13190223398124837,-0.15623566656855775,-0.060169977957198625,-0.3690644812803418,-0.37677356088592345,0.025901851278114105,-9.290723197960231,0.4795234527417802,-1.0087202893656109,-3.92172251748672
1.246100654399992,0.007420340642179764,0.004424646701556295,0.00446951685003874,-0.0454880839121634,0.0062613315559187045,0.009718692131745171,-0.13190223398124837,-0.15623566656855775,-0.060169977957198625,-0.3690644812803418,-0.37677356088592345,0.025901851278114105,-9.290723197960231,0.4795234527417802,-1.0087202893656109,-3.92172251748672,0.5919064879417419,-0.7038940787315369,0.9701436161994934,-0.05444050580263138,0.8398942351341248,0.7505294680595398,1.244027899065888,-0.002736706435346621,0.0035761955464832557,-0.019824740141193863,-0.05282450757079582,0.00014745233031363426,0.004326130560724339,-0.12012037045913909,-0.3744951661347016,-0.4622004371090453,-2.2020780330926852,0.10452403016332198,-6.064680004231327,7.351233800554936,-2.0112887467570952,-0.4002987457147072,6.886639364685324
1.244027899065888,-0.002736706435346621,0.0035761955464832557,-0.019824740141193863,-0.05282450757079582,0.00014745233031363426,0.004326130560724339,-0.12012037045913909,-0.3744951661347016,-0.4622004371090453,-2.2020780330926852,0.10452403016332198,-6.064680004231327,7.351233800554936,-2.0112887467570952,-0.4002987457147072,6.886639364685324,-0.6865053176879883,-0.031524114310741425,0.24318568408489227,0.4228519797325134,-0.00466356473043561,-0.1507425606250763,1.2398696430285847,-0.026442746904773523,-0.006560045116936815,-0.061342289947124096,0.01512707201669769,-0.02247151530875746,0.0007369730564181975,-0.07168846925920902,-0.45418823109512235,-0.5784942224701455,-3.72061387470705,-2.6395782220070965,-4.294237764335733,9.641444919656983,-3.63688826473609,-0.508345692796403,5.2238341731568045
1.2398696430285847,-0.026442746904773523,-0.006560045116936815,-0.061342289947124096,0.01512707201669769,-0.02247151530875746,0.0007369730564181975,-0.07168846925920902,-0.45418823109512235,-0.5784942224701455,-3.72061387470705,-2.6395782220070965,-4.294237764335733,9.641444919656983,-3.63688826473609,-0.508345692796403,5.2238341731568045,0.6912587285041809,0.47633031010627747,-0.2788330316543579,-0.9943786263465881,0.3769182860851288,-0.14875094592571259,1.2351064053850391,-0.06398020248082262,-0.04141435530237537,-0.08468394157124727,0.07243503772972347,-0.06514296466235908,0.004576198945790493,-0.04083122942765236,-0.5204658524054527,-0.616232407302721,-5.5464699315484465,-5.840175857421664,-1.686696841463805,4.745756791961412,-6.54112072784604,0.7583742195009398,2.7771175772265355
1.2351064053850391,-0.06398020248082262,-0.04141435530237537,-0.08468394157124727,0.07243503772972347,-0.06514296466235908,0.004576198945790493,-0.04083122942765236,-0.5204658524054527,-0.616232407302721,-5.5464699315484465,-5.840175857421664,-1.686696841463805,4.745756791961412,-6.54112072784604,0.7583742195009398,2.7771175772265355,0.5246673822402954,0.057197317481040955,-0.2341829389333725,0.5409857630729675,-0.7099459767341614,0.22155240178108215,1.2301002029749954,-0.07953288150126232,-0.045170155896035125,-0.11417102895816372,0.09940957593807072,-0.06371697860628696,-0.029855445119088983,0.005407194015583226,-0.36795653786132876,-0.6393090347369708,1.6339134656877707,4.865874971784344,-5.677190586608691,2.022913463451212,6.849799142155269,-9.324215042885815,8.620583958463063
1.2301002029749954,-0.07953288150126232,-0.045170155896035125,-0.11417102895816372,0.09940957593807072,-0.06371697860628696,-0.029855445119088983,0.005407194015583226,-0.36795653786132876,-0.6393090347369708,1.6339134656877707,4.865874971784344,-5.677190586608691,2.022913463451212,6.849799142155269,-9.324215042885815,8.620583958463063,0.8387978672981262,-0.3179430663585663,0.08694241940975189,0.4399448037147522,-0.2502990961074829,0.42946723103523254,1.223899621872465,-0.045308451179059996,0.031021712759424887,-0.18399219689584284,0.1257884417341162,0.027916866410935704,-0.12838903823451578,0.1000968853970621,-0.44544120638168827,-0.9430425532536069,3.2249765281519407,8.66226754125204,-9.42616037432761,4.2122003436533255,10.0,-10.0,10.0
1.223899621872465,-0.045308451179059996,0.031021712759424887,-0.18399219689584284,0.1257884417341162,0.027916866410935704,-0.12838903823451578,0.1000968853970621,-0.44544120638168827,-0.9430425532536069,3.2249765281519407,8.66226754125204,-9.42616037432761,4.2122003436533255,10.0,-10.0,10.0,-0.6493378281593323,-0.5468893051147461,-0.8660192489624023,-0.45626455545425415,-0.5690716505050659,0.7357909083366394,1.2156173495062805,-0.046559288373687516,0.06680289014501448,-0.2532319783253662,0.11662820756676859,0.08158290114967474,-0.2333449924219863,0.24940703486482924,-1.0355679178290131,-1.126350480483012,-3.08701740817037,0.9300849336104202,-8.103106061019021,-6.444088191712058,3.5905843374620705,-10.0,10.0
1.2156173495062805,-0.046559288373687516,0.06680289014501448,-0.2532319783253662,0.11662820756676859,0.08158290114967474,-0.2333449924219863,0.24940703486482924,-1.0355679178290131,-1.126350480483012,-3.08701740817037,0.9300849336104202,-8.103106061019021,-6.444088191712058,3.5905843374620705,-10.0,10.0,-0.9177689552307129,-0.2730433940887451,0.6221182346343994,0.9036198854446411,0.4533523917198181,0.3287678360939026,1.2052864845104467,-0.08041184042162701,0.05988061539021864,-0.31288965544259023,0.10132902714780409,0.09572430956930633,-0.33249973769690394,0.4448732442450757,-1.0547834921343215,-1.4549723427420937,-5.13224930039746,-2.361273072397057,-6.803961728096751,2.9339913400808846,0.33068734047882975,-10.0,10.0
1.2052864845104467,-0.08041184042162701,0.05988061539021864,-0.31288965544259023,0.10132902714780409,0.09572430956930633,-0.33249973769690394,0.4448732442450757,-1.0547834921343215,-1.4549723427420937,-5.13224930039746,-2.361273072397057,-6.803961728096751,2.9339913400808846,0.33068734047882975,-10.0,10.0,0.8384231925010681,0.6136063933372498,0.16790412366390228,-0.5008013844490051,0.7341755628585815,-0.23051698505878448,1.1938182636996593,-0.11971390517050239,0.03718189203724553,-0.35718555653595313,0.1388961035649339,0.0860714742701718,-0.39367019282584104,0.6389313864235022,-0.6834616480348177,-1.3972596902518475,-4.678590346764532,-3.272792377953658,-4.356120080708166,6.0035230878747425,-2.668691915033512,-4.077801148975305,10.0
1.1938182636996593,-0.11971390517050239,0.03718189203724553,-0.35718555653595313,0.1388961035649339,0.0860714742701718,-0.39367019282584104,0.6389313864235022,-0.6834616480348177,-1.3972596902518475,-4.678590346764532,-3.272792377953658,-4.356120080708166,6.0035230878747425,-2.668691915033512,-4.077801148975305,10.0,-0.6136701107025146,0.2780887186527252,-0.8840160369873047,0.19153302907943726,0.1734403371810913,-0.10379664599895477,1.1843178989165073,-0.16906497575177917,-0.008986793048748875,-0.37859413675714426,0.18092727343793671,0.04528289227625858,-0.41499962902553034,0.8029400534236528,-0.7951529067899076,-0.9593508671840589,-7.652829209564066,-8.182962998228982,-1.1417741383162776,4.266980556344522,-7.366036947912103,-1.88825479608367,10.0
1.1843178989165073,-0.16906497575177917,-0.008986793048748875,-0.37859413675714426,0.18092727343793671,0.04528289227625858,-0.41499962902553034,0.8029400534236528,-0.7951529067899076,-0.9593508671840589,-7.652829209564066,-8.182962998228982,-1.1417741383162776,4.266980556344522,-7.366036947912103,-1.88825479608367,10.0,-0.4298146963119507,-0.6716668009757996,-0.5955824255943298,-0.05051733925938606,-0.670295238494873,-0.37335559725761414,1.1769151177327066,-0.23492108885947985,-0.07184913084721553,-0.3982889125346729,0.21359378183938418,-0.011130513453454968,-0.44190750532918854,0.8945891821971528,-1.2382978615781497,-0.926782386735613,-8.827889216654812,-7.599494116182472,-3.730608710999794,3.930392006909072,-6.762475092286298,-4.815326385403677,6.660881342374427
1.1769151177327066,-0.23492108885947985,-0.07184913084721553,-0.3982889125346729,0.21359378183938418,-0.011130513453454968,-0.44190750532918854,0.8945891821971528,-1.2382978615781497,-0.926782386735613,-8.827889216654812,-7.599494116182472,-3.730608710999794,3.930392006909072,-6.762475092286298,-4.815326385403677,6.660881342374427,-0.03899102285504341,-0.15986323356628418,-0.40433403849601746,-0.055186424404382706,0.6666839718818665,0.9991438388824463,1.170111094244195,-0.3098894765554325,-0.13879534000363322,-0.42551598276896496,0.2406236414669349,-0.07638762875140664,-0.4687192758462826,0.9257444954605175,-1.2164046522675236,-0.7939222796724849,-9.915933565792526,-9.181291706049826,-3.0119090137758837,2.8177531778345357,-9.50559026382298,-1.9902152783657758,1.6817361794341164
1.170111094244195,-0.3098894765554325,-0.13879534000363322,-0.42551598276896496,0.2406236414669349,-0.07638762875140664,-0.4687192758462826,0.9257444954605175,-1.2164046522675236,-0.7939222796724849,-9.915933565792526,-9.181291706049826,-3.0119090137758837,2.8177531778345357,-9.50559026382298,-1.9902152783657758,1.6817361794341164,-0.09961599856615067,0.4831249415874481,0.4585399031639099,-0.7507639527320862,-0.9400923848152161,-0.40602096915245056,1.162548843880281,-0.4067160845023393,-0.23667781068260332,-0.44204015426976884,0.27939316022847127,-0.16991446254369932,-0.4885497239450565,0.9239358358197451,-1.4919330895777243,-1.127940317384789,-10.0,-10.0,-1.170108403725929,6.795492071004109,-10.0,-2.9578120581135723,-2.086057955274988
1.162548843880281,-0.4067160845023393,-0.23667781068260332,-0.44204015426976884,0.27939316022847127,-0.16991446254369932,-0.4885497239450565,0.9239358358197451,-1.4919330895777243,-1.127940317384789,-10.0,-10.0,-1.170108403725929,6.795492071004109,-10.0,-2.9578120581135723,-2.086057955274988,0.27653196454048157,-0.6576113700866699,-0.4060437083244324,-0.1152544617652893,-0.5533484220504761,-0.7313775420188904,1.152898645622544,-0.5108762822590667,-0.3341464733018614,-0.4720189685373179,0.32010477735748755,-0.25901892740983634,-0.5272963614960474,0.8779409214986105,-1.6697784441622177,-1.2742266456895857,-10.0,-9.120888038728246,-6.438954892459087,2.922890387678264,-8.469784808379357,-7.060637044134712,-10.0
1.152898645622544,-0.5108762822590667,-0.3341464733018614,-0.4720189685373179,0.32010477735748755,-0.25901892740983634,-0.5272963614960474,0.8779409214986105,-1.6697784441622177,-1.2742266456895857,-10.0,-9.120888038728246,-6.438954892459087,2.922890387678264,-8.469784808379357,-7.060637044134712,-10.0,0.601850152015686,0.318805068731308,0.4840104579925537,-0.04114066809415817,0.7506203055381775,0.49274760484695435,1.142444564732189,-0.5959778430255362,-0.3974185470333526,-0.5238836760239086,0.3645631626491949,-0.3236915631179125,-0.5659795685465524,0.8185036289467054,-1.25778784953441,-1.3200204712472752,-9.48625893419313,-6.763502294779429,-6.324086689181486,8.320221638557653,-7.694256821634825,-2.721161932983711,-5.091104557257049
1.142444564732189,-0.5959778430255362,-0.3974185470333526,-0.5238836760239086,0.3645631626491949,-0.3236915631179125,-0.5659795685465524,0.8185036289467054,-1.25778784953441,-1.3200204712472752,-9.48625893419313,-6.763502294779429,-6.324086689181486,8.320221638557653,-7.694256821634825,-2.721161932983711,-5.091104557257049,0.5518369078636169,0.10542334616184235,0.3680923879146576,-0.41200172901153564,-0.762061595916748,0.8342257142066956,1.1307128453952733,-0.664108734170254,-0.4379184315052819,-0.5821493517610392,0.45090667390602923,-0.3680430523757333,-0.604714061079268,0.790917217324284,-1.2576542598237253,-1.606413782147079,-7.555319555018254,-3.393926781695942,-8.184175259719893,10.0,-3.4296357299031426,-6.934938101736437,-2.1106077958389484
1.1307128453952733,-0.664108734170254,-0.4379184315052819,-0.5821493517610392,0.45090667390602923,-0.3680430523757333,-0.604714061079268,0.790917217324284,-1.2576542598237253,-1.606413782147079,-7.555319555018254,-3.393926781695942,-8.184175259719893,10.0,-3.4296357299031426,-6.934938101736437,-2.1106077958389484,0.22767624258995056,0.30051377415657043,0.5783087015151978,0.8013413548469543,0.7652385234832764,-0.7210528254508972,1.1192563324326352,-0.7057902118084717,-0.44537859246536676,-0.6435625667954258,0.5845570969409396,-0.3746232863366436,-0.6595182788000351,0.7390322940214256,-0.9134986774791587,-1.2440007115545353,-2.8877594755783065,1.504791638928662,-7.101402074714575,10.0,1.7760021807837323,-6.760205172446977,-10.0
1.1192563324326352,-0.7057902118084717,-0.44537859246536676,-0.6435625667954258,0.5845570969409396,-0.3746232863366436,-0.6595182788000351,0.7390322940214256,-0.9134986774791587,-1.2440007115545353,-2.8877594755783065,1.504791638928662,-7.101402074714575,10.0,1.7760021807837323,-6.760205172446977,-10.0,-0.9450860619544983,-0.10455222427845001,0.20583364367485046,-0.6510300636291504,-0.1393406093120575,-0.8190449476242065,1.1067627553472732,-0.7643711512486551,-0.48459892093617357,-0.6766936195335447,0.752466530250407,-0.40788443799835883,-0.7005461102733158,0.6073204651619742,-1.1567480093295994,-1.8951773617997645,-10.0,-10.0,-1.2242003567001483,10.0,-9.987603398889192,-3.4648477873059695,-10.0
1.1067627553472732,-0.7643711512486551,-0.48459892093617357,-0.6766936195335447,0.752466530250407,-0.40788443799835883,-0.7005461102733158,0.6073204651619742,-1.1567480093295994,-1.8951773617997645,-10.0,-10.0,-1.2242003567001483,10.0,-9.987603398889192,-3.4648477873059695,-10.0,-0.9483700394630432,0.2576608955860138,-0.7066963315010071,-0.7350329756736755,-0.9587290287017822,0.02908552996814251,1.0880660727163278,-0.892770645291508,-0.6227939421232122,-0.6668307677975059,0.8773696064631864,-0.5286067112004645,-0.7232916810553675,0.4250737169381632,-1.244356832935682,-2.83495823786178,-10.0,-10.0,3.6061222939749493,9.54098180391329,-10.0,-2.2452153477372208,-10.0
1.0880660727163278,-0.892770645291508,-0.6227939421232122,-0.6668307677975059,0.8773696064631864,-0.5286067112004645,-0.7232916810553675,0.4250737169381632,-1.244356832935682,-2.83495823786178,-10.0,-10.0,3.6061222939749493,9.54098180391329,-10.0,-2.2452153477372208,-10.0,0.959384024143219,0.8025556802749634,-0.714407205581665,0.339252769947052,-0.9658428430557251,0.8785489201545715,1.0664180597413568,-1.0246721591429424,-0.7668394327142828,-0.650825121724789,0.9203985218537123,-0.641351101465141,-0.7651069611614545,0.2776481977280431,-0.9975933735403762,-2.5376270767155797,-10.0,-10.0,0.47030627351412857,1.5694225511107434,-8.428677373913006,-8.13287929099863,-10.0
1.2496964214863955,-0.002651302223258737,-0.0045095772534797934,-0.0028596181233865236,-0.002731395810246594,-0.0037931193774468686,0.0029210307501378934,-0.0004574810342626934,0.00023588609774547343,0.003842667441348869,0.0013178840466755758,-0.000573476358108266,-0.00125340830034101,-0.0002839498111821461,0.0019899642836681223,-0.004505910395910849,0.003432110480179101,0.9999201893806458,0.19549070298671722,0.06874924153089523,-0.7802885174751282,-0.6005170345306396,0.26602494716644287,1.2491814163667074,0.0017495121949467098,0.006263296087394851,-0.012472668193747639,0.00436150401840831,0.006726340638140527,-0.009078749968741768,0.01847093067293697,-0.10894179110207955,-0.13421480462940338,0.2555631799353822,1.4199328246147824,-1.835906463619375,1.6547001300201516,1.3741175968345727,-2.465219923584332,4.606422580639521
1.2491814163667074,0.0017495121949467098,0.006263296087394851,-0.012472668193747639,0.00436150401840831,0.006726340638140527,-0.009078749968741768,0.01847093067293697,-0.10894179110207955,-0.13421480462940338,0.2555631799353822,1.4199328246147824,-1.835906463619375,1.6547001300201516,1.3741175968345727,-2.465219923584332,4.606422580639521,-0.6723466515541077,0.4278810918331146,-0.4489653706550598,0.6098045110702515,0.9428173303604126,-0.23422597348690033,1.2482652763577868,-0.004548719751008099,-0.008806474883238127,0.004540384358490385,-0.017797705891868028,-0.006161096950568094,-0.0010981420099590742,0.031628168747540195,0.17821307118498445,-0.10132113946233498,-1.7325212293799108,-4.804982890450376,5.557799937814553,-7.017853349129265,-4.4060505616734424,4.348904592402567,-1.2906680615053456
1.2482652763577868,-0.004548719751008099,-0.008806474883238127,0.004540384358490385,-0.017797705891868028,-0.006161096950568094,-0.0010981420099590742,0.031628168747540195,0.17821307118498445,-0.10132113946233498,-1.7325212293799108,-4.804982890450376,5.557799937814553,-7.017853349129265,-4.4060505616734424,4.348904592402567,-1.2906680615053456,0.4837891161441803,0.19551602005958557,0.7803781032562256,0.5766153931617737,0.7155521512031555,-0.8582170009613037,1.2471921226911862,0.006738068564879418,-0.00826791223173165,0.02841896381135857,-0.03031696820829831,-0.006521626941583403,0.02450174726924583,-0.021197224575094913,0.49034464611018347,-0.16729089278483056,4.545935795449628,4.924423769711369,0.43033225684837695,3.8896232450513284,4.334879612415496,2.022325636135591,-10.0
1.2471921226911862,0.006738068564879418,-0.00826791223173165,0.02841896381135857,-0.03031696820829831,-0.006521626941583403,0.02450174726924583,-0.021197224575094913,0.49034464611018347,-0.16729089278483056,4.545935795449628,4.924423769711369,0.43033225684837695,3.8896232450513284,4.334879612415496,2.022325636135591,-10.0,-0.745825469493866,0.6771257519721985,0.5497835874557495,0.9857446551322937,0.16195982694625854,0.2397231161594391,1.2449008701368383,0.03662994416873793,0.024062581112523643,0.02997152632012638,0.032101878870082555,0.024748330371158804,0.03290341408104479,-0.0973758282672933,0.2657668855047506,-0.3976457341694252,2.332451337518343,2.4556258075335946,0.019630228952279435,10.0,2.610896600597638,0.4205932442280673,-7.19020736391378
1.2449008701368383,0.03662994416873793,0.024062581112523643,0.02997152632012638,0.032101878870082555,0.024748330371158804,0.03290341408104479,-0.0973758282672933,0.2657668855047506,-0.3976457341694252,2.332451337518343,2.4556258075335946,0.019630228952279435,10.0,2.610896600597638,0.4205932442280673,-7.19020736391378,0.7401370406150818,-0.9484572410583496,0.8832452893257141,0.12947674095630646,-0.29172763228416443,-0.6508135795593262,1.2413972524317758,0.04151202678316906,0.038118910379749876,0.009471417833560185,0.17900125677560977,0.033473435147432964,0.033224644078667556,-0.1846012359881608,-0.287841330274451,-0.47695873297025254,-1.018136360669387,1.1786791114377944,-5.072359000562874,10.0,-0.3581633746020314,-0.25228796939838505,-10.0
1.2413972524317758,0.04151202678316906,0.038118910379749876,0.009471417833560185,0.17900125677560977,0.033473435147432964,0.033224644078667556,-0.1846012359881608,-0.287841330274451,-0.47695873297025254,-1.018136360669387,1.1786791114377944,-5.072359000562874,10.0,-0.3581633746020314,-0.25228796939838505,-10.0,0.4819875657558441,0.7868772745132446,-0.28928661346435547,-0.6661279201507568,0.5912911891937256,-0.2819492518901825,1.23779671517582,0.028270466418095847,0.03363597443638253,-0.011705322699676269,0.35302163998389235,0.0231146351878285,0.03114932021252158,-0.2552760350038757,-0.27846005394782225,-0.42404911786728106,-2.3492721280278173,-2.569883645702607,0.15728758286545808,10.0,-2.3170822444782306,-0.256538409153815,-4.51866803193791
1.23779671517582,0.028270466418095847,0.03363597443638253,-0.011705322699676269,0.35302163998389235,0.0231146351878285,0.03114932021252158,-0.2552760350038757,-0.27846005394782225,-0.42404911786728106,-2.3492721280278173,-2.569883645702607,0.15728758286545808,10.0,-2.3170822444782306,-0.256538409153815,-4.51866803193791,0.05196866765618324,-0.7507407665252686,-0.43831291794776917,-0.3345613479614258,-0.6550002098083496,-0.27881839871406555,1.2347214997882652,0.006043784081061034,0.01820306726262736,-0.026803797161808064,0.4821991295704662,0.007280098538221971,0.017220744330604235,-0.2648560999041517,-0.6903544503943219,-0.3515881494457947,-3.2801227748391946,-1.3931357538412739,-3.9619511208327696,10.0,-1.7374621391088994,-3.1669953296916407,1.5811899348727334
1.2347214997882652,0.006043784081061034,0.01820306726262736,-0.026803797161808064,0.4821991295704662,0.007280098538221971,0.017220744330604235,-0.2648560999041517,-0.6903544503943219,-0.3515881494457947,-3.2801227748391946,-1.3931357538412739,-3.9619511208327696,10.0,-1.7374621391088994,-3.1669953296916407,1.5811899348727334,-0.015063394792377949,0.06377334892749786,0.7747471332550049,-0.9751657843589783,0.400995135307312,-0.7504306435585022,1.2316016355278254,-0.04071752176595382,-0.01743510511363415,-0.05399883276414896,0.6280258665598917,-0.03502703701719442,0.000833001711967925,-0.24276414519029535,-1.103060978523453,-0.4444499480152519,-8.360405044908244,-7.446732974995294,-2.748920455209004,10.0,-8.654141197736203,-1.1418671383586307,3.789341020977334
1.2316016355278254,-0.04071752176595382,-0.01743510511363415,-0.05399883276414896,0.6280258665598917,-0.03502703701719442,0.000833001711967925,-0.24276414519029535,-1.103060978523453,-0.4444499480152519,-8.360405044908244,-7.446732974995294,-2.748920455209004,10.0,-8.654141197736203,-1.1418671383586307,3.789341020977334,0.5245785713195801,-0.30970773100852966,-0.8167170286178589,-0.34652552008628845,-0.01752861775457859,-0.6134699583053589,1.22857722612084,-0.10190527822470713,-0.06499487432006144,-0.08847854893109106,0.7664239547946327,-0.10075082142258195,-0.001611835098666358,-0.21594895344380624,-1.0931642760402134,-0.3134797153087582,-6.956930532734524,-4.454472014017467,-6.0135964900213414,10.0,-7.815296209293516,0.5705089162286276,2.7455468650224852
1.22857722612084,-0.10190527822470713,-0.06499487432006144,-0.08847854893109106,0.7664239547946327,-0.10075082142258195,-0.001611835098666358,-0.21594895344380624,-1.0931642760402134,-0.3134797153087582,-6.956930532734524,-4.454472014017467,-6.0135964900213414,10.0,-7.815296209293516,0.5705089162286276,2.7455468650224852,-0.2552439570426941,-0.7869702577590942,-0.5807766914367676,0.8132360577583313,0.3068453073501587,0.1759648472070694,1.2259780291053441,-0.14180518673563736,-0.07181816587465593,-0.1613551842410824,0.8265529033953992,-0.13810728531062988,-0.009717402014443773,-0.18251685520805894,-1.038279964611331,-0.3391723159059714,-3.0326328876596715,2.725757422072784,-10.0,3.3128780712243535,-1.557000387310129,-2.5433594339734995,5.631170164286663
1.2259780291053441,-0.14180518673563736,-0.07181816587465593,-0.1613551842410824,0.8265529033953992,-0.13810728531062988,-0.009717402014443773,-0.18251685520805894,-1.038279964611331,-0.3391723159059714,-3.0326328876596715,2.725757422072784,-10.0,3.3128780712243535,-1.557000387310129,-2.5433594339734995,5.631170164286663,0.8017239570617676,0.1359577178955078,0.10824026167392731,-0.34656092524528503,-0.3850071132183075,0.8853313326835632,1.2222186441362264,-0.1534655023592469,-0.029526380408866786,-0.2703107846203006,0.8420704098665517,-0.12616784099151257,-0.052491380173563223,-0.08016562900443848,-0.9672307360223654,-0.616644628395595,0.10763576147662801,7.835356302535537,-10.0,0.8393543070048739,4.491814924860111,-8.002603200959001,10.0
1.2222186441362264,-0.1534655023592469,-0.029526380408866786,-0.2703107846203006,0.8420704098665517,-0.12616784099151257,-0.052491380173563223,-0.08016562900443848,-0.9672307360223654,-0.616644628395595,0.10763576147662801,7.835356302535537,-10.0,0.8393543070048739,4.491814924860111,-8.002603200959001,10.0,-0.3725563883781433,0.5337529182434082,0.46003398299217224,-0.5799065828323364,-0.4472489058971405,0.8500842452049255,1.2158295954150162,-0.1750930796552804,-0.0055738407972928065,-0.363401159845083,0.8441226408260949,-0.11645511270894468,-0.11832614412170188,0.1224429569975874,-1.2216439655257647,-0.9702215459150365,-5.490256887914163,-1.7529706368358458,-8.419753106296945,-0.1876055811954094,-2.0650364828518573,-8.258105495531469,10.0
1.2158295954150162,-0.1750930796552804,-0.0055738407972928065,-0.363401159845083,0.8441226408260949,-0.11645511270894468,-0.11832614412170188,0.1224429569975874,-1.2216439655257647,-0.9702215459150365,-5.490256887914163,-1.7529706368358458,-8.419753106296945,-0.1876055811954094,-2.0650364828518573,-8.258105495531469,10.0,0.5149722099304199,0.8154360055923462,-0.03198389708995819,-0.7941567301750183,0.054948121309280396,0.3810367286205292,1.2074307752963533,-0.229298889254667,-0.04176104246663947,-0.40955456690897346,0.8395381541200091,-0.15404566050461807,-0.16504515892749738,0.37799669921634677,-1.1098960967027536,-1.1264431183465977,-8.05099132504248,-7.261112563155322,-3.151618300085511,-0.8538406466322169,-7.3190449815812855,-3.3342491385352493,10.0
1.2074307752963533,-0.229298889254667,-0.04176104246663947,-0.40955456690897346,0.8395381541200091,-0.15404566050461807,-0.16504515892749738,0.37799669921634677,-1.1098960967027536,-1.1264431183465977,-8.05099132504248,-7.261112563155322,-3.151618300085511,-0.8538406466322169,-7.3190449815812855,-3.3342491385352493,10.0,0.8643845915794373,0.745226263999939,0.5407705903053284,-0.44890931248664856,0.8029818534851074,-0.4438425600528717,1.1987906199202933,-0.2915381912978339,-0.10520202068067103,-0.41976161231401293,0.8328432716242934,-0.22741400205502574,-0.15447465687100484,0.6135520730414536,-0.6497581501629731,-1.033655470964784,-7.503642433668954,-8.57919319738766,0.5731620095032471,-0.8031845495910399,-10.0,5.900877726054973,10.0
1.1987906199202933,-0.2915381912978339,-0.10520202068067103,-0.41976161231401293,0.8328432716242934,-0.22741400205502574,-0.15447465687100484,0.6135520730414536,-0.6497581501629731,-1.033655470964784,-7.503642433668954,-8.57919319738766,0.5731620095032471,-0.8031845495910399,-10.0,5.900877726054973,10.0,0.3993901312351227,-0.9881486296653748,0.5464004874229431,-0.9111419916152954,-0.8441836833953857,-0.7913739681243896,1.1905047120446848,-0.357105493150058,-0.16690197416686714,-0.4410429483960028,0.8264367580465535,-0.31379435042584813,-0.12315279269268803,0.7738760466240939,-1.1270943805350746,-1.0413256496871552,-8.928694978718953,-6.943574027478675,-5.788525301420898,-0.7838223557136068,-10.0,2.1870214305471274,10.0
1.1905047120446848,-0.357105493150058,-0.16690197416686714,-0.4410429483960028,0.8264367580465535,-0.31379435042584813,-0.12315279269268803,0.7738760466240939,-1.1270943805350746,-1.0413256496871552,-8.928694978718953,-6.943574027478675,-5.788525301420898,-0.7838223557136068,-10.0,2.1870214305471274,10.0,-0.45583924651145935,0.9067628383636475,0.23067675530910492,-0.3792036473751068,0.06094060093164444,0.0907040536403656,1.181537225806953,-0.45325111424081105,-0.27096279830892206,-0.4461424745026599,0.8201783485963898,-0.4388590772049075,-0.08748654042820843,0.8567665467384373,-1.073590784827205,-1.2649204516772512,-10.0,-10.0,4.382338150515864,-0.7603171835849709,-10.0,6.698817980777202,6.311802683683405
1.181537225806953,-0.45325111424081105,-0.27096279830892206,-0.4461424745026599,0.8201783485963898,-0.4388590772049075,-0.08748654042820843,0.8567665467384373,-1.073590784827205,-1.2649204516772512,-10.0,-10.0,4.382338150515864,-0.7603171835849709,-10.0,6.698817980777202,6.311802683683405,-0.6513552665710449,0.977258026599884,-0.7612374424934387,0.8063172698020935,0.0811353251338005,0.24710500240325928,1.171207639530699,-0.5738566084235769,-0.43854170422649286,-0.3790484213182507,0.7723604658581751,-0.6017255139435733,-0.036967232384852416,0.88680586271213,-0.7555603944046911,-1.3438017769348174,-10.0,-10.0,10.0,-10.0,-10.0,5.879158867914889,1.7117089780375505
1.171207639530699,-0.5738566084235769,-0.43854170422649286,-0.3790484213182507,0.7723604658581751,-0.6017255139435733,-0.036967232384852416,0.88680586271213,-0.7555603944046911,-1.3438017769348174,-10.0,-10.0,10.0,-10.0,-10.0,5.879158867914889,1.7117089780375505,0.04918850213289261,-0.4260390102863312,0.976513147354126,-0.6701338887214661,-0.020213356241583824,-0.020421260967850685,1.1577190505929826,-0.7039931501516808,-0.6289008531260056,-0.2852729995914907,0.727112535993301,-0.7771821040580714,0.016345314772561993,0.8896795654383739,-0.8022875283184878,-2.0125224369532693,-10.0,-10.0,10.0,-0.04703027543708416,-10.0,5.872876348211664,-0.6323105304120986
1.1577190505929826,-0.7039931501516808,-0.6289008531260056,-0.2852729995914907,0.727112535993301,-0.7771821040580714,0.016345314772561993,0.8896795654383739,-0.8022875283184878,-2.0125224369532693,-10.0,-10.0,10.0,-0.04703027543708416,-10.0,5.872876348211664,-0.6323105304120986,-0.6672365665435791,0.6354711651802063,-0.6811322569847107,-0.649412989616394,0.28524112701416016,0.7869288325309753,1.1377584839638044,-0.8645285852650142,-0.8604404607425344,-0.17097058204797713,0.6802658350642512,-0.9740131551259378,0.04795032229604943,0.8819283448433833,-0.7617172542477317,-3.0456347348449317,-10.0,-10.0,10.0,-10.0,-10.0,2.357749400488498,-1.2390858075206488
1.1377584839638044,-0.8645285852650142,-0.8604404607425344,-0.17097058204797713,0.6802658350642512,-0.9740131551259378,0.04795032229604943,0.8819283448433833,-0.7617172542477317,-3.0456347348449317,-10.0,-10.0,10.0,-10.0,-10.0,2.357749400488498,-1.2390858075206488,-0.5929756760597229,0.9846698641777039,0.33638089895248413,0.10858535766601562,0.5481377243995667,0.7444199323654175,1.1097954720117584,-1.0513238846108817,-1.1494733957489995,0.005903668481652739,0.58566335116871,-1.1900724513903214,0.05831463209192272,0.8711298097266886,-0.18029765902970826,-3.9370061955264477,-10.0,-10.0,10.0,-10.0,-10.0,0.44420912548232516,-1.3981484904277752
1.250858276766393,-0.0015748253337875885,0.004783582881519979,0.0038371880390993584,0.004037113419324047,0.0011976222470251006,0.0007100333994814667,0.0007499738061508329,-0.0025712316760815547,-0.0007600589707583896,0.0008485148868021923,-0.0037859009740204,-0.004308218021224016,0.004113318858006434,0.0007599629976092195,-0.00299431752636766,0.0011490353653096771,-0.2104749083518982,-0.31050944328308105,0.8852724432945251,0.6607953310012817,0.8061638474464417,-0.8790485858917236,1.2505444406392374,-0.003940204152350878,0.005427440687776767,-0.005101575841937283,0.05183487090584531,-0.000566418695175815,0.0017949832210853811,-0.04342422612687863,-0.13724233799941932,-0.07805231814581151,-0.6007238869583755,0.14377337143856664,-2.167144773460355,10.0,-0.4148634976576375,0.23216862614378897,-10.0
1.2505444406392374,-0.003940204152350878,0.005427440687776767,-0.005101575841937283,0.05183487090584531,-0.000566418695175815,0.0017949832210853811,-0.04342422612687863,-0.13724233799941932,-0.07805231814581151,-0.6007238869583755,0.14377337143856664,-2.167144773460355,10.0,-0.4148634976576375,0.23216862614378897,-10.0,0.48729342222213745,0.6862479448318481,-0.217484712600708,0.968487024307251,0.808790922164917,-0.272940456867218,1.2499410876486654,-0.001912374979215386,0.004722966133386329,-0.0020687188162101747,0.12484840778454813,0.0038663230780281686,0.0038581957194789144,-0.14716637750398107,0.09012355308703147,-0.07407645318389414,0.5038509340709377,-0.7594407516399755,2.4851586339797294,6.656605434728146,0.7972680798418349,0.32535087445342054,-10.0
1.2499410876486654,-0.001912374979215386,0.004722966133386329,-0.0020687188162101747,0.12484840778454813,0.0038663230780281686,0.0038581957194789144,-0.14716637750398107,0.09012355308703147,-0.07407645318389414,0.5038509340709377,-0.7594407516399755,2.4851586339797294,6.656605434728146,0.7972680798418349,0.32535087445342054,-10.0,0.75235915184021,-0.22577445209026337,-0.22084034979343414,-0.6276490688323975,-0.09320734441280365,0.5342031717300415,1.2487931303257316,-0.0003148259808251427,0.0008128672619212248,0.008772466406042375,0.17173549553760226,0.007787823440019415,0.0047382459612680975,-0.23520815084833163,-0.03764176702448749,-0.21049756802273895,-0.11021102922972772,-0.26316037796162106,0.28590793336314824,5.047225152012727,0.18662434566169298,-0.19528492174436482,-6.850500895299426
1.2487931303257316,-0.0003148259808251427,0.0008128672619212248,0.008772466406042375,0.17173549553760226,0.007787823440019415,0.0047382459612680975,-0.23520815084833163,-0.03764176702448749,-0.21049756802273895,-0.11021102922972772,-0.26316037796162106,0.28590793336314824,5.047225152012727,0.18662434566169298,-0.19528492174436482,-6.850500895299426,-0.7619494795799255,0.658535361289978,0.18136759102344513,0.9100528359413147,-0.14628155529499054,0.3235366642475128,1.2464530841191324,-0.0066110720074962276,-0.0074042531229736065,0.010905499980507799,0.22255857836487702,0.00900227825852851,-0.009714251716692771,-0.2562778709752969,-0.24097169861746268,-0.3771289651623767,-1.4617500869717532,-1.7836770156413473,0.246199834479659,7.656186233561768,0.12189345276622639,-3.4020540635772907,1.0451854822366753
1.2464530841191324,-0.0066110720074962276,-0.0074042531229736065,0.010905499980507799,0.22255857836487702,0.00900227825852851,-0.009714251716692771,-0.2562778709752969,-0.24097169861746268,-0.3771289651623767,-1.4617500869717532,-1.7836770156413473,0.246199834479659,7.656186233561768,0.12189345276622639,-3.4020540635772907,1.0451854822366753,0.5233525037765503,0.6395283341407776,0.9507598280906677,0.9476267099380493,0.6469420194625854,0.9696018695831299,1.2417651127247071,-0.013354644097238367,-0.015556375309340812,0.01173402986275215,0.3369104531499944,0.010702398580067659,-0.03216884584077968,-0.193627410787972,0.0731136281554603,-0.7926202710992429,-0.23101743383847073,-0.22645477439894324,-0.0009638698669106119,10.0,0.2776858175012002,-2.0793582820867496,10.0
1.2417651127247071,-0.013354644097238367,-0.015556375309340812,0.01173402986275215,0.3369104531499944,0.010702398580067659,-0.03216884584077968,-0.193627410787972,0.0731136281554603,-0.7926202710992429,-0.23101743383847073,-0.22645477439894324,-0.0009638698669106119,10.0,0.2776858175012002,-2.0793582820867496,10.0,0.876901388168335,-0.22099998593330383,-0.6236703395843506,-0.27595362067222595,-0.4738253653049469,0.08920209109783173,1.2355304492444128,-0.016249141529770722,-0.012438355687197292,0.0016915540763265055,0.4747660138090469,0.012681117670174,-0.050094567270914,-0.07597357311685049,-0.1122490389273147,-0.7681025288179788,-0.49109652483745,1.023215020448297,-2.627739872645238,10.0,0.21817574170486295,-2.3961921652315454,10.0
1.2355304492444128,-0.016249141529770722,-0.012438355687197292,0.0016915540763265055,0.4747660138090469,0.012681117670174,-0.050094567270914,-0.07597357311685049,-0.1122490389273147,-0.7681025288179788,-0.49109652483745,1.023215020448297,-2.627739872645238,10.0,0.21817574170486295,-2.3961921652315454,10.0,0.71631920337677,0.7714691758155823,0.4495369791984558,0.10665301978588104,0.47687670588493347,0.35346871614456177,1.2285417181756477,-0.01438927124965244,-0.0027243792710822464,-0.007469256253796631,0.6057172215141063,0.013530195936530771,-0.055536420067499585,0.057273104595900896,0.2875979282659902,-0.9754888359452277,0.9752797902344281,1.4070759092534693,0.4513787309554871,10.0,0.017294314354210145,1.0821185963731086,10.0
1.2285417181756477,-0.01438927124965244,-0.0027243792710822464,-0.007469256253796631,0.6057172215141063,0.013530195936530771,-0.055536420067499585,0.057273104595900896,0.2875979282659902,-0.9754888359452277,0.9752797902344281,1.4070759092534693,0.4513787309554871,10.0,0.017294314354210145,1.0821185963731086,10.0,0.8407485485076904,0.19018255174160004,0.17932766675949097,0.5860742926597595,0.8805686235427856,-0.8081672191619873,1.2209926903972752,-0.000919258571975827,0.012079327251192245,0.0022961857596297775,0.7658475628829069,0.0065838429487844055,-0.017298035675625358,0.14889092882225646,0.6294839507766552,-0.9190525442017446,1.8875211612295493,1.4416971888910417,2.5221276949021005,10.0,-2.2541955256447452,8.245238766677321,4.705739977359613
1.2209926903972752,-0.000919258571975827,0.012079327251192245,0.0022961857596297775,0.7658475628829069,0.0065838429487844055,-0.017298035675625358,0.14889092882225646,0.6294839507766552,-0.9190525442017446,1.8875211612295493,1.4416971888910417,2.5221276949021005,10.0,-2.2541955256447452,8.245238766677321,4.705739977359613,-0.8547778725624084,0.9484163522720337,0.10705093294382095,-0.16406527161598206,-0.18625609576702118,0.941577136516571,1.2133021692840946,-0.003633037774381088,0.004211915440527267,0.017637626733553572,0.8826325301031532,-0.023907892281628117,0.03354493111550416,0.23758187488441807,0.0441132113220144,-1.0095927293600226,-2.522803612869059,-3.403836355004466,1.3980526194086975,8.977558764771931,-5.0811665289832595,4.050586000542463,10.0
1.2133021692840946,-0.003633037774381088,0.004211915440527267,0.017637626733553572,0.8826325301031532,-0.023907892281628117,0.03354493111550416,0.23758187488441807,0.0441132113220144,-1.0095927293600226,-2.522803612869059,-3.403836355004466,1.3980526194086975,8.977558764771931,-5.0811665289832595,4.050586000542463,10.0,-0.22223469614982605,0.6688896417617798,0.5316208004951477,0.9156668782234192,-0.9617148637771606,-0.9018616676330566,1.2063093111050476,-0.008035076246777902,-0.0026421350771698277,0.024708234760696814,0.9257885303599037,-0.028829026272346348,0.033417801741312196,0.34117969481112587,0.042915769369169354,-0.663828239394434,1.8793681945120324,2.2140987540474697,0.4455469760057202,2.5130452510776653,4.365177745172311,-3.909467543838683,8.297138151293456
1.2063093111050476,-0.008035076246777902,-0.0026421350771698277,0.024708234760696814,0.9257885303599037,-0.028829026272346348,0.033417801741312196,0.34117969481112587,0.042915769369169354,-0.663828239394434,1.8793681945120324,2.2140987540474697,0.4455469760057202,2.5130452510776653,4.365177745172311,-3.909467543838683,8.297138151293456,-0.0015012865187600255,-0.761588454246521,-0.15317535400390625,0.8745667338371277,0.8408136963844299,0.01800156570971012,1.2023278266029307,0.0066711460566578114,0.017264743785576908,0.023053611152620158,0.9305492483467498,0.0018393465971517408,0.008856434441479228,0.3919824706775588,0.00070683864926048,-0.35295111888342273,1.184449455787032,1.802288964498874,-0.3633650974507413,-0.8970733581127478,2.5464341599498828,-2.1049835531495336,4.675999900755826
1.2023278266029307,0.0066711460566578114,0.017264743785576908,0.023053611152620158,0.9305492483467498,0.0018393465971517408,0.008856434441479228,0.3919824706775588,0.00070683864926048,-0.35295111888342273,1.184449455787032,1.802288964498874,-0.3633650974507413,-0.8970733581127478,2.5464341599498828,-2.1049835531495336,4.675999900755826,-0.6259817481040955,0.6890646815299988,0.823811411857605,0.9962944984436035,0.2544512450695038,0.19758577644824982,1.2003560148824433,0.010996103541370015,0.025301266375378568,0.02100009836162744,0.9186404702091706,0.016059752899663923,-0.008387721718211541,0.4312510493101759,-0.09743775824509955,-0.1535667312719975,-0.015340450749270762,0.32242838601124585,-0.17215320151634414,-1.9071223394291141,1.1470539939075166,-2.2585627481012853,5.246663933364591
1.2003560148824433,0.010996103541370015,0.025301266375378568,0.02100009836162744,0.9186404702091706,0.016059752899663923,-0.008387721718211541,0.4312510493101759,-0.09743775824509955,-0.1535667312719975,-0.015340450749270762,0.32242838601124585,-0.17215320151634414,-1.9071223394291141,1.1470539939075166,-2.2585627481012853,5.246663933364591,0.21747763454914093,0.8427802324295044,0.7658478021621704,-0.3760644197463989,-0.375640332698822,-0.4350776672363281,1.199776074715032,0.007587903945841423,0.02431429735787454,0.01966850668515638,0.9018232537184032,0.02110990605392802,-0.024003213790906437,0.4520230173043978,-0.1989499599801599,-0.0038065608225861317,-0.776261834864608,-0.5021061653066059,-0.1609516125369642,-2.203505757315956,0.212129428766222,-1.6866075150312727,0.053799981592663304
1.199776074715032,0.007587903945841423,0.02431429735787454,0.01966850668515638,0.9018232537184032,0.02110990605392802,-0.024003213790906437,0.4520230173043978,-0.1989499599801599,-0.0038065608225861317,-0.776261834864608,-0.5021061653066059,-0.1609516125369642,-2.203505757315956,0.212129428766222,-1.6866075150312727,0.053799981592663304,0.9822501540184021,0.4837894141674042,0.679399311542511,-0.8043416142463684,-0.3196917474269867,0.9898399114608765,1.1998822374365472,-0.0012593287565294052,0.01766997783960609,0.017623558810873928,0.8842555527851499,0.021300172138935782,-0.04429011961413397,0.49455189869825983,-0.22337723343107416,0.025651101447146295,-1.402733764705924,-1.140173540055725,-0.3244124254319513,-2.141266952805279,-0.12244847528371447,-3.3966954367425903,10.0
1.1998822374365472,-0.0012593287565294052,0.01766997783960609,0.017623558810873928,0.8842555527851499,0.021300172138935782,-0.04429011961413397,0.49455189869825983,-0.22337723343107416,0.025651101447146295,-1.402733764705924,-1.140173540055725,-0.3244124254319513,-2.141266952805279,-0.12244847528371447,-3.3966954367425903,10.0,0.5901522636413574,0.8020501732826233,0.7607801556587219,0.22834476828575134,0.637573778629303,0.5119389891624451,1.2002816059161827,-0.009106700562039367,0.011248984560369817,0.01565176510563386,0.8682655880888955,0.01939041878857368,-0.06514931332942049,0.5912848584448005,-0.004355337596648405,0.07144227804788653,-0.6055001954120411,-0.5099158160188789,-0.17356383743684475,-1.841136221044294,-0.3569929735736988,-1.9016632548140284,10.0
1.2002816059161827,-0.009106700562039367,0.011248984560369817,0.01565176510563386,0.8682655880888955,0.01939041878857368,-0.06514931332942049,0.5912848584448005,-0.004355337596648405,0.07144227804788653,-0.6055001954120411,-0.5099158160188789,-0.17356383743684475,-1.841136221044294,-0.3569929735736988,-1.9016632548140284,10.0,-0.4473976194858551,0.5503542423248291,-0.24085311591625214,0.6366223692893982,-0.6979148983955383,0.6114444136619568,1.200760609910223,-0.022463113851965144,-0.0014404863606729532,0.014853241753121004,0.8450845129288547,0.017456079606119994,-0.10092242416947804,0.7317809530266132,-0.40336163544340675,0.04459895331301447,-2.7354367476220354,-2.6541427563839624,-0.04029066444616967,-3.928226149013776,-0.1486241781468966,-6.971967083088599,10.0
1.200760609910223,-0.022463113851965144,-0.0014404863606729532,0.014853241753121004,0.8450845129288547,0.017456079606119994,-0.10092242416947804,0.7317809530266132,-0.40336163544340675,0.04459895331301447,-2.7354367476220354,-2.6541427563839624,-0.04029066444616967,-3.928226149013776,-0.1486241781468966,-6.971967083088599,10.0,0.2759298086166382,0.11401564627885818,0.8751042485237122,0.5883074998855591,-0.7698373794555664,-0.383124440908432,1.2013892239818509,-0.04650386264830531,-0.022338679949804686,0.010075287592457908,0.82212219946336,0.017243751077947893,-0.15999669681468215,0.8668091949103454,-0.6024994251320034,0.1186370900815921,-3.2106034961405423,-2.5025738635286583,-1.1308141235167555,-1.9906935485644,0.0623336564340046,-7.470395215421101,10.0
1.2013892239818509,-0.04650386264830531,-0.022338679949804686,0.010075287592457908,0.82212219946336,0.017243751077947893,-0.15999669681468215,0.8668091949103454,-0.6024994251320034,0.1186370900815921,-3.2106034961405423,-2.5025738635286583,-1.1308141235167555,-1.9906935485644,0.0623336564340046,-7.470395215421101,10.0,-0.7799656987190247,-0.4971889555454254,0.8992570638656616,0.9116304516792297,0.8940647840499878,-0.8137551546096802,1.2024973317933767,-0.07091552216060867,-0.0403125135479831,-0.001590140369505287,0.8111843305608151,0.010580822951891606,-0.2005211344452443,0.914678083334168,-0.47589550679258924,0.16260353556790463,-2.888359398257719,-1.9937918118721096,-1.7654161591470499,-0.8573107471487834,-1.6949261713099641,-2.723920186081135,1.120972896067185
1.2024973317933767,-0.07091552216060867,-0.0403125135479831,-0.001590140369505287,0.8111843305608151,0.010580822951891606,-0.2005211344452443,0.914678083334168,-0.47589550679258924,0.16260353556790463,-2.888359398257719,-1.9937918118721096,-1.7654161591470499,-0.8573107471487834,-1.6949261713099641,-2.723920186081135,1.120972896067185,-0.8016563057899475,-0.15089696645736694,-0.5621768832206726,-0.7632173895835876,-0.5161013603210449,-0.9847787618637085,1.2039822290669697,-0.12766293199080975,-0.1050526150074256,0.0056938621514717215,0.7752345820284594,-0.048920680084260044,-0.20584944821358458,0.8828747765340048,-1.112580012739659,0.17059576884654507,-10.0,-10.0,2.0229345110250008,-7.369789109275009,-10.0,0.51987983396478,-10.0
1.2039822290669697,-0.12766293199080975,-0.1050526150074256,0.0056938621514717215,0.7752345820284594,-0.048920680084260044,-0.20584944821358458,0.8828747765340048,-1.112580012739659,0.17059576884654507,-10.0,-10.0,2.0229345110250008,-7.369789109275009,-10.0,0.51987983396478,-10.0,0.11501516401767731,0.6323933005332947,0.10597578436136246,0.016833936795592308,0.44563987851142883,0.3678378462791443,1.2043043321270788,-0.2131995472746325,-0.20352202992010868,0.016897389298529138,0.7244983181292397,-0.15085558735062393,-0.18972257565396458,0.8222512294239076,-0.976573831595401,-0.08626988150044092,-10.0,-10.0,0.8888863350428844,-5.415089867874139,-10.0,3.504791695812354,-5.326046566107464
1.2043043321270788,-0.2131995472746325,-0.20352202992010868,0.016897389298529138,0.7244983181292397,-0.15085558735062393,-0.18972257565396458,0.8222512294239076,-0.976573831595401,-0.08626988150044092,-10.0,-10.0,0.8888863350428844,-5.415089867874139,-10.0,3.504791695812354,-5.326046566107464,0.3635486960411072,0.5521114468574524,0.643557608127594,-0.07328493893146515,0.8075572848320007,0.6833065748214722,1.202590281726942,-0.29318280485219034,-0.2931273640765468,0.020884062181506576,0.7118775734784745,-0.2620056666111352,-0.13760347433025621,0.7928751156899636,-0.64956128298681,-0.3567231710622073,-9.524246081422175,-10.0,0.20060728959965085,2.8460630904244937,-10.0,9.461856284745176,-2.3209049018045107
1.202590281726942,-0.29318280485219034,-0.2931273640765468,0.020884062181506576,0.7118775734784745,-0.2620056666111352,-0.13760347433025621,0.7928751156899636,-0.64956128298681,-0.3567231710622073,-9.524246081422175,-10.0,0.20060728959965085,2.8460630904244937,-10.0,9.461856284745176,-2.3209049018045107,-0.28329065442085266,0.06951414793729782,-0.28343427181243896,0.7031767964363098,-0.7975906133651733,0.32928767800331116,1.1996507681170916,-0.35554319838422227,-0.3593748963992444,0.02063855370636484,0.7192150287272189,-0.34439042732756037,-0.10085505572436962,0.7858109862718646,-0.7016897603247523,-0.35844029144748407,-6.103139547955938,-6.127472645107451,-0.2063762958368977,-1.0144033750876063,-5.9207687268911044,-0.2776238394850883,1.2625733868165012
1.1996507681170916,-0.35554319838422227,-0.3593748963992444,0.02063855370636484,0.7192150287272189,-0.34439042732756037,-0.10085505572436962,0.7858109862718646,-0.7016897603247523,-0.35844029144748407,-6.103139547955938,-6.127472645107451,-0.2063762958368977,-1.0144033750876063,-5.9207687268911044,-0.2776238394850883,1.2625733868165012,-0.5951381921768188,-0.039948463439941406,0.5727640986442566,-0.7759195566177368,-0.3778873383998871,-0.5403913855552673,1.194526321305474,-0.43141981396551976,-0.43873398220533044,0.018685468516210745,0.7394442302116567,-0.427699514916371,-0.09533466723757004,0.7639200115383394,-1.1515481015875535,-0.9590617046753303,-10.0,-10.0,-0.26933892405392185,6.023860195749739,-10.0,1.6287927605660073,-6.740920108153156
1.194526321305474,-0.43141981396551976,-0.43873398220533044,0.018685468516210745,0.7394442302116567,-0.427699514916371,-0.09533466723757004,0.7639200115383394,-1.1515481015875535,-0.9590617046753303,-10.0,-10.0,-0.26933892405392185,6.023860195749739,-10.0,1.6287927605660073,-6.740920108153156,0.7484333515167236,-0.6348850131034851,-0.8708903193473816,-0.8988466262817383,-0.8793229460716248,-0.17985153198242188,1.1866692039596958,-0.531578831277538,-0.5314496793001519,-0.011930531093149172,0.744074709499674,-0.5336824869450741,-0.101429330167,0.69807880085601,-1.4956105865069251,-1.004840719836712,-10.0,-9.550623228199878,-7.390165982465343,-4.907900989089258,-10.0,-3.1090540548377694,-9.672881610497793
1.1866692039596958,-0.531578831277538,-0.5314496793001519,-0.011930531093149172,0.744074709499674,-0.5336824869450741,-0.101429330167,0.69807880085601,-1.4956105865069251,-1.004840719836712,-10.0,-9.550623228199878,-7.390165982465343,-4.907900989089258,-10.0,-3.1090540548377694,-9.672881610497793,-0.5005814433097839,-0.09800145775079727,-0.6795164942741394,-0.23968350887298584,0.17577390372753143,-0.5866978168487549,1.1767891997976663,-0.6462456182468258,-0.6342213548007476,-0.0587936951660941,0.6613364334009625,-0.654747770927043,-0.10975599705547011,0.584175166313688,-1.4754153741405325,-1.4829145894354459,-10.0,-10.0,-4.305164071258558,-10.0,-10.0,1.0357061129339185,-10.0
1.1767891997976663,-0.6462456182468258,-0.6342213548007476,-0.0587936951660941,0.6613364334009625,-0.654747770927043,-0.10975599705547011,0.584175166313688,-1.4754153741405325,-1.4829145894354459,-10.0,-10.0,-4.305164071258558,-10.0,-10.0,1.0357061129339185,-10.0,-0.48977959156036377,-0.7097166180610657,-0.14539742469787598,-0.38037294149398804,-0.8716266751289368,-0.9973979592323303,1.1628562535145512,-0.7903619970866366,-0.7690030046357502,-0.10630280989905495,0.5244837330346436,-0.808891105271992,-0.11463179410194067,0.3816222703292008,-1.8169927491501636,-2.020400335200122,-10.0,-10.0,-7.542870810767878,-10.0,-10.0,-2.0318905556050857,-10.0
1.1628562535145512,-0.7903619970866366,-0.7690030046357502,-0.10630280989905495,0.5244837330346436,-0.808891105271992,-0.11463179410194067,0.3816222703292008,-1.8169927491501636,-2.020400335200122,-10.0,-10.0,-7.542870810767878,-10.0,-10.0,-2.0318905556050857,-10.0,-0.15234088897705078,0.30429607629776,-0.6092015504837036,0.47425445914268494,0.5768510699272156,0.4457058310508728,1.1459977421190053,-0.9419433058395656,-0.9093859323465314,-0.15155665121112477,0.34137960033615683,-0.9650412140637801,-0.12023534746652258,0.14642949134549915,-1.347741111958619,-2.17418628797684,-10.0,-10.0,-3.6881745729136117,-10.0,-10.0,0.4990485012848688,-10.0
1.1459977421190053,-0.9419433058395656,-0.9093859323465314,-0.15155665121112477,0.34137960033615683,-0.9650412140637801,-0.12023534746652258,0.14642949134549915,-1.347741111958619,-2.17418628797684,-10.0,-10.0,-3.6881745729136117,-10.0,-10.0,0.4990485012848688,-10.0,-0.44374626874923706,-0.48100709915161133,0.6049045920372009,0.4353404939174652,0.7441278696060181,0.9604273438453674,1.126818397233897,-1.0833375235007474,-1.0375054948013307,-0.1913104487233625,0.16132637562280197,-1.11268757786013,-0.11119349356905778,-0.01958262894887377,-1.0436702705574425,-2.6065994457640675,-10.0,-10.0,-6.331165344038469,-10.0,-10.0,1.2228621527585077,-10.0
1.2500447699224557,0.0033506299565783286,0.00374697352797074,-0.0013151062633001234,0.0029504122129032423,0.0036831839087971907,0.00016057252912175714,-0.00041949729401272607,0.002697608981558467,-0.004187271630451729,-0.004963719301004029,0.004676781288799081,-0.0018961016839923006,-0.0009836064998369207,-0.0037280073674110614,-0.003889770957091027,0.004533780881155789,-0.806367814540863,0.988574743270874,0.36672070622444153,-0.08305036276578903,-0.9458466172218323,-0.8812916874885559,1.2500651980810755,-0.013889495696555306,-0.02179093749725527,0.01071569382634811,0.01570455550668262,-0.011515330618948983,-0.00811574039710794,-0.039798304966868404,-0.4683928349175299,0.004823222556858015,-4.019487827510431,-5.187134631145537,1.2772059792756616,3.8557718625697,-3.2411088625774704,-2.3258483539438393,-9.859400742040368
1.2500651980810755,-0.013889495696555306,-0.02179093749725527,0.01071569382634811,0.01570455550668262,-0.011515330618948983,-0.00811574039710794,-0.039798304966868404,-0.4683928349175299,0.004823222556858015,-4.019487827510431,-5.187134631145537,1.2772059792756616,3.8557718625697,-3.2411088625774704,-2.3258483539438393,-9.859400742040368,0.0808035358786583,0.8545979857444763,-0.38640525937080383,0.022261016070842743,0.7993237376213074,-0.26739123463630676,1.2501694143150968,-0.045938360708146844,-0.06244268256019771,0.0181781685812609,0.026933079131036125,-0.04913615546899821,-0.000916659469169692,-0.14595554886877904,-0.31183315639530146,0.01958401624224846,-4.001796396842537,-5.017487498313526,0.6470127150581125,-1.052864617623521,-6.178670987106011,4.1536525915468365,-10.0
1.2501694143150968,-0.045938360708146844,-0.06244268256019771,0.0181781685812609,0.026933079131036125,-0.04913615546899821,-0.000916659469169692,-0.14595554886877904,-0.31183315639530146,0.01958401624224846,-4.001796396842537,-5.017487498313526,0.6470127150581125,-1.052864617623521,-6.178670987106011,4.1536525915468365,-10.0,0.755612313747406,0.33244070410728455,-0.2137773633003235,-0.0013866190565750003,0.6467483043670654,-0.2006404548883438,1.2504500938978405,-0.06050799312539414,-0.07936930652895077,0.018904818754270372,0.005911276665830048,-0.07388420918677213,0.02373465928676615,-0.27421616184086905,-0.05839657956902873,0.06705042328190589,0.3189316078424196,0.7020514318467164,-0.39812917378387447,-4.268060661727164,-0.1383756550161115,1.9460879485168843,-10.0
1.2504500938978405,-0.06050799312539414,-0.07936930652895077,0.018904818754270372,0.005911276665830048,-0.07388420918677213,0.02373465928676615,-0.27421616184086905,-0.05839657956902873,0.06705042328190589,0.3189316078424196,0.7020514318467164,-0.39812917378387447,-4.268060661727164,-0.1383756550161115,1.9460879485168843,-10.0,0.431801974773407,0.944901168346405,-0.6280250549316406,-0.9741825461387634,-0.28723129630088806,0.031159859150648117,1.251007814755031,-0.0670388556282967,-0.08322536843437223,0.016903191771256838,-0.0614023282206671,-0.08266774826876917,0.03299553361015808,-0.3370051442238605,-0.37961649051882185,0.07009282122249176,-1.9602961249628796,-1.650958435417626,-0.12795549483480914,-10.0,-2.136840004926174,0.5254454761327738,-4.341231464904486
1.251007814755031,-0.0670388556282967,-0.08322536843437223,0.016903191771256838,-0.0614023282206671,-0.08266774826876917,0.03299553361015808,-0.3370051442238605,-0.37961649051882185,0.07009282122249176,-1.9602961249628796,-1.650958435417626,-0.12795549483480914,-10.0,-2.136840004926174,0.5254454761327738,-4.341231464904486,-0.39877578616142273,-0.7943325638771057,0.44935813546180725,0.5898966789245605,-0.12231733649969101,-0.02899555303156376,1.2511710175506614,-0.07354763792870503,-0.072211873304284,-0.011651999277209292,-0.12696552503655978,-0.07998681566011752,0.019719170953491558,-0.3464969517482463,-0.5361975175963526,-0.037038025273715004,0.3212779316192004,4.377568020261132,-7.015770034569465,-3.87439039966647,2.789099829530801,-3.817512291063249,1.5894038498439536
1.2511710175506614,-0.07354763792870503,-0.072211873304284,-0.011651999277209292,-0.12696552503655978,-0.07998681566011752,0.019719170953491558,-0.3464969517482463,-0.5361975175963526,-0.037038025273715004,0.3212779316192004,4.377568020261132,-7.015770034569465,-3.87439039966647,2.789099829530801,-3.817512291063249,1.5894038498439536,0.5693990588188171,-0.1699266880750656,-0.4241636395454407,0.8670347929000854,0.5573053359985352,0.5911226272583008,1.2505429824916476,-0.03879398301558823,0.009143272141399726,-0.08438652268271107,-0.17824542541218272,-0.012909390867902,-0.02793676715127027,-0.2993818915189395,-0.082091118951322,-0.16367036542016966,7.736597699015804,10.0,-10.0,-8.51809178993803,10.0,-7.762845871719287,10.0
1.2505429824916476,-0.03879398301558823,0.009143272141399726,-0.08438652268271107,-0.17824542541218272,-0.012909390867902,-0.02793676715127027,-0.2993818915189395,-0.082091118951322,-0.16367036542016966,7.736597699015804,10.0,-10.0,-8.51809178993803,10.0,-7.762845871719287,10.0,0.0709180161356926,-0.8728073239326477,-0.7198613286018372,-0.08379882574081421,0.3714101314544678,0.19657471776008606,1.2489331069988536,-0.005891922557315164,0.08910791955186648,-0.15643155025389105,-0.2189936093341158,0.049272901068178415,-0.07187156845459537,-0.21631982941609923,-0.5237798941290293,-0.21086446428221423,1.0401143318640274,5.975141201494032,-7.976233875570273,-2.2932230700285188,3.205581502089269,-3.3761807724538713,10.0
1.2489331069988536,-0.005891922557315164,0.08910791955186648,-0.15643155025389105,-0.2189936093341158,0.049272901068178415,-0.07187156845459537,-0.21631982941609923,-0.5237798941290293,-0.21086446428221423,1.0401143318640274,5.975141201494032,-7.976233875570273,-2.2932230700285188,3.205581502089269,-3.3761807724538713,10.0,-0.27601292729377747,-0.1123436689376831,-0.679000735282898,0.8379778265953064,0.012315125204622746,-0.27250733971595764,1.2478552471614592,-0.007619942036027063,0.11601270641874446,-0.20220841613073923,-0.2306476236433032,0.06334275730713053,-0.0973590930631945,-0.14925341612803592,-0.6582178491201822,-0.056840055697008195,-1.2000328186714708,1.273280067640017,-3.868670188215556,-0.8694513194839085,0.6396144620647508,-3.0314270936238588,5.996337387604913
1.2478552471614592,-0.007619942036027063,0.11601270641874446,-0.20220841613073923,-0.2306476236433032,0.06334275730713053,-0.0973590930631945,-0.14925341612803592,-0.6582178491201822,-0.056840055697008195,-1.2000328186714708,1.273280067640017,-3.868670188215556,-0.8694513194839085,0.6396144620647508,-3.0314270936238588,5.996337387604913,0.04201881214976311,-0.6042963266372681,0.043464165180921555,-0.35332685708999634,0.6449815034866333,0.8737263083457947,1.2463073717676232,-0.029363507733762298,0.11556714569989826,-0.24154306564435366,-0.2174814176292809,0.045656797974161216,-0.10555585961983086,-0.0582491786621484,-0.7851715935484899,-0.33914796821954185,-4.034708083051699,-1.0721231430029514,-6.098379160671218,3.8872542706011837,-4.796993031417689,1.0023858508072752,10.0
1.2463073717676232,-0.029363507733762298,0.11556714569989826,-0.24154306564435366,-0.2174814176292809,0.045656797974161216,-0.10555585961983086,-0.0582491786621484,-0.7851715935484899,-0.33914796821954185,-4.034708083051699,-1.0721231430029514,-6.098379160671218,3.8872542706011837,-4.796993031417689,1.0023858508072752,10.0,0.8106454610824585,0.7086817026138306,-0.9550691843032837,0.9767477512359619,0.7457677721977234,-0.40989577770233154,1.2449351395984534,-0.05245457600880796,0.1043077609090299,-0.26667361430925607,-0.19893144925111367,0.011195450176181055,-0.08281930751886477,0.03917379385909012,-0.3150011307249314,0.0005470199072664522,-1.690897126626285,-1.6294273495483622,-0.31573686741989326,0.7968842722802357,-3.7384347787378007,4.585644832127841,7.761614810718156
1.2449351395984534,-0.05245457600880796,0.1043077609090299,-0.26667361430925607,-0.19893144925111367,0.011195450176181055,-0.08281930751886477,0.03917379385909012,-0.3150011307249314,0.0005470199072664522,-1.690897126626285,-1.6294273495483622,-0.31573686741989326,0.7968842722802357,-3.7384347787378007,4.585644832127841,7.761614810718156,-0.19028928875923157,-0.5328986644744873,0.9246988892555237,-0.22654969990253448,-0.5890197157859802,0.607048511505127,1.2430832586923204,-0.07410575025393096,0.08928134175612105,-0.28668610141152595,-0.13274878628934358,-0.018920991613836164,-0.06401623361901435,0.14346537778535665,-0.6897480813548291,-0.4647281476094838,-3.6402007690012166,-2.0264289463593657,-4.644912577966214,10.0,-3.6910055184774597,0.17200217455029665,10.0
1.2430832586923204,-0.07410575025393096,0.08928134175612105,-0.28668610141152595,-0.13274878628934358,-0.018920991613836164,-0.06401623361901435,0.14346537778535665,-0.6897480813548291,-0.4647281476094838,-3.6402007690012166,-2.0264289463593657,-4.644912577966214,10.0,-3.6910055184774597,0.17200217455029665,10.0,-0.24979767203330994,-0.37086835503578186,0.05213147774338722,-0.4937799572944641,0.06008361279964447,0.08459758758544922,1.238669054206542,-0.11932785272599519,0.054332663125388675,-0.32377522787253143,-0.005167233515524387,-0.07318340412247902,-0.04846073336970771,0.2896156266683869,-0.9528305673585887,-0.6540892211894171,-7.65158866168037,-6.69372864872125,-4.626871480709636,10.0,-9.85348242416664,3.7213158983800976,10.0
1.238669054206542,-0.11932785272599519,0.054332663125388675,-0.32377522787253143,-0.005167233515524387,-0.07318340412247902,-0.04846073336970771,0.2896156266683869,-0.9528305673585887,-0.6540892211894171,-7.65158866168037,-6.69372864872125,-4.626871480709636,10.0,-9.85348242416664,3.7213158983800976,10.0,-0.2088194042444229,-0.18859444558620453,0.6601290702819824,-0.10451439023017883,-0.531721293926239,-0.24512626230716705,1.2323270493046947,-0.1847780333224977,-0.0024462178794146874,-0.36376169943615444,0.15747941013338573,-0.15182832460867,-0.02743055227407746,0.42695011516077774,-1.1374131008255282,-0.9336322364539944,-8.709920119483487,-7.522425660042025,-5.245883417832975,10.0,-9.807242830906024,1.4980866532960335,10.0
1.2323270493046947,-0.1847780333224977,-0.0024462178794146874,-0.36376169943615444,0.15747941013338573,-0.15182832460867,-0.02743055227407746,0.42695011516077774,-1.1374131008255282,-0.9336322364539944,-8.709920119483487,-7.522425660042025,-5.245883417832975,10.0,-9.807242830906024,1.4980866532960335,10.0,0.4821391701698303,-0.2516019344329834,0.09973281621932983,0.910796046257019,0.05266527831554413,-0.9158686995506287,1.225450969396127,-0.22157730074276413,-0.014089843620929184,-0.42430982957221647,0.34884554205839774,-0.18454158348020916,-0.029837784635786378,0.5116381070045146,-0.7454152308563592,-0.7708857857189105,-0.5286010040503726,4.530372515568027,-9.836998954195117,10.0,1.5714703898585998,-2.1542276021453977,5.163907533932239
1.225450969396127,-0.22157730074276413,-0.014089843620929184,-0.42430982957221647,0.34884554205839774,-0.18454158348020916,-0.029837784635786378,0.5116381070045146,-0.7454152308563592,-0.7708857857189105,-0.5286010040503726,4.530372515568027,-9.836998954195117,10.0,1.5714703898585998,-2.1542276021453977,5.163907533932239,0.07970156520605087,-0.3656133711338043,-0.8384799957275391,0.42833009362220764,0.19864493608474731,0.08231399953365326,1.21930033741134,-0.22500808789966376,0.024967914642624885,-0.5061073596455317,0.48989512653572076,-0.1696244078910205,-0.04838208425310584,0.5557246366283453,-0.8764166944227094,-0.7855634287935127,-1.4742786712861142,3.4690881912372427,-9.87157804677575,10.0,0.6038448394054637,-2.0456744152720012,5.729517565034168
1.21930033741134,-0.22500808789966376,0.024967914642624885,-0.5061073596455317,0.48989512653572076,-0.1696244078910205,-0.04838208425310584,0.5557246366283453,-0.8764166944227094,-0.7855634287935127,-1.4742786712861142,3.4690881912372427,-9.87157804677575,10.0,0.6038448394054637,-2.0456744152720012,5.729517565034168,0.09799466282129288,0.47233566641807556,0.31913676857948303,-0.24454903602600098,-0.2784602642059326,0.2766363322734833,1.2123382425362992,-0.241631675945694,0.04124258091538779,-0.5718313530583912,0.6005874608797369,-0.16912462541567042,-0.06807190468846198,0.616608355192341,-0.8767731710222386,-0.9496214750494414,-2.6088277396339565,0.7365194672646549,-6.622253063924164,10.0,-0.37758247260814515,-2.8937522984150625,9.46231724046021
1.2123382425362992,-0.241631675945694,0.04124258091538779,-0.5718313530583912,0.6005874608797369,-0.16912462541567042,-0.06807190468846198,0.616608355192341,-0.8767731710222386,-0.9496214750494414,-2.6088277396339565,0.7365194672646549,-6.622253063924164,10.0,-0.37758247260814515,-2.8937522984150625,9.46231724046021,0.7287768125534058,0.26761680841445923,0.7702962756156921,-0.6030110716819763,-0.7314088344573975,0.19814465939998627,1.2037095085506964,-0.26538248515439555,0.04298660384303735,-0.6187458438320765,0.7691096371133694,-0.16949735954935943,-0.10414452867243933,0.7052469297021434,-0.9860276034669445,-1.2048636221830584,-3.2741360422479278,-0.181923876167575,-5.082711171191243,10.0,0.3637336407690452,-6.14932237343317,10.0
1.2037095085506964,-0.26538248515439555,0.04298660384303735,-0.6187458438320765,0.7691096371133694,-0.16949735954935943,-0.10414452867243933,0.7052469297021434,-0.9860276034669445,-1.2048636221830584,-3.2741360422479278,-0.181923876167575,-5.082711171191243,10.0,0.3637336407690452,-6.14932237343317,10.0,0.9415227174758911,0.1486707478761673,-0.27527618408203125,0.10703091323375702,-0.3096652925014496,0.12752918899059296,1.1944886338217129,-0.292183577145056,0.04104002318920618,-0.6603300012137219,0.9142911860971871,-0.1615026841375057,-0.16447118926430046,0.8067384017676126,-1.1276091075330144,-1.0522651501066098,-3.316068498732481,-0.30115157761153116,-5.1461530175544565,10.0,1.6697435443776358,-8.68281267539788,10.0
1.1944886338217129,-0.292183577145056,0.04104002318920618,-0.6603300012137219,0.9142911860971871,-0.1615026841375057,-0.16447118926430046,0.8067384017676126,-1.1276091075330144,-1.0522651501066098,-3.316068498732481,-0.30115157761153116,-5.1461530175544565,10.0,1.6697435443776358,-8.68281267539788,10.0,-0.5274201035499573,-0.7447510361671448,0.8571528792381287,-0.159085214138031,0.23609374463558197,0.47288182377815247,1.1862957360076372,-0.3341885163717352,0.021122862124661957,-0.706284932304122,0.9667242010228152,-0.17147818328677003,-0.22148954997789408,0.8653419774876671,-1.4166729131338722,-1.0227018131503791,-7.1717737436898,-4.6877071214820845,-6.249995599474939,3.034327339061367,-4.070274084991072,-5.738242013476691,4.360207396729949
1.1862957360076372,-0.3341885163717352,0.021122862124661957,-0.706284932304122,0.9667242010228152,-0.17147818328677003,-0.22148954997789408,0.8653419774876671,-1.4166729131338722,-1.0227018131503791,-7.1717737436898,-4.6877071214820845,-6.249995599474939,3.034327339061367,-4.070274084991072,-5.738242013476691,4.360207396729949,0.25939351320266724,-0.7255852818489075,-0.7671768665313721,-0.811719536781311,-0.5715557336807251,0.9587305188179016,1.1775525421571051,-0.39950093117669855,-0.018338343762438383,-0.7735826268756406,0.9391465100963861,-0.20946400904640258,-0.2711462374787535,0.8862582159636412,-1.7923303317388901,-1.1874672571487483,-9.137641331006943,-5.143392785648042,-10.0,-9.906205032376022,-5.380033126903913,-6.728137585270084,1.2129358386799178
1.1775525421571051,-0.39950093117669855,-0.018338343762438383,-0.7735826268756406,0.9391465100963861,-0.20946400904640258,-0.2711462374787535,0.8862582159636412,-1.7923303317388901,-1.1874672571487483,-9.137641331006943,-5.143392785648042,-10.0,-9.906205032376022,-5.380033126903913,-6.728137585270084,1.2129358386799178,-0.3610282242298126,0.7560797333717346,-0.30768635869026184,0.14530837535858154,0.8459143042564392,0.8296191692352295,1.1684804318565807,-0.48511139507821377,-0.0870897838238286,-0.8323234390305996,0.8471634446799592,-0.2794424325181015,-0.3033568367942859,0.887853759134445,-1.5820042229728397,-1.099473127853367,-10.0,-10.0,-4.265423569240668,-10.0,-10.0,-1.4035243889036846,-0.585458263929518
1.1684804318565807,-0.48511139507821377,-0.0870897838238286,-0.8323234390305996,0.8471634446799592,-0.2794424325181015,-0.3033568367942859,0.887853759134445,-1.5820042229728397,-1.099473127853367,-10.0,-10.0,-4.265423569240668,-10.0,-10.0,-1.4035243889036846,-0.585458263929518,0.273211270570755,-0.808429479598999,0.6847262978553772,0.003925607539713383,0.5291947722434998,-0.12980686128139496,1.1593358511460452,-0.5768624029600488,-0.17098947407651244,-0.874134418313713,0.7714931016251947,-0.36887077864527923,-0.31394597606199376,0.8753791577628957,-1.4439290941474106,-1.178109720370698,-10.0,-9.085988908411007,-6.164186238311295,-5.95767013167256,-10.0,-1.233467712557529,-2.4876469366866187
1.1593358511460452,-0.5768624029600488,-0.17098947407651244,-0.874134418313713,0.7714931016251947,-0.36887077864527923,-0.31394597606199376,0.8753791577628957,-1.4439290941474106,-1.178109720370698,-10.0,-9.085988908411007,-6.164186238311295,-5.95767013167256,-10.0,-1.233467712557529,-2.4876469366866187,0.41398367285728455,0.693058967590332,0.542307436466217,-0.8958994150161743,-0.09340713173151016,-0.1986500322818756,1.1489719772638822,-0.6765671415367863,-0.26920219047977745,-0.9021220223568728,0.7557085805620412,-0.4746171724144092,-0.31054039107937237,0.8431654974455826,-1.322504448400844,-1.434302080915184,-10.0,-10.0,-0.8940510809449376,2.0005548824692783,-10.0,2.0559801486805487,-5.607982581764676
1.1489719772638822,-0.6765671415367863,-0.26920219047977745,-0.9021220223568728,0.7557085805620412,-0.4746171724144092,-0.31054039107937237,0.8431654974455826,-1.322504448400844,-1.434302080915184,-10.0,-10.0,-0.8940510809449376,2.0005548824692783,-10.0,2.0559801486805487,-5.607982581764676,-0.9407868981361389,-0.6718835830688477,-0.8797608613967896,0.6529010534286499,-0.835224449634552,0.53289794921875,1.1358611001655723,-0.7882071366974045,-0.38191829160535135,-0.9252893374876975,0.719861778329902,-0.582967943906997,-0.3257696629336554,0.8108977513980433,-1.6044359228604355,-1.837642419099202,-10.0,-10.0,-4.847215814690252,-10.0,-10.0,-5.8035457470752565,-2.7325588776564502
1.1358611001655723,-0.7882071366974045,-0.38191829160535135,-0.9252893374876975,0.719861778329902,-0.582967943906997,-0.3257696629336554,0.8108977513980433,-1.6044359228604355,-1.837642419099202,-10.0,-10.0,-4.847215814690252,-10.0,-10.0,-5.8035457470752565,-2.7325588776564502,0.6609399318695068,-0.18547460436820984,-0.1160036101937294,0.11596177518367767,-0.4787358045578003,-0.02149004489183426,1.1214909272833105,-0.877338617759085,-0.450732958339345,-0.980037585511122,0.6227713441316814,-0.6357643801701122,-0.3943416918385321,0.7929494206861191,-1.5942463666152176,-1.7448770745897766,-8.534890737373695,-4.4188697559078225,-8.816216836759647,-10.0,-2.158687362321661,-10.0,-2.1441509737115685
1.1214909272833105,-0.877338617759085,-0.450732958339345,-0.980037585511122,0.6227713441316814,-0.6357643801701122,-0.3943416918385321,0.7929494206861191,-1.5942463666152176,-1.7448770745897766,-8.534890737373695,-4.4188697559078225,-8.816216836759647,-10.0,-2.158687362321661,-10.0,-2.1441509737115685,-0.589792788028717,0.036367885768413544,-0.05339135602116585,-0.9804472923278809,0.6084166169166565,0.40960970520973206,1.103982481517319,-0.9809566531180954,-0.5365707062237524,-1.0308224343445365,0.5146310671103891,-0.7138498666255157,-0.44249711386333834,0.7842610971894798,-1.299248442417329,-2.6587140579375186,-10.0,-10.0,-3.94832993637179,-10.0,-10.0,-0.7488242144467767,0.6465147254333733
1.103982481517319,-0.9809566531180954,-0.5365707062237524,-1.0308224343445365,0.5146310671103891,-0.7138498666255157,-0.44249711386333834,0.7842610971894798,-1.299248442417329,-2.6587140579375186,-10.0,-10.0,-3.94832993637179,-10.0,-10.0,-0.7488242144467767,0.6465147254333733,-0.4117657244205475,0.2180040031671524,-0.2571580410003662,-0.66287761926651,0.957417368888855,-0.8617061972618103,1.0802654021057603,-1.1466163220232721,-0.7117559912634823,-1.0419244727101908,0.38906444394610823,-0.9023919264412802,-0.4069286692541095,0.7376581878343395,-0.6632385750373625,-3.3024978374945606,-10.0,-10.0,1.0483628304357084,-10.0,-10.0,9.555920446633417,-10.0
1.24639988402947,-0.0032692083850536,-0.0014143012255300926,0.0026600945940806883,0.0010601556901415092,-0.0039962934299394865,-0.0017699632686235646,-0.0013833437222664324,-0.00034841864539989983,-0.00042601414460319374,-0.003056986473345775,-0.002172253700990956,-0.0023753782491228205,-0.002126886654100674,0.0002329087770310389,0.0008260243958729948,0.003734585439641557,0.47565874457359314,-0.6450592875480652,-0.8250458836555481,-0.5254935622215271,0.29811906814575195,0.6843165755271912,1.246191333445048,-0.004660196420236841,0.003510547682189957,-0.008993613224072723,-0.035080616077276194,-0.007517731309691638,0.002020239170041883,0.029950944621726323,-0.16211721884387634,-0.05264537468320759,-0.7425908430194449,0.6219887148618822,-2.5496214082103363,-9.154117430300037,-1.1718277976688205,0.616744981508641,7.999249415333454
1.246191333445048,-0.004660196420236841,0.003510547682189957,-0.008993613224072723,-0.035080616077276194,-0.007517731309691638,0.002020239170041883,0.029950944621726323,-0.16211721884387634,-0.05264537468320759,-0.7425908430194449,0.6219887148618822,-2.5496214082103363,-9.154117430300037,-1.1718277976688205,0.616744981508641,7.999249415333454,-0.4102642238140106,-0.2631932199001312,0.3947716951370239,-0.5677725672721863,-0.49924540519714355,-0.7436501383781433,1.2456509367088324,-0.02882181809851156,-0.011210203789683598,-0.03164624259350273,-0.08687870220893915,-0.036532309903413704,0.005516552467403537,0.058445574386444384,-0.658449846308324,-0.09217867990750335,-5.3022911411169025,-4.319418579359139,-3.114995039114438,-3.796168302866046,-6.113334289377928,0.2879579622435583,-0.8741715608425924
1.2456509367088324,-0.02882181809851156,-0.011210203789683598,-0.03164624259350273,-0.08687870220893915,-0.036532309903413704,0.005516552467403537,0.058445574386444384,-0.658449846308324,-0.09217867990750335,-5.3022911411169025,-4.319418579359139,-3.114995039114438,-3.796168302866046,-6.113334289377928,0.2879579622435583,-0.8741715608425924,-0.7046814560890198,-0.32777678966522217,-0.034857623279094696,0.14580222964286804,-0.5390640497207642,0.27498164772987366,1.244174324726822,-0.0799716721708638,-0.05571840273586377,-0.05561201840277273,-0.11816290885113682,-0.08651366115612415,-0.010149202557007101,0.07355216694162618,-1.0064731337079014,-0.2874275004158277,-7.479528549746259,-6.798264979832394,-2.8807183573191195,-4.023069150746319,-6.377846766415474,-4.197968443253222,4.585568835331949
1.244174324726822,-0.0799716721708638,-0.05571840273586377,-0.05561201840277273,-0.11816290885113682,-0.08651366115612415,-0.010149202557007101,0.07355216694162618,-1.0064731337079014,-0.2874275004158277,-7.479528549746259,-6.798264979832394,-2.8807183573191195,-4.023069150746319,-6.377846766415474,-4.197968443253222,4.585568835331949,0.30387774109840393,0.3762624263763428,-0.5696101784706116,0.3577980101108551,-0.519082248210907,-0.9100603461265564,1.2427061878167074,-0.12382866259797395,-0.09326877128820324,-0.07208429246335805,-0.1740605248950742,-0.11147592919722579,-0.05789675728234221,0.06270309756679249,-0.8275623859486949,-0.062210231603833765,-3.5061235267320914,-2.6424904802695264,-1.3319229054336836,-6.534074967299613,0.11755567073276296,-7.717355224682125,-7.378346389235604
1.2427061878167074,-0.12382866259797395,-0.09326877128820324,-0.07208429246335805,-0.1740605248950742,-0.11147592919722579,-0.05789675728234221,0.06270309756679249,-0.8275623859486949,-0.062210231603833765,-3.5061235267320914,-2.6424904802695264,-1.3319229054336836,-6.534074967299613,0.11755567073276296,-7.717355224682125,-7.378346389235604,0.5550756454467773,0.38598617911338806,-0.9090981483459473,-0.1828651875257492,-0.4914483428001404,0.8658998012542725,1.24211334698364,-0.14254692769947186,-0.1062583260459637,-0.07714960952939809,-0.2129094514003862,-0.08997244461358865,-0.1413821610564315,0.04945184928750784,-0.7425130196412328,-0.09182990920827593,-1.1972169261834988,-0.6312195072857569,0.0048599250329837695,-3.4351761070392692,5.154973452342114,-10.0,3.8354788713749337
1.24211334698364,-0.14254692769947186,-0.1062583260459637,-0.07714960952939809,-0.2129094514003862,-0.08997244461358865,-0.1413821610564315,0.04945184928750784,-0.7425130196412328,-0.09182990920827593,-1.1972169261834988,-0.6312195072857569,0.0048599250329837695,-3.4351761070392692,5.154973452342114,-10.0,3.8354788713749337,-0.24034252762794495,-0.48860645294189453,0.6808356046676636,-0.9840496182441711,-0.06395413726568222,0.9150802493095398,1.239006260832896,-0.17789766707511068,-0.13798933684890993,-0.08697084038837422,-0.19052592603435675,-0.08501862247152574,-0.23441797164555475,0.1259724231998892,-1.1771690902400134,-0.694122862478243,-7.6231747455833965,-7.288438558173422,-2.4302079572548547,8.891602156874711,-3.9237952749457516,-10.0,10.0
1.239006260832896,-0.17789766707511068,-0.13798933684890993,-0.08697084038837422,-0.19052592603435675,-0.08501862247152574,-0.23441797164555475,0.1259724231998892,-1.1771690902400134,-0.694122862478243,-7.6231747455833965,-7.288438558173422,-2.4302079572548547,8.891602156874711,-3.9237952749457516,-10.0,10.0,-0.184112086892128,-0.1468721181154251,0.1425565481185913,0.30188190937042236,0.359758198261261,0.8666617274284363,1.2320449892713055,-0.23653179145104178,-0.19261332964754316,-0.10974702111144666,-0.10758633926273156,-0.11506993989451794,-0.3128993699161935,0.2893990385115131,-1.05183240927623,-1.039266801706962,-7.0342528481080375,-6.373170143863125,-3.240619596637099,10.0,-3.623160542134325,-9.309214893472348,10.0
1.2320449892713055,-0.23653179145104178,-0.19261332964754316,-0.10974702111144666,-0.10758633926273156,-0.11506993989451794,-0.3128993699161935,0.2893990385115131,-1.05183240927623,-1.039266801706962,-7.0342528481080375,-6.373170143863125,-3.240619596637099,10.0,-3.623160542134325,-9.309214893472348,10.0,-0.7316426634788513,0.726140022277832,-0.9082555174827576,0.5685533285140991,0.3259749710559845,0.8166472911834717,1.223278305881485,-0.30250592082651895,-0.27568582573856804,-0.09649692909267485,-0.045365963514588506,-0.16169522722430457,-0.3742887754153514,0.5275498044581619,-0.7945152860370209,-1.1673749955632726,-9.429504396131371,-10.0,6.725634225510644,2.5086828449069367,-7.981616616179398,-5.912038791681402,10.0
1.223278305881485,-0.30250592082651895,-0.27568582573856804,-0.09649692909267485,-0.045365963514588506,-0.16169522722430457,-0.3742887754153514,0.5275498044581619,-0.7945152860370209,-1.1673749955632726,-9.429504396131371,-10.0,6.725634225510644,2.5086828449069367,-7.981616616179398,-5.912038791681402,10.0,-0.8423255085945129,-0.591592013835907,0.527777373790741,-0.3201606273651123,-0.2924589216709137,-0.7701537013053894,1.2119935678398654,-0.3990834849978418,-0.4121877649337782,-0.0487231654876103,0.0011783244452064513,-0.2496509005534832,-0.41922556585914744,0.7598144387734891,-1.2586639440966916,-1.6944813076406287,-10.0,-10.0,5.149917129129396,9.098277072527319,-10.0,-5.549933364662482,10.0
1.2119935678398654,-0.3990834849978418,-0.4121877649337782,-0.0487231654876103,0.0011783244452064513,-0.2496509005534832,-0.41922556585914744,0.7598144387734891,-1.2586639440966916,-1.6944813076406287,-10.0,-10.0,5.149917129129396,9.098277072527319,-10.0,-5.549933364662482,10.0,-0.22016321122646332,0.24155952036380768,0.7436323165893555,0.376569926738739,-0.5646269917488098,-0.8086370825767517,1.197204153594779,-0.508661910745976,-0.557857246944455,-0.011149400138359324,0.11031653618089743,-0.3410052884128858,-0.48887438026153185,0.8945637962482177,-1.2410768111823904,-2.0008323490320636,-10.0,-10.0,4.350744196220256,10.0,-9.005251422822727,-10.0,10.0
1.197204153594779,-0.508661910745976,-0.557857246944455,-0.011149400138359324,0.11031653618089743,-0.3410052884128858,-0.48887438026153185,0.8945637962482177,-1.2410768111823904,-2.0008323490320636,-10.0,-10.0,4.350744196220256,10.0,-9.005251422822727,-10.0,10.0,0.02859656512737274,0.7295038104057312,-0.251811683177948,0.2015015333890915,0.6098260283470154,-0.5157690644264221,1.181013214223042,-0.6078214744071517,-0.6908697777952548,0.028197543444529582,0.2363541866330077,-0.4164442628770782,-0.5716239018000634,0.9398900752918702,-1.0718649744575646,-2.0177742463909736,-10.0,-10.0,3.502832653515765,10.0,-9.38224774196105,-9.094070078702018,1.8119473601234006
1.181013214223042,-0.6078214744071517,-0.6908697777952548,0.028197543444529582,0.2363541866330077,-0.4164442628770782,-0.5716239018000634,0.9398900752918702,-1.0718649744575646,-2.0177742463909736,-10.0,-10.0,3.502832653515765,10.0,-9.38224774196105,-9.094070078702018,1.8119473601234006,0.9777623414993286,0.4492395222187042,0.5125815272331238,0.8785988688468933,0.6083791255950928,-0.8137807846069336,1.167685146086353,-0.6659882311780063,-0.7635546252817687,0.04318528568557919,0.38064597923549365,-0.44594797485670284,-0.6535873842476697,0.910992091510163,-0.6038616167653382,-1.2825321781249874,-2.7752218955952204,-3.0861063866222485,0.43873441854269224,10.0,1.9009498905370283,-10.0,-9.002111850025615
1.167685146086353,-0.6659882311780063,-0.7635546252817687,0.04318528568557919,0.38064597923549365,-0.44594797485670284,-0.6535873842476697,0.910992091510163,-0.6038616167653382,-1.2825321781249874,-2.7752218955952204,-3.0861063866222485,0.43873441854269224,10.0,1.9009498905370283,-10.0,-9.002111850025615,-0.7063352465629578,0.600104570388794,0.9793354868888855,-0.550521969795227,-0.48940926790237427,0.055841196328401566,1.1544474856329567,-0.7107831897878654,-0.8123269805239137,0.04378098709664922,0.597854291727569,-0.4576375272431611,-0.7415543432702776,0.8383025172095776,-0.8683525809104952,-1.9758690429957466,-8.845463275425454,-9.965924408386698,-0.23944117857743774,10.0,-5.634041638770298,-10.0,-9.439805568677954
1.1544474856329567,-0.7107831897878654,-0.8123269805239137,0.04378098709664922,0.597854291727569,-0.4576375272431611,-0.7415543432702776,0.8383025172095776,-0.8683525809104952,-1.9758690429957466,-8.845463275425454,-9.965924408386698,-0.23944117857743774,10.0,-5.634041638770298,-10.0,-9.439805568677954,0.4178124666213989,0.5042838454246521,0.45185551047325134,0.8684433102607727,0.6165538430213928,0.0765833780169487,1.1417238278178816,-0.7648046542608785,-0.8742898115264182,0.03785746910556544,0.8356209522997111,-0.48831316103751626,-0.8111191932294155,0.7639538336992828,-0.4539442614640069,-1.1698883100160025,-4.620962176710513,-5.3834050719240185,-0.922333082807412,10.0,-1.9124921055985844,-7.405686283423023,-9.191978117549663
1.1417238278178816,-0.7648046542608785,-0.8742898115264182,0.03785746910556544,0.8356209522997111,-0.48831316103751626,-0.8111191932294155,0.7639538336992828,-0.4539442614640069,-1.1698883100160025,-4.620962176710513,-5.3834050719240185,-0.922333082807412,10.0,-1.9124921055985844,-7.405686283423023,-9.191978117549663,0.7872831225395203,-0.5811699032783508,-0.06256155669689178,-0.6816076636314392,0.39983659982681274,-0.15441349148750305,1.1336235769035408,-0.8049365003842728,-0.9177955722347201,0.029001461631565445,0.9710873848143113,-0.5148675970321833,-0.8523749063134933,0.6815169532253995,-0.510631087861298,-0.8760486449370651,-5.307201250306412,-5.213268515496183,-1.6322961934290612,9.855470736774915,-4.49728893886353,-3.1161502389111426,-10.0
1.1336235769035408,-0.8049365003842728,-0.9177955722347201,0.029001461631565445,0.9710873848143113,-0.5148675970321833,-0.8523749063134933,0.6815169532253995,-0.510631087861298,-0.8760486449370651,-5.307201250306412,-5.213268515496183,-1.6322961934290612,9.855470736774915,-4.49728893886353,-3.1161502389111426,-10.0,-0.6888595819473267,-0.861294150352478,-0.5382312536239624,0.16658224165439606,0.36673852801322937,0.5246489644050598,1.125635938399235,-0.8587704543362282,-0.9719632547152086,0.01846494269266678,1.0121455608243553,-0.569240296036085,-0.8628291274065198,0.61952153793646,-0.5901096102323594,-1.1398701223127483,-8.085174049504701,-8.192916416641978,-1.1563726466839583,1.3817063717548623,-8.98349216849098,0.3829492017765399,-4.196498324490957
1.125635938399235,-0.8587704543362282,-0.9719632547152086,0.01846494269266678,1.0121455608243553,-0.569240296036085,-0.8628291274065198,0.61952153793646,-0.5901096102323594,-1.1398701223127483,-8.085174049504701,-8.192916416641978,-1.1563726466839583,1.3817063717548623,-8.98349216849098,0.3829492017765399,-4.196498324490957,0.4255545735359192,-0.46299901604652405,-0.20113976299762726,0.11179907619953156,-0.42469149827957153,0.23561272025108337,1.1177777827705255,-0.9141097164094764,-1.0200359396205814,-0.0006891833515964927,1.0059484791045077,-0.626792742603185,-0.8658729176909218,0.592266357818621,-0.6460162168750445,-0.8226400511180024,-5.757883857077811,-3.770007740898139,-3.7896229115582916,-2.4154745861920737,-5.409533889268465,-1.1609889823232271,-2.602452774881375
1.1177777827705255,-0.9141097164094764,-1.0200359396205814,-0.0006891833515964927,1.0059484791045077,-0.626792742603185,-0.8658729176909218,0.592266357818621,-0.6460162168750445,-0.8226400511180024,-5.757883857077811,-3.770007740898139,-3.7896229115582916,-2.4154745861920737,-5.409533889268465,-1.1609889823232271,-2.602452774881375,-0.9914836287498474,-0.4530194401741028,0.6529162526130676,0.8534203171730042,0.63005530834198,-0.711713433265686,1.1109149755195482,-0.9639877334351691,-1.0554290227017409,-0.02784802354933504,0.9809632390976044,-0.6737182675998628,-0.8737244544203703,0.533864632739699,-0.6892975795038709,-0.8968723254100299,-6.694317274113405,-5.014396281020118,-3.112167514827394,-3.597972884138602,-6.274607151125335,-0.8053888102416402,-10.0
1.1109149755195482,-0.9639877334351691,-1.0554290227017409,-0.02784802354933504,0.9809632390976044,-0.6737182675998628,-0.8737244544203703,0.533864632739699,-0.6892975795038709,-0.8968723254100299,-6.694317274113405,-5.014396281020118,-3.112167514827394,-3.597972884138602,-6.274607151125335,-0.8053888102416402,-10.0,0.43237829208374023,-0.6045401692390442,-0.5970784425735474,0.6685918569564819,-0.6892684698104858,-0.45983263850212097,1.106513768303565,-0.9975136551322998,-1.0605021550301874,-0.07252968697882274,0.9410682648813696,-0.6886966758352996,-0.9014392261802374,0.40403804901594625,-0.9606991719006572,-0.20366379093016737,-1.6949215875748882,3.7521418394183366,-8.081925339086439,-6.377577836057448,2.515891287254545,-5.999879477430749,-10.0
1.106513768303565,-0.9975136551322998,-1.0605021550301874,-0.07252968697882274,0.9410682648813696,-0.6886966758352996,-0.9014392261802374,0.40403804901594625,-0.9606991719006572,-0.20366379093016737,-1.6949215875748882,3.7521418394183366,-8.081925339086439,-6.377577836057448,2.515891287254545,-5.999879477430749,-10.0,-0.44287487864494324,0.04179244861006737,-0.4017609655857086,-0.6404497623443604,-0.8672745823860168,0.030150292441248894,1.101972928003413,-1.0295171565627717,-1.0575326727341803,-0.12206921934074551,0.86972331694389,-0.6883931513065379,-0.9497044311845383,0.23851340421649928,-1.0291957331318105,-0.9329261572070029,-6.302936116563289,-2.9835356455440296,-4.356677716360646,-10.0,-2.4532768513230545,-6.010813113288178,-10.0
1.2502927587113148,0.003434391793828674,0.0032937652975553932,0.0010538144247450466,-0.0017803194768417985,0.0045450625338111636,0.0011350209121304767,0.0008040883014652804,-0.001329249641972494,0.00040802522909012644,0.0036899195385664734,-0.0014290777084389993,0.001750570971970642,-0.0003576492785887552,0.0005555924096154749,0.0012631726240223407,-0.001090774451884431,0.6944988369941711,0.002445126650854945,0.15867529809474945,0.15605080127716064,-0.35525327920913696,-0.7353560328483582,1.2504130960863868,0.0028400913281114585,0.004134513185133561,-0.001708259638807966,0.004946448773838702,0.004665177492013074,0.001082650961914951,-0.037549820907953446,-0.09615383550399752,0.029317553109592553,-0.166070606832267,0.18540193381126677,-0.6697293229148686,1.6704987924121215,0.024456406819256805,-0.011106892176988563,-9.581098578701507
