Vahgar8work/Data-Generation-using-Modelling-and-Simulation-for-Machine-Learning/data.csv
in_rootz,in_rooty,in_thigh_joint,in_leg_joint,in_foot_joint,in_thigh_left_joint,in_leg_left_joint,in_foot_left_joint,in_rootx_vel,in_rootz_vel,in_rooty_angvel,in_thigh_joint_angvel,in_leg_joint_angvel,in_foot_joint_angvel,in_thigh_left_joint_angvel,in_leg_left_joint_angvel,in_foot_left_joint_angvel,thigh_joint,leg_joint,foot_joint,thigh_left_joint,leg_left_joint,foot_left_joint,out_rootz,out_rooty,out_thigh_joint,out_leg_joint,out_foot_joint,out_thigh_left_joint,out_leg_left_joint,out_foot_left_joint,out_rootx_vel,out_rootz_vel,out_rooty_angvel,out_thigh_joint_angvel,out_leg_joint_angvel,out_foot_joint_angvel,out_thigh_left_joint_angvel,out_leg_left_joint_angvel,out_foot_left_joint_angvel
1.2503827378376273,-0.0012782838595706424,-0.0032328238967545006,0.0001926708189899807,-0.0015395006004027588,0.003958742007686008,0.003851914145352002,-0.0011990593389401916,-0.003161368968126277,-0.0005418371398463358,0.0035613289249992472,-0.001903515937698651,-0.0034341751733513717,0.0007696804183609561,0.0018344536879665698,0.0001606005432134381,-0.00030709544929706425,-0.7334684729576111,0.9519520998001099,-0.3421013355255127,-0.4541163742542267,0.46175041794776917,-0.7721685171127319,1.2508565857804017,-0.023441202376457027,-0.029513874083226886,0.0028238994909882066,-0.021036508306799,-0.021162218659150432,0.005054111839559858,-0.04121930830823074,-0.6016119482847115,0.10818232036727163,-5.5016867851072355,-6.424991674867743,0.485264989945699,-4.809753176349231,-6.190111885033067,0.2617444180825766,-10.0
1.2508565857804017,-0.023441202376457027,-0.029513874083226886,0.0028238994909882066,-0.021036508306799,-0.021162218659150432,0.005054111839559858,-0.04121930830823074,-0.6016119482847115,0.10818232036727163,-5.5016867851072355,-6.424991674867743,0.485264989945699,-4.809753176349231,-6.190111885033067,0.2617444180825766,-10.0,0.3605014681816101,0.16846609115600586,0.3465201258659363,0.17089222371578217,0.9561367034912109,0.6778807044029236,1.2505798245332653,-0.05728910705060025,-0.06670769099099512,0.00044235514343903383,-0.036905343047593624,-0.059422142212926,0.006699621534558958,-0.08476119860205658,-0.3283835360528586,-0.1695888923500337,-2.9685763197767696,-2.891689647631305,-1.0746325926226108,0.8389906621988057,-3.4036752456940524,0.15665412052323438,-0.878866502197015
1.2505798245332653,-0.05728910705060025,-0.06670769099099512,0.00044235514343903383,-0.036905343047593624,-0.059422142212926,0.006699621534558958,-0.08476119860205658,-0.3283835360528586,-0.1695888923500337,-2.9685763197767696,-2.891689647631305,-1.0746325926226108,0.8389906621988057,-3.4036752456940524,0.15665412052323438,-0.878866502197015,0.9184281229972839,0.3110834062099457,0.09698095917701721,0.918796181678772,-0.6891528964042664,0.41340675950050354,1.2488893462245263,-0.035215147040857625,-0.02358949895848271,-0.03142883987104067,-0.02107626582771088,-0.0074161699948615024,-0.044801064815334454,-0.053332910204891434,0.09374101041738721,-0.3027429174162728,8.449040901923158,10.0,-6.86006435150708,3.0980637693765414,10.0,-10.0,8.40862907711869
1.2488893462245263,-0.035215147040857625,-0.02358949895848271,-0.03142883987104067,-0.02107626582771088,-0.0074161699948615024,-0.044801064815334454,-0.053332910204891434,0.09374101041738721,-0.3027429174162728,8.449040901923158,10.0,-6.86006435150708,3.0980637693765414,10.0,-10.0,8.40862907711869,-0.33935678005218506,-0.14058496057987213,0.22789107263088226,0.48277756571769714,0.031145432963967323,-0.576255738735199,1.2459127745292822,0.008269551658807781,0.052544663102472355,-0.07811438482733654,0.013311592902322063,0.08384792490434934,-0.12449383320064306,-0.025152047067983584,-0.2003283423235297,-0.40281124882984753,2.6773030902556982,5.770431731137283,-4.896229998832032,5.491326236968803,6.930746983424263,-7.2497824870323875,-1.080625458649525
1.2459127745292822,0.008269551658807781,0.052544663102472355,-0.07811438482733654,0.013311592902322063,0.08384792490434934,-0.12449383320064306,-0.025152047067983584,-0.2003283423235297,-0.40281124882984753,2.6773030902556982,5.770431731137283,-4.896229998832032,5.491326236968803,6.930746983424263,-7.2497824870323875,-1.080625458649525,-0.48891517519950867,0.7334185838699341,0.5031169056892395,-0.21479432284832,-0.2972334027290344,-0.8832886219024658,1.2428382084104548,0.010711259766974558,0.0618956457521173,-0.08830217551515392,0.07243763616067177,0.11128351038477542,-0.17007007179164768,-0.08129696470802852,-0.31060841733254724,-0.3592276819427322,-2.02618083086701,-3.3724206732614594,2.3569278602363974,9.288583777891768,0.011575512749689265,-4.156028055709846,-10.0
1.2428382084104548,0.010711259766974558,0.0618956457521173,-0.08830217551515392,0.07243763616067177,0.11128351038477542,-0.17007007179164768,-0.08129696470802852,-0.31060841733254724,-0.3592276819427322,-2.02618083086701,-3.3724206732614594,2.3569278602363974,9.288583777891768,0.011575512749689265,-4.156028055709846,-10.0,-0.5474833846092224,-0.4999178946018219,0.558329164981842,0.891785740852356,0.6270619034767151,-0.783513605594635,1.2400452710111765,-0.005742193324290708,0.03882716789413043,-0.07960513891531873,0.17507398276915637,0.10476517331554777,-0.18906484881580984,-0.17813102700873856,-0.30283722293065124,-0.3255067159406966,-1.9920256587013823,-2.2883285392362382,-0.1251900650381762,10.0,-1.4331302249279592,-1.0756172577548524,-8.11506696892334
1.2400452710111765,-0.005742193324290708,0.03882716789413043,-0.07960513891531873,0.17507398276915637,0.10476517331554777,-0.18906484881580984,-0.17813102700873856,-0.30283722293065124,-0.3255067159406966,-1.9920256587013823,-2.2883285392362382,-0.1251900650381762,10.0,-1.4331302249279592,-1.0756172577548524,-8.11506696892334,0.7402333617210388,0.2145894318819046,0.03868575021624565,0.4117177724838257,0.19816844165325165,-0.03102768585085869,1.2373493210600348,-0.018707691378406992,0.024516085372045724,-0.08074279639117299,0.3049520462289593,0.09179672907108699,-0.19136465383765114,-0.21285449936015766,-0.16054171116180777,-0.3488512383342468,-1.2492167017896314,-1.3497807845351288,-0.03741808175325509,10.0,-1.7417637793276648,0.38518650852805797,-1.2392721434003147
1.2373493210600348,-0.018707691378406992,0.024516085372045724,-0.08074279639117299,0.3049520462289593,0.09179672907108699,-0.19136465383765114,-0.21285449936015766,-0.16054171116180777,-0.3488512383342468,-1.2492167017896314,-1.3497807845351288,-0.03741808175325509,10.0,-1.7417637793276648,0.38518650852805797,-1.2392721434003147,0.5531792640686035,0.9233080744743347,0.12788593769073486,-0.39848753809928894,-0.24694855511188507,-0.5613522529602051,1.2347781189284657,-0.027899652570229073,0.005718428999818522,-0.06069086186146406,0.4330357212444458,0.07593818087519887,-0.18529505872059993,-0.20946802741225487,0.024507685278135183,-0.29706199774610426,-1.0459681322821905,-3.343959397194863,5.069744505543105,10.0,-2.2169152384415387,1.145248694280777,1.7265672542701984
1.2347781189284657,-0.027899652570229073,0.005718428999818522,-0.06069086186146406,0.4330357212444458,0.07593818087519887,-0.18529505872059993,-0.20946802741225487,0.024507685278135183,-0.29706199774610426,-1.0459681322821905,-3.343959397194863,5.069744505543105,10.0,-2.2169152384415387,1.145248694280777,1.7265672542701984,-0.3859803378582001,0.05714662745594978,0.4421224296092987,0.15081223845481873,0.4192652702331543,0.6402767896652222,1.2314010529161994,-0.04399488348241301,-0.034279279940034504,-0.01014138573527729,0.5815738535622215,0.044893294001448716,-0.17116143975102954,-0.15894030315041233,0.05555541469753962,-0.5521644368407785,-2.9668795133854347,-6.644149791162667,7.64398289684697,10.0,-5.541035959140344,2.4814239507898335,10.0
1.2314010529161994,-0.04399488348241301,-0.034279279940034504,-0.01014138573527729,0.5815738535622215,0.044893294001448716,-0.17116143975102954,-0.15894030315041233,0.05555541469753962,-0.5521644368407785,-2.9668795133854347,-6.644149791162667,7.64398289684697,10.0,-5.541035959140344,2.4814239507898335,10.0,0.503185510635376,0.3368242084980011,0.20154277980327606,-0.3860560655593872,0.12450525909662247,-0.38034892082214355,1.2270356729419454,-0.06397703695456933,-0.07592011799889105,0.039539718168749766,0.7636612986613206,0.001572786239904464,-0.14428508126666062,-0.08984452760187533,0.03680840169966383,-0.5282343700286276,-1.9132965005882796,-3.226905292246641,3.956774737507181,10.0,-5.081838159805198,4.188039351886864,6.635349409354779
1.2270356729419454,-0.06397703695456933,-0.07592011799889105,0.039539718168749766,0.7636612986613206,0.001572786239904464,-0.14428508126666062,-0.08984452760187533,0.03680840169966383,-0.5282343700286276,-1.9132965005882796,-3.226905292246641,3.956774737507181,10.0,-5.081838159805198,4.188039351886864,6.635349409354779,0.5908693075180054,-0.5538522601127625,0.40000781416893005,0.8950894474983215,0.4333459734916687,-0.20176897943019867,1.2237488286086715,-0.0463861858224623,-0.05177459979991146,0.04378125458697888,0.9033006764854692,0.004681674254510768,-0.12003726980667229,-0.050514826372001255,0.3943084396854985,-0.3201725635090511,5.557381856328775,8.306638343735598,-2.873258216446934,10.0,4.657961905982906,2.4760451649424997,3.342978904963409
1.2237488286086715,-0.0463861858224623,-0.05177459979991146,0.04378125458697888,0.9033006764854692,0.004681674254510768,-0.12003726980667229,-0.050514826372001255,0.3943084396854985,-0.3201725635090511,5.557381856328775,8.306638343735598,-2.873258216446934,10.0,4.657961905982906,2.4760451649424997,3.342978904963409,-0.12595796585083008,0.8476617932319641,0.9328941106796265,0.5909721255302429,0.9767420291900635,-0.403878390789032,1.2214796764838731,-0.002341196569493012,0.008482223342186547,0.026950910889234767,0.9560502638794317,0.028371970893118083,-0.07658786163855161,-0.03955860053599228,0.619902664666176,-0.25906304871316826,4.960739229150248,6.241489393503216,-1.437670245117409,3.198875236419208,0.7200519566261872,8.369072950613159,-0.4606687120270263
1.2214796764838731,-0.002341196569493012,0.008482223342186547,0.026950910889234767,0.9560502638794317,0.028371970893118083,-0.07658786163855161,-0.03955860053599228,0.619902664666176,-0.25906304871316826,4.960739229150248,6.241489393503216,-1.437670245117409,3.198875236419208,0.7200519566261872,8.369072950613159,-0.4606687120270263,-0.9540189504623413,-0.17682939767837524,0.07300128042697906,0.0015807215822860599,-0.6331598162651062,0.7417134046554565,1.218591740489738,0.01991709401366595,0.03649478074993704,0.01804642300999048,0.9628411434730878,0.023802620261599614,-0.030339332861971005,0.00395050629257827,0.094340436962598,-0.45280353381693333,0.6213348678405028,0.8331108418787085,-0.8408411599938408,-0.9706373288547347,-1.820330157966041,3.1941495749504982,10.0
1.218591740489738,0.01991709401366595,0.03649478074993704,0.01804642300999048,0.9628411434730878,0.023802620261599614,-0.030339332861971005,0.00395050629257827,0.094340436962598,-0.45280353381693333,0.6213348678405028,0.8331108418787085,-0.8408411599938408,-0.9706373288547347,-1.820330157966041,3.1941495749504982,10.0,0.030043158680200577,0.6356505155563354,-0.47222310304641724,0.48058193922042847,0.15179012715816498,-0.8952250480651855,1.2155102879549478,0.02414204108895585,0.039378706105884724,0.01348709644341667,0.9244088286364881,0.0050202155008807,0.004506352784917166,0.041721798717259874,0.10302125465722013,-0.318211979473632,0.48625479342661176,-0.0048361215869205665,-0.3502002228746298,-8.590104744738715,-2.6705341987884914,5.183841297947533,-1.7959388768023836
1.2155102879549478,0.02414204108895585,0.039378706105884724,0.01348709644341667,0.9244088286364881,0.0050202155008807,0.004506352784917166,0.041721798717259874,0.10302125465722013,-0.318211979473632,0.48625479342661176,-0.0048361215869205665,-0.3502002228746298,-8.590104744738715,-2.6705341987884914,5.183841297947533,-1.7959388768023836,0.36401844024658203,-0.809718668460846,0.9604828953742981,0.5116536617279053,-0.39994674921035767,0.10638874769210815,1.212559663345682,0.0218150446133405,0.03898748624438765,-0.001729230955125824,0.871913997959955,-0.013156790937906481,0.027026265009137854,0.04083792073196769,-0.31799194473642955,-0.4158892692483827,-1.0478440450555189,-0.0827680640205735,-3.4625152472493923,-4.8563411861813215,-1.8525106762507326,0.45055370549338924,1.6028894402806997
1.212559663345682,0.0218150446133405,0.03898748624438765,-0.001729230955125824,0.871913997959955,-0.013156790937906481,0.027026265009137854,0.04083792073196769,-0.31799194473642955,-0.4158892692483827,-1.0478440450555189,-0.0827680640205735,-3.4625152472493923,-4.8563411861813215,-1.8525106762507326,0.45055370549338924,1.6028894402806997,-0.5454739332199097,0.8923277258872986,-0.28454139828681946,-0.07292356342077255,-0.7324608564376831,-0.18175561726093292,1.2091639706930382,-0.0017441455614576901,0.00315967922179209,0.007717301434733124,0.8122666313847783,-0.04207139892222117,0.02134196616914788,0.050123852261500325,-0.5295808393692364,-0.41816516541940485,-4.42976490786211,-7.1921683594789725,3.724425502730204,-8.944999305237669,-4.585773756423351,-2.2116997793047366,0.7242644149906622
1.2091639706930382,-0.0017441455614576901,0.00315967922179209,0.007717301434733124,0.8122666313847783,-0.04207139892222117,0.02134196616914788,0.050123852261500325,-0.5295808393692364,-0.41816516541940485,-4.42976490786211,-7.1921683594789725,3.724425502730204,-8.944999305237669,-4.585773756423351,-2.2116997793047366,0.7242644149906622,-0.27564379572868347,0.8646230697631836,0.8800902962684631,-0.5587271451950073,0.05155297741293907,0.333524227142334,1.2061032449016056,-0.05255831403458079,-0.06578219513064518,0.028602989268582603,0.771468985657248,-0.09692377394301813,0.008677949071791001,0.07307808685375532,-0.9440948840105678,-0.36606060251280914,-8.391428884510738,-10.0,1.6654815507151917,-0.36893915681579026,-9.284608859073412,-1.0636930246129788,4.946440510204484
1.2061032449016056,-0.05255831403458079,-0.06578219513064518,0.028602989268582603,0.771468985657248,-0.09692377394301813,0.008677949071791001,0.07307808685375532,-0.9440948840105678,-0.36606060251280914,-8.391428884510738,-10.0,1.6654815507151917,-0.36893915681579026,-9.284608859073412,-1.0636930246129788,4.946440510204484,0.38811734318733215,-0.7209612727165222,0.9104743599891663,-0.6724012494087219,-0.30240681767463684,-0.6876897215843201,1.2036659711710855,-0.12015373289310496,-0.13285497883033598,0.012211829031180977,0.8049659466331613,-0.16905989058735266,0.002889563881966689,0.07932374499217164,-1.2944957243350879,-0.24321485829819509,-8.53962756936709,-6.9004073434727715,-4.578028995033307,4.697129850648432,-8.789575625639484,-0.4477990171865624,-3.412093316914893
1.2036659711710855,-0.12015373289310496,-0.13285497883033598,0.012211829031180977,0.8049659466331613,-0.16905989058735266,0.002889563881966689,0.07932374499217164,-1.2944957243350879,-0.24321485829819509,-8.53962756936709,-6.9004073434727715,-4.578028995033307,4.697129850648432,-8.789575625639484,-0.4477990171865624,-3.412093316914893,0.9495288133621216,0.3201812505722046,0.7706053256988525,0.59157794713974,0.002985815517604351,-0.9338867664337158,1.2030429203192654,-0.15447911155655827,-0.14238975662511213,-0.035272753415976986,0.8308388852583695,-0.1955902827261091,-0.007095046839388678,0.035262472564838596,-0.7652994173797856,0.09356256118313737,-0.0737946047984579,4.49973261306811,-7.393409193513291,2.030673746442198,2.0964962020260414,-2.31849216981032,-4.613935282208191
1.2030429203192654,-0.15447911155655827,-0.14238975662511213,-0.035272753415976986,0.8308388852583695,-0.1955902827261091,-0.007095046839388678,0.035262472564838596,-0.7652994173797856,0.09356256118313737,-0.0737946047984579,4.49973261306811,-7.393409193513291,2.030673746442198,2.0964962020260414,-2.31849216981032,-4.613935282208191,-0.5237492918968201,0.4930168092250824,-0.3794921338558197,-0.9458942413330078,-0.06526409834623337,-0.48827823996543884,1.202920713881894,-0.1923522140544709,-0.16936357572178598,-0.055927827724110916,0.8206249206730166,-0.2382196741451218,0.0037813726750218456,-0.0003927838259552216,-1.078819032487011,-0.14144751841692485,-9.169827979008447,-10.0,1.9724860052395656,-4.536968627305338,-10.0,3.98340529501112,-4.08039231642346
1.202920713881894,-0.1923522140544709,-0.16936357572178598,-0.055927827724110916,0.8206249206730166,-0.2382196741451218,0.0037813726750218456,-0.0003927838259552216,-1.078819032487011,-0.14144751841692485,-9.169827979008447,-10.0,1.9724860052395656,-4.536968627305338,-10.0,3.98340529501112,-4.08039231642346,-0.23222249746322632,0.5706840753555298,0.9599663615226746,-0.2985357940196991,-0.857093870639801,0.05501806363463402,1.2006989663079701,-0.27590414668306196,-0.2735557192435134,-0.028970928238102923,0.7956425836752187,-0.3379798698121106,0.021460352900544773,-0.014629475753392237,-1.2716606484460882,-0.42918370812453166,-10.0,-10.0,4.783270748454149,-1.9672877389794983,-10.0,0.4314901884398118,0.30099447365884424
1.2006989663079701,-0.27590414668306196,-0.2735557192435134,-0.028970928238102923,0.7956425836752187,-0.3379798698121106,0.021460352900544773,-0.014629475753392237,-1.2716606484460882,-0.42918370812453166,-10.0,-10.0,4.783270748454149,-1.9672877389794983,-10.0,0.4314901884398118,0.30099447365884424,-0.38797953724861145,0.6032122373580933,-0.30684173107147217,0.9654094576835632,0.8949489593505859,-0.08261680603027344,1.1972172012928606,-0.3592251799729512,-0.3898673435378836,0.02092480708960842,0.7598762567127705,-0.42991999468617886,0.022860068118745837,-0.008557805572782842,-0.9952071430549809,-0.40438860309614505,-8.819614084123788,-10.0,5.246510995180146,-5.890998443562643,-9.54021718176773,-0.04691298215514991,0.944181137176505
1.1972172012928606,-0.3592251799729512,-0.3898673435378836,0.02092480708960842,0.7598762567127705,-0.42991999468617886,0.022860068118745837,-0.008557805572782842,-0.9952071430549809,-0.40438860309614505,-8.819614084123788,-10.0,5.246510995180146,-5.890998443562643,-9.54021718176773,-0.04691298215514991,0.944181137176505,-0.0453978031873703,-0.42524102330207825,-0.7680330276489258,0.4244272708892822,-0.4963114857673645,-0.09834706038236618,1.1947818759433035,-0.41778876337785925,-0.4661609822084515,0.04696840084960219,0.6726874190960055,-0.4795629142054626,3.477945310401999e-05,0.007038210761441056,-1.1213755649491612,-0.19392088306960675,-5.88013207841383,-7.057795018157703,1.5499509865456447,-10.0,-2.9760579149125923,-5.591733149883863,2.8508555874941273
1.1947818759433035,-0.41778876337785925,-0.4661609822084515,0.04696840084960219,0.6726874190960055,-0.4795629142054626,3.477945310401999e-05,0.007038210761441056,-1.1213755649491612,-0.19392088306960675,-5.88013207841383,-7.057795018157703,1.5499509865456447,-10.0,-2.9760579149125923,-5.591733149883863,2.8508555874941273,0.2731333076953888,-0.7501858472824097,-0.24397987127304077,0.3551720380783081,0.5139633417129517,0.014714004471898079,1.1941767313242242,-0.45048577163942916,-0.49346412678798063,0.03341163946309637,0.5412338273832833,-0.4868889145527869,-0.04332024650810061,0.027451379050319722,-1.0513300978939133,0.047589582341699216,-2.313365497687026,0.19153138369158285,-4.863742643328537,-10.0,1.1102833184697873,-5.231394879925433,2.278244942893586
1.1941767313242242,-0.45048577163942916,-0.49346412678798063,0.03341163946309637,0.5412338273832833,-0.4868889145527869,-0.04332024650810061,0.027451379050319722,-1.0513300978939133,0.047589582341699216,-2.313365497687026,0.19153138369158285,-4.863742643328537,-10.0,1.1102833184697873,-5.231394879925433,2.278244942893586,-0.6653239130973816,-0.16454817354679108,0.2798234224319458,-0.812779426574707,0.8225858211517334,0.6242793202400208,1.1909666430766384,-0.501543144721813,-0.53571171204713,0.005944876434729118,0.4193333956967461,-0.5348808670192908,-0.047470107607240214,0.06601635631737515,-1.1868869229047783,-0.8706998443467491,-10.0,-10.0,-2.2619958051856193,-10.0,-10.0,4.136505295893004,7.340886684346634
1.1909666430766384,-0.501543144721813,-0.53571171204713,0.005944876434729118,0.4193333956967461,-0.5348808670192908,-0.047470107607240214,0.06601635631737515,-1.1868869229047783,-0.8706998443467491,-10.0,-10.0,-2.2619958051856193,-10.0,-10.0,4.136505295893004,7.340886684346634,-0.9148049354553223,0.1783837229013443,-0.16776031255722046,0.4492645859718323,-0.9839617609977722,-0.7845653891563416,1.1832877376764297,-0.5911688307432463,-0.6308011078820519,-0.0022295379879853265,0.2961475217068131,-0.633242709434782,-0.03818669948185402,0.09028640159829984,-1.4536475542649792,-1.0659214151462106,-10.0,-10.0,0.8614786643391337,-10.0,-10.0,-1.7561702106664265,-1.2416202106001086
1.1832877376764297,-0.5911688307432463,-0.6308011078820519,-0.0022295379879853265,0.2961475217068131,-0.633242709434782,-0.03818669948185402,0.09028640159829984,-1.4536475542649792,-1.0659214151462106,-10.0,-10.0,0.8614786643391337,-10.0,-10.0,-1.7561702106664265,-1.2416202106001086,0.18091526627540588,0.2564753592014313,-0.4727027714252472,-0.21711845695972443,0.008535672910511494,0.1608811616897583,1.1740379319425536,-0.6881512105198054,-0.7395137939669946,0.006726698173222,0.130844002215032,-0.7274194897066635,-0.05214351600473454,0.08617334460916888,-1.418739683763014,-1.2353405982765944,-10.0,-10.0,0.8157634768708822,-10.0,-10.0,-1.8276641599892527,0.21785547088260138
1.1740379319425536,-0.6881512105198054,-0.7395137939669946,0.006726698173222,0.130844002215032,-0.7274194897066635,-0.05214351600473454,0.08617334460916888,-1.418739683763014,-1.2353405982765944,-10.0,-10.0,0.8157634768708822,-10.0,-10.0,-1.8276641599892527,0.21785547088260138,-0.4607508182525635,-0.8958374857902527,0.012179440818727016,-0.1443089097738266,0.7280702590942383,0.4667038023471832,1.161820646983259,-0.794073879071862,-0.8483538995912843,0.00023176169773611068,-0.04728770615511486,-0.8385723062166928,-0.04944920555301385,0.10443384092364295,-1.4076650089414118,-1.8290324766360537,-10.0,-10.0,-2.3484794592148894,-10.0,-10.0,2.4674726341622337,4.342537350961278
1.161820646983259,-0.794073879071862,-0.8483538995912843,0.00023176169773611068,-0.04728770615511486,-0.8385723062166928,-0.04944920555301385,0.10443384092364295,-1.4076650089414118,-1.8290324766360537,-10.0,-10.0,-2.3484794592148894,-10.0,-10.0,2.4674726341622337,4.342537350961278,0.8892790079116821,0.07528745383024216,-0.10817471891641617,-0.2850819528102875,-0.4920233190059662,0.13854537904262543,1.1480044070120283,-0.895660232017337,-0.9376838339564362,-0.0316413095990091,-0.13406911168024108,-0.9429163347359026,-0.04740901786922518,0.15111640701245818,-1.4182973949076112,-1.6127855780180271,-10.0,-8.36885354727475,-5.659542147975907,-4.801290398305502,-10.0,-1.9009104195170907,7.339893805037878
1.1480044070120283,-0.895660232017337,-0.9376838339564362,-0.0316413095990091,-0.13406911168024108,-0.9429163347359026,-0.04740901786922518,0.15111640701245818,-1.4182973949076112,-1.6127855780180271,-10.0,-8.36885354727475,-5.659542147975907,-4.801290398305502,-10.0,-1.9009104195170907,7.339893805037878,0.6894533038139343,-0.43639904260635376,-0.3870307207107544,0.21593934297561646,-0.5324610471725464,-0.771324872970581,1.1375136317226906,-0.9674873334155312,-0.9728106323650676,-0.09871323318902768,-0.14165230338532975,-0.9938450926293081,-0.080972929038492,0.17390333772050523,-1.670894366093914,-1.0126483719281993,-6.88830660290994,-0.4404371064542838,-10.0,2.1589007944552385,-2.6828593541610006,-6.486120963396488,-1.6080386889829543
1.1375136317226906,-0.9674873334155312,-0.9728106323650676,-0.09871323318902768,-0.14165230338532975,-0.9938450926293081,-0.080972929038492,0.17390333772050523,-1.670894366093914,-1.0126483719281993,-6.88830660290994,-0.4404371064542838,-10.0,2.1589007944552385,-2.6828593541610006,-6.486120963396488,-1.6080386889829543,-0.6652865409851074,-0.29449138045310974,0.29807397723197937,-0.39180561900138855,-0.02933693863451481,-0.1731681525707245,1.1261710069119237,-1.0394285493099449,-0.9970266963084631,-0.1841051413848352,-0.10919509124592777,-1.0384908726538038,-0.12349938446484277,0.14894241214234782,-1.6330967200503885,-1.8262464616402063,-10.0,-5.5845580958260665,-10.0,5.6284440864069,-8.434646209241272,-4.182291946489913,-4.615817871868071
1.252191669616597,-0.0005134498609700201,-0.0012301940410294233,-0.0010661109896845378,-0.004985330025743738,0.002162767178689102,0.0017947936175588255,-0.00494821168691275,0.003763723552138492,0.004765495128510495,-0.0005661841886728637,0.0044518466915959105,-0.0011485419554513854,-0.0016128873936307898,-6.512218758193168e-06,0.0022062061549479074,-0.0013715739228527778,0.48296162486076355,0.39646977186203003,0.38428735733032227,-0.6696309447288513,-0.9484924674034119,0.6227055191993713,1.2511824949754748,-0.007822036035118307,-0.009344631251327706,-3.7355875463528153e-06,0.016953326786869026,0.0023971629992124086,-0.01819178008892914,0.03906860997498571,-0.26138989004589813,-0.25988609639155874,-1.8242603119136471,-2.0330693245364886,0.2805657926966548,5.473205769411683,0.05060479384469928,-4.958071722655372,10.0
1.2511824949754748,-0.007822036035118307,-0.009344631251327706,-3.7355875463528153e-06,0.016953326786869026,0.0023971629992124086,-0.01819178008892914,0.03906860997498571,-0.26138989004589813,-0.25988609639155874,-1.8242603119136471,-2.0330693245364886,0.2805657926966548,5.473205769411683,0.05060479384469928,-4.958071722655372,10.0,-0.4986479878425598,-0.7273297905921936,0.05737568810582161,-0.11594681441783905,-0.5285835266113281,-0.8372512459754944,1.249300762492548,-0.031017712523536033,-0.02829651922414417,-0.0115484740640127,0.06685040523832375,-0.003939755211386514,-0.061196016984654406,0.08230756928687336,-0.6962582336645933,-0.21673414405079144,-3.9717010600284883,-2.700752779889924,-3.1672084365905313,6.9681921741016675,-1.609677392574442,-5.854950231935769,-0.044084647908160246
1.249300762492548,-0.031017712523536033,-0.02829651922414417,-0.0115484740640127,0.06685040523832375,-0.003939755211386514,-0.061196016984654406,0.08230756928687336,-0.6962582336645933,-0.21673414405079144,-3.9717010600284883,-2.700752779889924,-3.1672084365905313,6.9681921741016675,-1.609677392574442,-5.854950231935769,-0.044084647908160246,0.8012661933898926,0.3402004837989807,-0.020695462822914124,0.9570183753967285,0.6194837093353271,0.4686289429664612,1.2469398883337846,-0.035950112550974446,-0.015196105120564104,-0.04450669735115756,0.12288785641642067,0.014930349349802353,-0.11008530479842162,0.1032797743936535,-0.21749475497084686,-0.3742476828141036,0.5336119935296602,2.9484507431095723,-4.187852626734328,6.939500945050621,2.754020392186575,-4.408296046532515,4.947536251653449
1.2469398883337846,-0.035950112550974446,-0.015196105120564104,-0.04450669735115756,0.12288785641642067,0.014930349349802353,-0.11008530479842162,0.1032797743936535,-0.21749475497084686,-0.3742476828141036,0.5336119935296602,2.9484507431095723,-4.187852626734328,6.939500945050621,2.754020392186575,-4.408296046532515,4.947536251653449,-0.34864360094070435,-0.4103226065635681,-0.5206920504570007,0.8872718811035156,-0.24859926104545593,0.9545981287956238,1.2431541154816677,-0.04140615420716705,-0.002628696278618543,-0.07753320615305662,0.15471434502912593,0.030104081751332307,-0.1548303157904835,0.19373861412799648,-0.496217108843733,-0.5743986100469123,-1.7804159530825623,0.36588608290752755,-4.1516373396022255,1.0529051981975932,1.1944487096820835,-6.754644569315874,10.0
1.2431541154816677,-0.04140615420716705,-0.002628696278618543,-0.07753320615305662,0.15471434502912593,0.030104081751332307,-0.1548303157904835,0.19373861412799648,-0.496217108843733,-0.5743986100469123,-1.7804159530825623,0.36588608290752755,-4.1516373396022255,1.0529051981975932,1.1944487096820835,-6.754644569315874,10.0,-0.4719727039337158,-0.17830467224121094,-0.451897531747818,-0.9526422619819641,0.7189743518829346,0.5494166016578674,1.2381528326891216,-0.09236067034010165,-0.0540824526464513,-0.08937564272880763,0.13748453101796754,-0.024838140660886708,-0.16456242834978632,0.35243856183135763,-0.764907263085864,-0.7117779743062311,-10.0,-10.0,1.168613273148238,-5.386865765185447,-10.0,4.41282635854143,10.0
1.2381528326891216,-0.09236067034010165,-0.0540824526464513,-0.08937564272880763,0.13748453101796754,-0.024838140660886708,-0.16456242834978632,0.35243856183135763,-0.764907263085864,-0.7117779743062311,-10.0,-10.0,1.168613273148238,-5.386865765185447,-10.0,4.41282635854143,10.0,-0.6317563056945801,-0.19602057337760925,0.8512044548988342,-0.8235304951667786,-0.3755999803543091,0.41429412364959717,1.2296893864381264,-0.21001205972663325,-0.19716216859443628,-0.07563980191851202,0.14007101832806265,-0.18269275043249458,-0.1189989520494912,0.5508318970766689,-1.2485162809177794,-1.478014928319865,-10.0,-10.0,2.1988864400111026,5.910014241164164,-10.0,7.001634514333717,10.0
1.2296893864381264,-0.21001205972663325,-0.19716216859443628,-0.07563980191851202,0.14007101832806265,-0.18269275043249458,-0.1189989520494912,0.5508318970766689,-1.2485162809177794,-1.478014928319865,-10.0,-10.0,2.1988864400111026,5.910014241164164,-10.0,7.001634514333717,10.0,-0.32665544748306274,-0.1974140703678131,-0.25220373272895813,-0.7908017635345459,0.5388217568397522,0.30116698145866394,1.2141510784135177,-0.38233982336083344,-0.4117774387101427,-0.04720681913552483,0.1697823123603442,-0.42305284825637285,-0.026020935444881273,0.7744913799889467,-1.2886051288549052,-2.503921980628248,-10.0,-10.0,4.747476418345487,1.5097026668644757,-10.0,10.0,10.0
1.2141510784135177,-0.38233982336083344,-0.4117774387101427,-0.04720681913552483,0.1697823123603442,-0.42305284825637285,-0.026020935444881273,0.7744913799889467,-1.2886051288549052,-2.503921980628248,-10.0,-10.0,4.747476418345487,1.5097026668644757,-10.0,10.0,10.0,-0.1627374291419983,-0.4482341706752777,0.7101967334747314,-0.42894038558006287,-0.1268913596868515,0.6116929054260254,1.1906057046559753,-0.5813220828834733,-0.6487947636294851,-0.03245524327535313,0.2181749421752469,-0.6968602629952538,0.07752122927329397,0.9357717526939718,-1.5659371965301319,-3.345307034016285,-10.0,-10.0,-1.2760484616800496,10.0,-10.0,8.230401414607988,10.0
1.1906057046559753,-0.5813220828834733,-0.6487947636294851,-0.03245524327535313,0.2181749421752469,-0.6968602629952538,0.07752122927329397,0.9357717526939718,-1.5659371965301319,-3.345307034016285,-10.0,-10.0,-1.2760484616800496,10.0,-10.0,8.230401414607988,10.0,-0.5802207589149475,-0.11838648468255997,0.8260212540626526,0.479467511177063,0.9915991425514221,0.7769694328308105,1.1612743561893926,-0.7783800139661989,-0.8614094464791315,-0.053184682515603626,0.34109391063521965,-0.9388824464211741,0.11774036924714941,0.9949083076473867,-1.410917335274989,-3.9752105784005587,-10.0,-10.0,-3.7168050414688136,10.0,-10.0,2.4543075933387435,3.3811139396005476
1.1612743561893926,-0.7783800139661989,-0.8614094464791315,-0.053184682515603626,0.34109391063521965,-0.9388824464211741,0.11774036924714941,0.9949083076473867,-1.410917335274989,-3.9752105784005587,-10.0,-10.0,-3.7168050414688136,10.0,-10.0,2.4543075933387435,3.3811139396005476,-0.07615216076374054,-0.22871318459510803,-0.3896463215351105,0.43713104724884033,0.3461304306983948,0.38097935914993286,1.1289348028014776,-0.9633166665013912,-1.0471342267635797,-0.0921772258881324,0.47899422960636695,-1.1493942098720829,0.12358388092962695,1.001046293947872,-1.1513491008117254,-4.090503374390977,-10.0,-10.0,-6.0228765832503335,10.0,-10.0,-0.6053552443815228,-1.2521658658718418
1.1289348028014776,-0.9633166665013912,-1.0471342267635797,-0.0921772258881324,0.47899422960636695,-1.1493942098720829,0.12358388092962695,1.001046293947872,-1.1513491008117254,-4.090503374390977,-10.0,-10.0,-6.0228765832503335,10.0,-10.0,-0.6053552443815228,-1.2521658658718418,-0.7683975696563721,-0.3406183421611786,0.5027208924293518,-0.3256104588508606,-0.5154486894607544,-0.9993051886558533,1.092331586511193,-1.156042030763995,-1.2304401426411016,-0.14493376982217596,0.6121037488771192,-1.3577405391649535,0.10834191743116646,0.9319169439918258,-0.9445547874302637,-5.060949389641719,-10.0,-10.0,-7.198153225478577,10.0,-10.0,-3.2014610208456316,-10.0
1.2475052205438653,-0.0024148187681961863,-0.0008608765056811367,0.0004649980022352774,-0.004392498010050668,-7.246111294822218e-05,-0.004474470456117684,-0.0010755285132577523,-0.0030132277632076787,-0.004947951243756263,0.0003584399620264085,0.0044223059832272085,0.004457735593001856,-0.004164546108286901,0.0006313226625837077,0.0015097260722762972,-0.002394515040117451,0.7237228751182556,0.5372594594955444,-0.6135145425796509,0.18518690764904022,-0.21378974616527557,0.45757436752319336,1.2472685619322688,0.0009378565511890236,0.003822020692494218,0.001232294307490992,-0.036524916922681214,0.006634159963029641,-0.011428757446600008,0.023540922420877283,-0.042242167030170516,-0.0543574092282144,0.2131434082102415,0.45197022973161405,0.16430631598556716,-7.922356108527149,0.7426114555645489,-1.2975303718222913,6.026004945083853
1.2472685619322688,0.0009378565511890236,0.003822020692494218,0.001232294307490992,-0.036524916922681214,0.006634159963029641,-0.011428757446600008,0.023540922420877283,-0.042242167030170516,-0.0543574092282144,0.2131434082102415,0.45197022973161405,0.16430631598556716,-7.922356108527149,0.7426114555645489,-1.2975303718222913,6.026004945083853,0.22722534835338593,-0.9377665519714355,-0.7033640146255493,0.5180675983428955,0.21323919296264648,-0.14696411788463593,1.2471450653862244,-0.0006268923851545441,0.0075328690368799325,-0.0037685463320556115,-0.1341524629673704,0.009772534936210973,-0.021201115073080427,0.06044644844914308,-0.2599055779655265,0.02180995258340883,-0.6071894950203347,0.46260783611409095,-1.3288611095993168,-10.0,0.04237661129783388,-1.1588431133752617,3.225649559223817
1.2471450653862244,-0.0006268923851545441,0.0075328690368799325,-0.0037685463320556115,-0.1341524629673704,0.009772534936210973,-0.021201115073080427,0.06044644844914308,-0.2599055779655265,0.02180995258340883,-0.6071894950203347,0.46260783611409095,-1.3288611095993168,-10.0,0.04237661129783388,-1.1588431133752617,3.225649559223817,0.10042355954647064,-0.878905713558197,-0.7188480496406555,0.14751234650611877,-0.2795563340187073,0.2197248935699463,1.247343849440636,-0.011026371461350604,0.010318105535871877,-0.02155584207214932,-0.2739090042789992,0.009637090443202923,-0.0408655738003084,0.09889565258786903,-0.6279634303038233,0.031187939917860705,-1.9549822480500383,0.24419415495605623,-3.1974079713922574,-10.0,-0.055386305842453215,-3.711480141653172,6.303215008220725
1.247343849440636,-0.011026371461350604,0.010318105535871877,-0.02155584207214932,-0.2739090042789992,0.009637090443202923,-0.0408655738003084,0.09889565258786903,-0.6279634303038233,0.031187939917860705,-1.9549822480500383,0.24419415495605623,-3.1974079713922574,-10.0,-0.055386305842453215,-3.711480141653172,6.303215008220725,-0.18271061778068542,0.2280460149049759,-0.9334253072738647,-0.7954460382461548,-0.5842461585998535,0.42528408765792847,1.247865848745254,-0.04843152326322267,-0.025309517707561218,-0.02362247883267136,-0.35075505326879125,-0.016239836237965627,-0.07226315683075774,0.169188603371482,-0.9629679420512895,0.08622448081404761,-7.386569267694119,-9.114481669439002,2.5965867481732436,-7.016097532958732,-6.412044331324992,-4.103015830777454,10.0
1.247865848745254,-0.04843152326322267,-0.025309517707561218,-0.02362247883267136,-0.35075505326879125,-0.016239836237965627,-0.07226315683075774,0.169188603371482,-0.9629679420512895,0.08622448081404761,-7.386569267694119,-9.114481669439002,2.5965867481732436,-7.016097532958732,-6.412044331324992,-4.103015830777454,10.0,0.5900783538818359,0.30774015188217163,-0.12587618827819824,0.6414456367492676,-0.9705455303192139,-0.026896968483924866,1.2484607608847549,-0.07481738675155096,-0.05211529497380783,-0.01931272258248368,-0.3800435969012203,-0.006301187499563531,-0.1516647232596477,0.26351174809868383,-0.7519989733247868,0.05487151306520155,0.7513886410606792,2.3508339736568398,-1.4794708911500263,-0.8027847366670136,8.804293508832073,-10.0,10.0
1.2484607608847549,-0.07481738675155096,-0.05211529497380783,-0.01931272258248368,-0.3800435969012203,-0.006301187499563531,-0.1516647232596477,0.26351174809868383,-0.7519989733247868,0.05487151306520155,0.7513886410606792,2.3508339736568398,-1.4794708911500263,-0.8027847366670136,8.804293508832073,-10.0,10.0,-0.5332236289978027,0.23556680977344513,-0.4261770248413086,0.5163400173187256,0.6852710247039795,-0.5811085104942322,1.2493479473368672,-0.07763769481121267,-0.05617423738243091,-0.009750602999059515,-0.3867376205701915,0.041201158832490134,-0.25223366859111934,0.3173344566931045,-0.5692573597344808,0.17975553594377006,-1.207350717815913,-3.0129510549594487,3.7958592224695247,-1.2489979288007702,3.5145309887053022,-9.758763467407459,1.773918712747217
1.2493479473368672,-0.07763769481121267,-0.05617423738243091,-0.009750602999059515,-0.3867376205701915,0.041201158832490134,-0.25223366859111934,0.3173344566931045,-0.5692573597344808,0.17975553594377006,-1.207350717815913,-3.0129510549594487,3.7958592224695247,-1.2489979288007702,3.5145309887053022,-9.758763467407459,1.773918712747217,0.04070635885000229,0.12225565314292908,0.5877545475959778,0.9757651686668396,-0.9056063890457153,0.21458162367343903,1.2493612406011045,-0.10041304366408065,-0.09275525709861711,0.013680408744388719,-0.3561368956001536,0.05975570838231072,-0.34251143415865515,0.34361899762627474,-0.9586157363354769,-0.18886842081597766,-4.328395986455298,-5.835101457170996,1.878420029788682,8.95525405403955,1.350313288108302,-10.0,4.65654537380952
1.2493612406011045,-0.10041304366408065,-0.09275525709861711,0.013680408744388719,-0.3561368956001536,0.05975570838231072,-0.34251143415865515,0.34361899762627474,-0.9586157363354769,-0.18886842081597766,-4.328395986455298,-5.835101457170996,1.878420029788682,8.95525405403955,1.350313288108302,-10.0,4.65654537380952,-0.3352537453174591,0.36361685395240784,-0.2570829391479492,-0.8835091590881348,-0.6789149045944214,0.914717972278595,1.2461625530571794,-0.15822461505326685,-0.16301300586291173,0.02404272105758006,-0.2878072208595676,0.04400123992267761,-0.44632464422565515,0.42350819271385814,-1.5143810539912859,-0.6359181160523307,-10.0,-10.0,0.8202894110315901,8.282762272123305,-5.358279624707031,-10.0,10.0
1.2461625530571794,-0.15822461505326685,-0.16301300586291173,0.02404272105758006,-0.2878072208595676,0.04400123992267761,-0.44632464422565515,0.42350819271385814,-1.5143810539912859,-0.6359181160523307,-10.0,-10.0,0.8202894110315901,8.282762272123305,-5.358279624707031,-10.0,10.0,0.9142852425575256,0.7539770007133484,0.957244336605072,0.4825112521648407,-0.5848545432090759,-0.9519867897033691,1.2400061912163503,-0.23122598370136307,-0.2443803399806521,0.022677467090043524,-0.16979654891144036,0.014732059235807374,-0.560431162102851,0.49119879361847885,-1.4348249065556604,-0.9028865738784191,-8.329004254641005,-8.862893973928866,-0.9454564290058937,10.0,-2.270241224222176,-10.0,1.6233180970715284
1.2400061912163503,-0.23122598370136307,-0.2443803399806521,0.022677467090043524,-0.16979654891144036,0.014732059235807374,-0.560431162102851,0.49119879361847885,-1.4348249065556604,-0.9028865738784191,-8.329004254641005,-8.862893973928866,-0.9454564290058937,10.0,-2.270241224222176,-10.0,1.6233180970715284,0.8406180143356323,-0.5344210267066956,0.3235867917537689,0.81861811876297,-0.3568589389324188,0.6322668790817261,1.231375387046725,-0.2914555540607324,-0.29285739477709305,-0.013442051253211396,0.029013565785565583,0.004251686380356539,-0.6839947202909405,0.5302599379261169,-1.495239057317964,-1.252304387918315,-6.840943237825915,-3.424674689317822,-7.955288239616953,10.0,-0.5445779045266452,-10.0,8.204133479229597
1.231375387046725,-0.2914555540607324,-0.29285739477709305,-0.013442051253211396,0.029013565785565583,0.004251686380356539,-0.6839947202909405,0.5302599379261169,-1.495239057317964,-1.252304387918315,-6.840943237825915,-3.424674689317822,-7.955288239616953,10.0,-0.5445779045266452,-10.0,8.204133479229597,0.4682743549346924,-0.9139533042907715,0.8797715902328491,0.04783683642745018,0.04702259972691536,0.8327107429504395,1.2194448586769602,-0.3425802208635672,-0.29721110705183096,-0.11325144116345122,0.31274530427531116,0.0020142000353065175,-0.8000470053426754,0.6376198544625199,-1.6198660161250893,-1.7422157382724528,-6.001685961177898,2.1990887120509846,-10.0,10.0,-0.06533271216003063,-10.0,10.0
1.2194448586769602,-0.3425802208635672,-0.29721110705183096,-0.11325144116345122,0.31274530427531116,0.0020142000353065175,-0.8000470053426754,0.6376198544625199,-1.6198660161250893,-1.7422157382724528,-6.001685961177898,2.1990887120509846,-10.0,10.0,-0.06533271216003063,-10.0,10.0,0.516450047492981,-0.42481064796447754,0.03739538416266441,-0.006312207784503698,0.09610148519277573,0.44838881492614746,1.2044334688170177,-0.38772915160380994,-0.26823519292462433,-0.258907312381587,0.6439569295558893,0.002285140611225591,-0.902695313424029,0.8068395469240334,-1.6628902305854716,-1.9923544078280784,-5.455453426881398,4.833858991911875,-10.0,10.0,0.1266515182064294,-10.0,10.0
1.2044334688170177,-0.38772915160380994,-0.26823519292462433,-0.258907312381587,0.6439569295558893,0.002285140611225591,-0.902695313424029,0.8068395469240334,-1.6628902305854716,-1.9923544078280784,-5.455453426881398,4.833858991911875,-10.0,10.0,0.1266515182064294,-10.0,10.0,-0.5428908467292786,0.6202142238616943,-0.9810193181037903,-0.7148312330245972,0.8303009271621704,0.10974535346031189,1.1886231774119174,-0.4675613334642888,-0.29481696462447793,-0.3700157784115557,0.8907590472929775,-0.05465005759019252,-0.9739275715067237,0.9122717679239387,-1.7921289321782867,-1.976209073927242,-10.0,-10.0,-8.460525292271454,10.0,-10.0,-5.173400097354933,7.7911802134501364
1.1886231774119174,-0.4675613334642888,-0.29481696462447793,-0.3700157784115557,0.8907590472929775,-0.05465005759019252,-0.9739275715067237,0.9122717679239387,-1.7921289321782867,-1.976209073927242,-10.0,-10.0,-8.460525292271454,10.0,-10.0,-5.173400097354933,7.7911802134501364,-0.3091380000114441,-0.8904536962509155,0.14584602415561676,-0.32162073254585266,-0.167764350771904,0.5793024897575378,1.1709870712839034,-0.5932453499816788,-0.3900947418325968,-0.4572274945844104,0.9929100993758859,-0.18043319293747345,-1.0165969877738419,0.9474404523154659,-2.004595459425944,-2.4847035416786287,-10.0,-10.0,-10.0,6.740700103372031,-10.0,-5.544686317090786,1.6958068324282176
1.1709870712839034,-0.5932453499816788,-0.3900947418325968,-0.4572274945844104,0.9929100993758859,-0.18043319293747345,-1.0165969877738419,0.9474404523154659,-2.004595459425944,-2.4847035416786287,-10.0,-10.0,-10.0,6.740700103372031,-10.0,-5.544686317090786,1.6958068324282176,-0.6479496359825134,0.8857495188713074,-0.16248787939548492,0.5913501381874084,-0.6843471527099609,0.6956925392150879,1.1497590755548697,-0.7300035167514515,-0.5045688317512333,-0.5357111122535411,1.0160039778339887,-0.3149964228007168,-1.0686131195301485,0.9477324815133943,-1.7015765895313055,-2.819868384389756,-10.0,-10.0,-6.492931984114494,-0.1249664249257203,-10.0,-7.36121343886874,-1.2364015240414648
1.1497590755548697,-0.7300035167514515,-0.5045688317512333,-0.5357111122535411,1.0160039778339887,-0.3149964228007168,-1.0686131195301485,0.9477324815133943,-1.7015765895313055,-2.819868384389756,-10.0,-10.0,-6.492931984114494,-0.1249664249257203,-10.0,-7.36121343886874,-1.2364015240414648,-0.39036253094673157,-0.09655075520277023,-0.6793453693389893,-0.0036473397631198168,-0.5741870403289795,0.7780548334121704,1.1251224425302997,-0.8741624113251788,-0.6401569123252986,-0.5894523545087519,0.9748749687242854,-0.45314668040091466,-1.1313703851175005,0.9325517127885385,-1.5912944427610145,-3.341252098986784,-10.0,-10.0,-6.969098625900413,-10.0,-10.0,-8.282950664393692,-2.3603685116712443
1.1251224425302997,-0.8741624113251788,-0.6401569123252986,-0.5894523545087519,0.9748749687242854,-0.45314668040091466,-1.1313703851175005,0.9325517127885385,-1.5912944427610145,-3.341252098986784,-10.0,-10.0,-6.969098625900413,-10.0,-10.0,-8.282950664393692,-2.3603685116712443,-0.2577788531780243,0.33556264638900757,0.23355792462825775,0.03394705057144165,-0.7846351265907288,0.34784194827079773,1.0963338630051118,-1.0241254000511353,-0.784135909674974,-0.6361208188616762,0.9091474235547676,-0.5918033534669368,-1.2053039476992018,0.9112601537347212,-1.3174766075021482,-3.8468371046193672,-10.0,-10.0,-4.778122862908743,-6.515897721488896,-10.0,-10.0,-2.8307228368616086
1.2544158235880616,0.0013636119508205176,-0.0007640423032194803,0.0008278846595136738,-0.004680414408081446,-0.002079109312444174,-0.004159631483759782,0.004013610373430868,-0.003402644491194491,-0.0017577967163217322,0.002590095901793389,0.00340566746493894,-0.0019188588434682474,-0.001959379980747018,-0.0034183629840209384,0.0029418346251150985,0.0024437214205279443,0.26379191875457764,0.47478002309799194,0.5200013518333435,0.41457298398017883,0.2912977635860443,-0.2000301629304886,1.2538394414396181,0.006244912339249266,0.0038831858334712993,0.0011126259713004575,0.021665080115368614,0.00132683365843203,0.0005183863589496888,-0.0072093354868825055,0.13712879056901275,-0.1420687988523825,0.67561752984729,0.528754662664898,0.08289181328892192,6.637465641191213,0.2101929512516995,1.2253740110110611,-2.7721700483510063
1.2538394414396181,0.006244912339249266,0.0038831858334712993,0.0011126259713004575,0.021665080115368614,0.00132683365843203,0.0005183863589496888,-0.0072093354868825055,0.13712879056901275,-0.1420687988523825,0.67561752984729,0.528754662664898,0.08289181328892192,6.637465641191213,0.2101929512516995,1.2253740110110611,-2.7721700483510063,0.16411884129047394,0.6659752130508423,-0.773686945438385,-0.9638015627861023,0.1793050765991211,-0.7151924967765808,1.2535090986102966,-0.0016923170652424673,-0.00616144116402368,0.0026780416124227682,0.03163726580596681,-0.010600496658388397,0.008327179667312118,-0.0674029668510743,-0.32257469496803914,0.05641458678645689,-2.6507398624079452,-3.016938923048926,0.27661911016942115,-4.105660880193304,-3.175491695404468,0.7578412716418029,-10.0
1.2535090986102966,-0.0016923170652424673,-0.00616144116402368,0.0026780416124227682,0.03163726580596681,-0.010600496658388397,0.008327179667312118,-0.0674029668510743,-0.32257469496803914,0.05641458678645689,-2.6507398624079452,-3.016938923048926,0.27661911016942115,-4.105660880193304,-3.175491695404468,0.7578412716418029,-10.0,0.39996176958084106,-0.6292588114738464,-0.8790575861930847,-0.9157191514968872,0.2778662145137787,0.7784294486045837,1.2536410489859988,-0.03123909640051427,-0.03416038379503207,-0.0042152986554469685,-0.04019231092889977,-0.0450502402346513,0.012294982090209858,-0.1247916009246113,-0.6336568295309509,-0.029311043715316846,-4.746657986039273,-4.008196897484601,-1.9207716043755971,-10.0,-5.492400271019253,0.2815948832060998,-2.067960935412214
1.2536410489859988,-0.03123909640051427,-0.03416038379503207,-0.0042152986554469685,-0.04019231092889977,-0.0450502402346513,0.012294982090209858,-0.1247916009246113,-0.6336568295309509,-0.029311043715316846,-4.746657986039273,-4.008196897484601,-1.9207716043755971,-10.0,-5.492400271019253,0.2815948832060998,-2.067960935412214,-0.22767791152000427,0.23212161660194397,-0.2769883871078491,0.5657560229301453,0.34811049699783325,-0.8383358716964722,1.2538570525727881,-0.061836112808739754,-0.062017373680668626,-0.008604644648228216,-0.1752462583521718,-0.07868900140042713,0.013581142619474497,-0.1883080368760655,-0.4891353207194013,0.08681846685140042,-2.9043419527496717,-2.956531213689731,0.8626737776058737,-10.0,-2.9068091044081905,0.06732169331158996,-10.0
1.2538570525727881,-0.061836112808739754,-0.062017373680668626,-0.008604644648228216,-0.1752462583521718,-0.07868900140042713,0.013581142619474497,-0.1883080368760655,-0.4891353207194013,0.08681846685140042,-2.9043419527496717,-2.956531213689731,0.8626737776058737,-10.0,-2.9068091044081905,0.06732169331158996,-10.0,-0.08737380802631378,-0.610322892665863,0.8852730393409729,0.09593120962381363,-0.9417742490768433,0.43470925092697144,1.2531859340870404,-0.0766529668127152,-0.058899722321461616,-0.0351713044148502,-0.26767618269575394,-0.07261292038085737,-0.023225693873482778,-0.24732126334762608,-0.8496836276816085,-0.27142645324857384,-0.8142546689566739,3.7032015615343807,-7.5713617138869775,-3.091366829274114,4.373250650277109,-9.167446471433802,-0.42104294787518004
1.2531859340870404,-0.0766529668127152,-0.058899722321461616,-0.0351713044148502,-0.26767618269575394,-0.07261292038085737,-0.023225693873482778,-0.24732126334762608,-0.8496836276816085,-0.27142645324857384,-0.8142546689566739,3.7032015615343807,-7.5713617138869775,-3.091366829274114,4.373250650277109,-9.167446471433802,-0.42104294787518004,-0.07780084758996964,-0.7385163903236389,-0.01914495788514614,0.2765064537525177,0.3786344826221466,-0.27494069933891296,1.2506559296730002,-0.07709269507104353,-0.013129531269041221,-0.11319242346450828,-0.2623703627224853,-0.032749557093534644,-0.09115669133161389,-0.2377643328815027,-0.8575657756387175,-0.3678019172925755,0.6973691845779553,7.7167414850984235,-10.0,3.733699531725345,5.610582228625947,-7.911550429002533,2.502975239142725
1.2506559296730002,-0.07709269507104353,-0.013129531269041221,-0.11319242346450828,-0.2623703627224853,-0.032749557093534644,-0.09115669133161389,-0.2377643328815027,-0.8575657756387175,-0.3678019172925755,0.6973691845779553,7.7167414850984235,-10.0,3.733699531725345,5.610582228625947,-7.911550429002533,2.502975239142725,0.5418871641159058,-0.909221887588501,0.8530623912811279,0.46626195311546326,0.6785273551940918,-0.055245328694581985,1.2463666542237044,-0.07633817472350696,0.050880387393087825,-0.2295152678870264,-0.18003638241274078,0.001426694529623841,-0.14551578131955722,-0.20617886032176702,-1.0292064112588788,-0.7059871400879922,-2.200056943095426,5.469527532754573,-10.0,10.0,0.6262294077220434,-5.04089011953538,5.136739348684671
1.2463666542237044,-0.07633817472350696,0.050880387393087825,-0.2295152678870264,-0.18003638241274078,0.001426694529623841,-0.14551578131955722,-0.20617886032176702,-1.0292064112588788,-0.7059871400879922,-2.200056943095426,5.469527532754573,-10.0,10.0,0.6262294077220434,-5.04089011953538,5.136739348684671,0.41936758160591125,-0.12813028693199158,-0.5445423722267151,0.11000505834817886,-0.5057181119918823,0.5827018618583679,1.239755032886826,-0.10421103997803699,0.07806693019202543,-0.3396700485922657,-0.07263611298850313,0.0019477272488013803,-0.20261433126563333,-0.12781569365841106,-1.3084388002427148,-0.9503302736071922,-4.546580304095638,1.735968707816898,-10.0,10.0,-0.22466882661945026,-9.21783707876201,10.0
1.239755032886826,-0.10421103997803699,0.07806693019202543,-0.3396700485922657,-0.07263611298850313,0.0019477272488013803,-0.20261433126563333,-0.12781569365841106,-1.3084388002427148,-0.9503302736071922,-4.546580304095638,1.735968707816898,-10.0,10.0,-0.22466882661945026,-9.21783707876201,10.0,-0.6340978145599365,-0.0341491661965847,0.32306092977523804,-0.15974672138690948,-0.3150143623352051,0.281995952129364,1.2307740177416782,-0.15801508477303144,0.06597366487901979,-0.4279724930502385,0.03059747918877092,-0.02000828950765267,-0.2774075285115634,0.0011900227929525706,-1.5695905483350816,-1.3055445598375026,-8.887494220734304,-4.734918053849976,-9.709487144350149,10.0,-5.262231741975052,-9.422500878938346,10.0
1.2307740177416782,-0.15801508477303144,0.06597366487901979,-0.4279724930502385,0.03059747918877092,-0.02000828950765267,-0.2774075285115634,0.0011900227929525706,-1.5695905483350816,-1.3055445598375026,-8.887494220734304,-4.734918053849976,-9.709487144350149,10.0,-5.262231741975052,-9.422500878938346,10.0,-0.903718113899231,-0.6043084859848022,-0.07258394360542297,0.5704755783081055,-0.8332304358482361,-0.08067924529314041,1.2186959719014285,-0.22997253474348434,0.031646869250685994,-0.5125848543839675,0.14426700613235283,-0.048307549877073995,-0.3800832951916136,0.13994165123181954,-1.9009820838515976,-1.7342163371787862,-9.101451245846985,-3.8445285686742094,-10.0,10.0,-1.8718477622278114,-10.0,10.0
1.2186959719014285,-0.22997253474348434,0.031646869250685994,-0.5125848543839675,0.14426700613235283,-0.048307549877073995,-0.3800832951916136,0.13994165123181954,-1.9009820838515976,-1.7342163371787862,-9.101451245846985,-3.8445285686742094,-10.0,10.0,-1.8718477622278114,-10.0,10.0,-0.373019278049469,0.4766421318054199,-0.03917096555233002,-0.09191235899925232,-0.4447823762893677,0.3405076563358307,1.2032788964446566,-0.31353707343749976,-0.019698359505116593,-0.5875778288259815,0.2506903586985461,-0.0759598372542154,-0.5104713045583169,0.279965491944564,-1.9484402359976003,-2.127600366969486,-10.0,-8.950785327544718,-7.338393150668039,10.0,-5.083914412384064,-10.0,10.0
1.2032788964446566,-0.31353707343749976,-0.019698359505116593,-0.5875778288259815,0.2506903586985461,-0.0759598372542154,-0.5104713045583169,0.279965491944564,-1.9484402359976003,-2.127600366969486,-10.0,-8.950785327544718,-7.338393150668039,10.0,-5.083914412384064,-10.0,10.0,0.9389987587928772,0.30581969022750854,-0.9498397707939148,0.07828091830015182,-0.6689509153366089,-0.10646923631429672,1.1858914536038834,-0.38138716256054445,-0.05120699309292074,-0.6613047992470636,0.30367347142065904,-0.07586914864519351,-0.6609462257190637,0.40849999595539366,-1.7122697180645434,-2.2103684400712416,-5.211977018306336,1.0400572367915224,-10.0,0.1392758259990159,4.974613534602116,-10.0,10.0
1.1858914536038834,-0.38138716256054445,-0.05120699309292074,-0.6613047992470636,0.30367347142065904,-0.07586914864519351,-0.6609462257190637,0.40849999595539366,-1.7122697180645434,-2.2103684400712416,-5.211977018306336,1.0400572367915224,-10.0,0.1392758259990159,4.974613534602116,-10.0,10.0,-0.6286781430244446,-0.2080186903476715,0.7404218912124634,0.9840481877326965,0.7951134443283081,-0.5025393962860107,1.167565426046305,-0.4177586102640064,-0.04091626266680826,-0.7452029531887141,0.3421435855168409,-0.0338598468884159,-0.8213869549948084,0.4833573022343267,-1.4224730430325392,-2.359143981350324,-3.8788360161116624,1.5301107713450741,-9.821392585384094,9.489161665949313,5.5895863051043095,-10.0,5.291839085098649
1.167565426046305,-0.4177586102640064,-0.04091626266680826,-0.7452029531887141,0.3421435855168409,-0.0338598468884159,-0.8213869549948084,0.4833573022343267,-1.4224730430325392,-2.359143981350324,-3.8788360161116624,1.5301107713450741,-9.821392585384094,9.489161665949313,5.5895863051043095,-10.0,5.291839085098649,-0.9716790914535522,-0.1910015493631363,-0.05136222019791603,0.9657788872718811,0.9630925059318542,-0.6247706413269043,1.1489209528674407,-0.4528228417555234,-0.03935989629885754,-0.8138626093028135,0.4132684348053602,0.0001970203400378694,-0.960133189452561,0.48732953269839674,-1.3202943028287004,-2.294896162954243,-4.879611563502243,-1.110265727280951,-7.376710869505713,8.31770799853146,3.018564243654162,-10.0,-4.177878306183485
1.1489209528674407,-0.4528228417555234,-0.03935989629885754,-0.8138626093028135,0.4132684348053602,0.0001970203400378694,-0.960133189452561,0.48732953269839674,-1.3202943028287004,-2.294896162954243,-4.879611563502243,-1.110265727280951,-7.376710869505713,8.31770799853146,3.018564243654162,-10.0,-4.177878306183485,0.7433237433433533,0.19621649384498596,0.5247198939323425,-0.27740105986595154,0.5537537932395935,0.14458417892456055,1.1302554897630914,-0.4913609840985453,-0.05009135714805051,-0.8689162378000524,0.5051002543069003,0.01654527446781759,-1.0700949449391681,0.46469133940742696,-1.0900811075274432,-2.36176657158966,-4.666584843556141,-1.4487804804562316,-6.380228681593991,10.0,1.246255111772716,-10.0,-1.4062139157124451
1.1302554897630914,-0.4913609840985453,-0.05009135714805051,-0.8689162378000524,0.5051002543069003,0.01654527446781759,-1.0700949449391681,0.46469133940742696,-1.0900811075274432,-2.36176657158966,-4.666584843556141,-1.4487804804562316,-6.380228681593991,10.0,1.246255111772716,-10.0,-1.4062139157124451,0.24196140468120575,-0.8450961709022522,-0.6266958117485046,0.32263806462287903,0.24437235295772552,0.9931142926216125,1.1101667495070282,-0.5273203333869785,-0.05058939518749352,-0.9400210079329873,0.5818109612953768,0.022986831459046318,-1.1556955459806026,0.5097802576010458,-1.0905342755922183,-2.6609023394026283,-4.279364655768345,1.3307791869868646,-10.0,4.436892720487382,0.4491233034900168,-9.525394448418345,10.0
1.1101667495070282,-0.5273203333869785,-0.05058939518749352,-0.9400210079329873,0.5818109612953768,0.022986831459046318,-1.1556955459806026,0.5097802576010458,-1.0905342755922183,-2.6609023394026283,-4.279364655768345,1.3307791869868646,-10.0,4.436892720487382,0.4491233034900168,-9.525394448418345,10.0,0.5029212832450867,0.5116156339645386,0.5856300592422485,-0.11322502791881561,0.010361791588366032,0.9944337606430054,1.0882959983737241,-0.5586372150606064,-0.04136810715603923,-1.021577539657476,0.6504311078240973,0.0241019664740247,-1.2225578566753905,0.6675117421000556,-0.8128261571071083,-2.796100202165538,-3.536032791978942,1.0169785636358075,-9.054408684041615,10.0,-0.09829844954026258,-7.134878288188899,10.0
1.0882959983737241,-0.5586372150606064,-0.04136810715603923,-1.021577539657476,0.6504311078240973,0.0241019664740247,-1.2225578566753905,0.6675117421000556,-0.8128261571071083,-2.796100202165538,-3.536032791978942,1.0169785636358075,-9.054408684041615,10.0,-0.09829844954026258,-7.134878288188899,10.0,0.8279409408569336,-0.2994416058063507,0.8006646037101746,0.9694884419441223,-0.7675824761390686,0.4475986361503601,1.0640166485401643,-0.5881473170937986,-0.031171826269562324,-1.0983666210124015,0.7912484568130349,0.02523404294052924,-1.2858636187411105,0.8815306432003865,-0.9216226143765174,-3.2398034037523114,-4.115172873843323,1.2284774089329407,-10.0,10.0,0.3410652733348977,-9.4303534379756,10.0
1.0640166485401643,-0.5881473170937986,-0.031171826269562324,-1.0983666210124015,0.7912484568130349,0.02523404294052924,-1.2858636187411105,0.8815306432003865,-0.9216226143765174,-3.2398034037523114,-4.115172873843323,1.2284774089329407,-10.0,10.0,0.3410652733348977,-9.4303534379756,10.0,0.7792401909828186,0.20832417905330658,0.9131717085838318,-0.9206482172012329,0.054526034742593765,-0.37520697712898254,1.0383589770652735,-0.6254630169471453,-0.024454665800193797,-1.1813176490928208,0.9066916014716089,0.02189195953783799,-1.3616304312615322,0.9839639347186759,-1.025196275310312,-3.1956881144285094,-5.222032937123738,0.34146297991061386,-10.0,8.882915661360913,-1.2947983890219499,-9.36629255922793,6.722273912093912
1.0383589770652735,-0.6254630169471453,-0.024454665800193797,-1.1813176490928208,0.9066916014716089,0.02189195953783799,-1.3616304312615322,0.9839639347186759,-1.025196275310312,-3.1956881144285094,-5.222032937123738,0.34146297991061386,-10.0,8.882915661360913,-1.2947983890219499,-9.36629255922793,6.722273912093912,0.7049767971038818,0.48412710428237915,0.9242938756942749,0.9012775421142578,-0.8275689482688904,0.6796562075614929,1.0122281932794934,-0.6653922179765801,-0.017867924739547437,-1.2679930460528301,0.9489657698735549,0.016139045047763523,-1.4449880078235888,1.00903700135095,-1.0329459779518693,-3.345867941514886,-4.804141232387562,1.2128192244089444,-10.0,2.4057836284222303,-0.2638907129094355,-10.0,0.31433831827088987
1.0122281932794934,-0.6653922179765801,-0.017867924739547437,-1.2679930460528301,0.9489657698735549,0.016139045047763523,-1.4449880078235888,1.00903700135095,-1.0329459779518693,-3.345867941514886,-4.804141232387562,1.2128192244089444,-10.0,2.4057836284222303,-0.2638907129094355,-10.0,0.31433831827088987,-0.11157426238059998,-0.026185153052210808,0.15203820168972015,-0.30332455039024353,0.06910127401351929,-0.9416094422340393,0.9849254412445841,-0.7138106355086149,-0.021826947753064915,-1.3516646327036437,0.9520740021672308,0.0017919361569103164,-1.5367044455861394,0.9562316706110936,-1.1467316468177033,-3.4870096522191885,-7.2912050867175715,-2.2000245050595915,-9.896830101492148,-1.1643894123267409,-3.2631058955624654,-10.0,-10.0
0.9849254412445841,-0.7138106355086149,-0.021826947753064915,-1.3516646327036437,0.9520740021672308,0.0017919361569103164,-1.5367044455861394,0.9562316706110936,-1.1467316468177033,-3.4870096522191885,-7.2912050867175715,-2.2000245050595915,-9.896830101492148,-1.1643894123267409,-3.2631058955624654,-10.0,-10.0,-0.7133740186691284,-0.7844582200050354,-0.6608470678329468,0.53693026304245,0.4197717010974884,0.776060938835144,0.9560617432544235,-0.7745935240491607,-0.03933387147443563,-1.4398567548002972,0.8986280942503447,-0.028655524721349752,-1.6221947860448558,0.8752728406494582,-1.1522107960875763,-3.7287521643736703,-7.900971701438083,-2.156730498237713,-10.0,-10.0,-4.322170159031264,-9.90411929083377,-7.317224825511486
0.9560617432544235,-0.7745935240491607,-0.03933387147443563,-1.4398567548002972,0.8986280942503447,-0.028655524721349752,-1.6221947860448558,0.8752728406494582,-1.1522107960875763,-3.7287521643736703,-7.900971701438083,-2.156730498237713,-10.0,-10.0,-4.322170159031264,-9.90411929083377,-7.317224825511486,0.45815932750701904,0.1768198013305664,0.022304696962237358,0.17341037094593048,-0.23438717424869537,0.7943159937858582,0.9261772153801212,-0.8226002232203538,-0.035923198683996134,-1.539397130980599,0.8017521691233995,-0.04354113488808752,-1.7051004514539947,0.8321613055251071,-0.9463783026124971,-3.735243625659803,-4.109730422095413,3.001882454197059,-10.0,-10.0,0.6001638675487062,-10.0,-3.7869367534811893
0.9261772153801212,-0.8226002232203538,-0.035923198683996134,-1.539397130980599,0.8017521691233995,-0.04354113488808752,-1.7051004514539947,0.8321613055251071,-0.9463783026124971,-3.735243625659803,-4.109730422095413,3.001882454197059,-10.0,-10.0,0.6001638675487062,-10.0,-3.7869367534811893,-0.910536527633667,-0.46754226088523865,0.3193506896495819,0.4565562605857849,0.07063229382038116,0.25445786118507385,0.8949790735589187,-0.864692743284677,-0.02604572905082104,-1.635685610959833,0.7237133463850528,-0.05088330978496258,-1.7885657518628584,0.8094888162809739,-0.9494130570381157,-4.064107442380922,-6.409852070775729,-0.5479782420917276,-10.0,-7.415058178421467,-2.422958937360145,-10.0,-2.038754319505662
0.8949790735589187,-0.864692743284677,-0.02604572905082104,-1.635685610959833,0.7237133463850528,-0.05088330978496258,-1.7885657518628584,0.8094888162809739,-0.9494130570381157,-4.064107442380922,-6.409852070775729,-0.5479782420917276,-10.0,-7.415058178421467,-2.422958937360145,-10.0,-2.038754319505662,-0.4585072100162506,-0.9469524025917053,-0.6620235443115234,-0.6176152229309082,0.703928530216217,0.8890432715415955,0.8606155237349917,-0.940192229876603,-0.05810982706612349,-1.7263076524518197,0.6199068223304105,-0.10580671722709613,-1.8544258849258988,0.7993642178362426,-1.052786146114495,-4.543309401670627,-10.0,-7.405158637067775,-10.0,-10.0,-10.0,-6.4934761545635595,-0.6443789253962082
0.8606155237349917,-0.940192229876603,-0.05810982706612349,-1.7263076524518197,0.6199068223304105,-0.10580671722709613,-1.8544258849258988,0.7993642178362426,-1.052786146114495,-4.543309401670627,-10.0,-7.405158637067775,-10.0,-10.0,-10.0,-6.4934761545635595,-0.6443789253962082,-0.5561264157295227,0.5973092317581177,0.6480020880699158,0.22462691366672516,0.07319638133049011,0.5494950413703918,0.8235543537918225,-1.050162821092224,-0.13914264696688924,-1.798537746865842,0.5167897592941894,-0.21145234041457017,-1.8996368522993923,0.7962392998777538,-0.822733135079036,-4.728061814368378,-10.0,-10.0,-6.958406749265643,-7.262397051000708,-10.0,-4.8185087113928295,-0.1875385107477781
1.251833534080143,-0.004013528492328335,-0.0006144105515738232,0.0011955510264963524,0.0018119760482915867,0.0030915567117388706,0.0024727012041924224,-0.00030336105007024855,-0.0031268556700069505,-9.576605118658335e-05,0.0015092445958244495,-0.0003643312084805946,0.0018272662644939564,0.003793164816663595,-0.002371336800486238,-0.003869569942124118,-0.003678698712610774,-0.09754921495914459,0.625164806842804,-0.13221018016338348,0.09299787878990173,-0.10383398085832596,-0.7724655270576477,1.2521867452819706,-0.004745184980149295,-0.0014173081170994987,0.0019526154020087787,-0.008370242944493343,0.0030326016061231957,0.0025761500938884393,-0.04177012470498323,-0.09774291206872333,0.0879518964661681,-0.19599980476301943,-0.19907554154146195,0.16354737638141997,-2.5331129802689714,-0.009106278297413466,0.02774257312723426,-10.0
1.2521867452819706,-0.004745184980149295,-0.0014173081170994987,0.0019526154020087787,-0.008370242944493343,0.0030326016061231957,0.0025761500938884393,-0.04177012470498323,-0.09774291206872333,0.0879518964661681,-0.19599980476301943,-0.19907554154146195,0.16354737638141997,-2.5331129802689714,-0.009106278297413466,0.02774257312723426,-10.0,0.07303281873464584,0.26928237080574036,-0.7538660168647766,-0.8539642691612244,0.5569891929626465,-0.3686702251434326,1.253372832711714,-0.020017657550444556,-0.017515750085474,0.00352554173869301,-0.06867340177558084,-0.01259392733495189,0.004025283603553998,-0.14541626572837785,-0.5255827019048995,0.20299735784406212,-3.5972419782695675,-3.76586938468246,0.21888837807007777,-10.0,-3.8272084798234314,0.29591060652391965,-10.0
1.253372832711714,-0.020017657550444556,-0.017515750085474,0.00352554173869301,-0.06867340177558084,-0.01259392733495189,0.004025283603553998,-0.14541626572837785,-0.5255827019048995,0.20299735784406212,-3.5972419782695675,-3.76586938468246,0.21888837807007777,-10.0,-3.8272084798234314,0.29591060652391965,-10.0,-0.27120131254196167,0.7553825378417969,0.7730671167373657,-0.9740633964538574,0.6399896740913391,0.2786382734775543,1.2535359223671347,-0.07462412584166174,-0.07811536635449046,0.005442057811990105,-0.12302073340499843,-0.07372872762210232,0.006872919901196823,-0.24629507212372762,-1.0404689971309158,-0.19556089957302297,-10.0,-10.0,0.2461769020949572,-1.0424459579940883,-10.0,0.39779003732308105,-8.623606349417997
1.2535359223671347,-0.07462412584166174,-0.07811536635449046,0.005442057811990105,-0.12302073340499843,-0.07372872762210232,0.006872919901196823,-0.24629507212372762,-1.0404689971309158,-0.19556089957302297,-10.0,-10.0,0.2461769020949572,-1.0424459579940883,-10.0,0.39779003732308105,-8.623606349417997,-0.6424223780632019,0.06170286238193512,0.4333361089229584,-0.19714227318763733,0.7520868182182312,-0.9706592559814453,1.2511615466314903,-0.16968586936131402,-0.18588611421193485,0.006709417166107174,-0.11063980946179142,-0.18081648924241078,0.010386913016642962,-0.2905902015080146,-1.4460019104620272,-0.42377876236844747,-10.0,-10.0,0.0873899805497788,4.056512655354298,-10.0,0.4554499681481558,-2.955540755715914
1.2511615466314903,-0.16968586936131402,-0.18588611421193485,0.006709417166107174,-0.11063980946179142,-0.18081648924241078,0.010386913016642962,-0.2905902015080146,-1.4460019104620272,-0.42377876236844747,-10.0,-10.0,0.0873899805497788,4.056512655354298,-10.0,0.4554499681481558,-2.955540755715914,0.7473503351211548,-0.9663631916046143,0.205292209982872,-0.29647591710090637,-0.9633018970489502,0.932040274143219,1.2465926178087607,-0.2581938091104497,-0.2589690873232781,-0.04333805785646991,-0.04706121578117828,-0.2548226080540826,-0.03571005485952695,-0.24161834252797965,-1.7461495643902603,-0.7077550924812865,-8.393271389150224,-2.721052402768352,-10.0,10.0,-3.1654712692834774,-10.0,10.0
1.2465926178087607,-0.2581938091104497,-0.2589690873232781,-0.04333805785646991,-0.04706121578117828,-0.2548226080540826,-0.03571005485952695,-0.24161834252797965,-1.7461495643902603,-0.7077550924812865,-8.393271389150224,-2.721052402768352,-10.0,10.0,-3.1654712692834774,-10.0,10.0,-0.5933701395988464,-0.5631596446037292,-0.5992639660835266,0.956134557723999,-0.006519165821373463,-0.1573566496372223,1.2407657601256898,-0.31426174463965617,-0.2637451610077002,-0.15039336361419936,0.01083971720654199,-0.25910922962370225,-0.14331390920066403,-0.12954068388186554,-1.7496946303086514,-0.7532929406809153,-5.623358187860244,1.5426120358114674,-10.0,2.8862251240251884,2.073233149894969,-10.0,10.0
1.2407657601256898,-0.31426174463965617,-0.2637451610077002,-0.15039336361419936,0.01083971720654199,-0.25910922962370225,-0.14331390920066403,-0.12954068388186554,-1.7496946303086514,-0.7532929406809153,-5.623358187860244,1.5426120358114674,-10.0,2.8862251240251884,2.073233149894969,-10.0,10.0,0.21050594747066498,-0.23763994872570038,-0.4306505620479584,-0.3278317153453827,-0.25560665130615234,-0.05520837381482124,1.2337904977373477,-0.3594752237782598,-0.24835048894169393,-0.2692745291580651,0.00732534164690825,-0.24157288671808752,-0.26483732782966246,-0.03412499744424788,-1.8414815104700197,-0.9958253623962552,-5.677858538506804,2.3085274592689844,-10.0,-3.8286292045682346,2.3028485663980893,-10.0,10.0
1.2337904977373477,-0.3594752237782598,-0.24835048894169393,-0.2692745291580651,0.00732534164690825,-0.24157288671808752,-0.26483732782966246,-0.03412499744424788,-1.8414815104700197,-0.9958253623962552,-5.677858538506804,2.3085274592689844,-10.0,-3.8286292045682346,2.3028485663980893,-10.0,10.0,-0.7301879525184631,-0.47824883460998535,0.7301676869392395,0.78677898645401,-0.8949154615402222,-0.6763986349105835,1.2240968736855464,-0.3960081457697389,-0.21332304992607962,-0.4050560334242617,0.012701800026715842,-0.1953573664507843,-0.4194021240534056,0.016333247971644007,-2.019203137647101,-1.462408198574357,-3.44759321407595,6.383609385112542,-10.0,5.17762126578601,9.18241961856546,-10.0,1.387516417388405
1.2240968736855464,-0.3960081457697389,-0.21332304992607962,-0.4050560334242617,0.012701800026715842,-0.1953573664507843,-0.4194021240534056,0.016333247971644007,-2.019203137647101,-1.462408198574357,-3.44759321407595,6.383609385112542,-10.0,5.17762126578601,9.18241961856546,-10.0,1.387516417388405,-0.40246909856796265,-0.32710930705070496,0.26516300439834595,-0.5966025590896606,-0.5782925486564636,-0.4058821499347687,1.2096378177606448,-0.44227734952129377,-0.1861779958416781,-0.5481842776882186,0.062289388357923775,-0.14503263299550773,-0.5990632642948974,-0.004903231549361748,-2.293171784294695,-2.1526767266125173,-8.125993567753296,0.3675012813584113,-10.0,7.221885421314853,3.390368574292671,-10.0,-6.671376856869511
1.2096378177606448,-0.44227734952129377,-0.1861779958416781,-0.5481842776882186,0.062289388357923775,-0.14503263299550773,-0.5990632642948974,-0.004903231549361748,-2.293171784294695,-2.1526767266125173,-8.125993567753296,0.3675012813584113,-10.0,7.221885421314853,3.390368574292671,-10.0,-6.671376856869511,-0.25511378049850464,-0.8460872173309326,0.12531037628650665,0.5795271396636963,-0.6251435875892639,0.05347819998860359,1.189863810073223,-0.49182109023262155,-0.15446596701769594,-0.7084589301377385,0.123247958090066,-0.09053962976256655,-0.7845142359821508,-0.030308337838707265,-2.2348868954817034,-2.805628814374068,-4.2867661487500595,7.410295374335704,-10.0,7.78191980540822,10.0,-10.0,-0.1992001134945487
1.189863810073223,-0.49182109023262155,-0.15446596701769594,-0.7084589301377385,0.123247958090066,-0.09053962976256655,-0.7845142359821508,-0.030308337838707265,-2.2348868954817034,-2.805628814374068,-4.2867661487500595,7.410295374335704,-10.0,7.78191980540822,10.0,-10.0,-0.1992001134945487,0.9956015348434448,-0.5598186254501343,0.004584511276334524,0.05321161076426506,-0.9127212166786194,0.7299920320510864,1.1644071689948299,-0.49736903865185245,-0.04788321612302557,-0.9157082012677348,0.17546884490838227,0.032464540171466695,-0.9986375629884697,-0.0016056964982015393,-1.9609316862063826,-3.641580696034061,0.05691242063847879,10.0,-10.0,4.851713257336635,10.0,-10.0,7.722687030737701
1.1644071689948299,-0.49736903865185245,-0.04788321612302557,-0.9157082012677348,0.17546884490838227,0.032464540171466695,-0.9986375629884697,-0.0016056964982015393,-1.9609316862063826,-3.641580696034061,0.05691242063847879,10.0,-10.0,4.851713257336635,10.0,-10.0,7.722687030737701,-0.3948536217212677,-0.10919078439474106,0.17932087182998657,0.09305029362440109,0.4620661437511444,-0.22596554458141327,1.1335107910135733,-0.5252069347755565,0.028774753071944714,-1.11534196811104,0.21299075286000793,0.11712868562225073,-1.1898720717627413,0.042661260200756876,-2.010651455429269,-4.040387846422668,-6.347762713870781,4.938879404727898,-10.0,4.782484844950337,5.981877169228869,-10.0,3.4361724806644207
1.1335107910135733,-0.5252069347755565,0.028774753071944714,-1.11534196811104,0.21299075286000793,0.11712868562225073,-1.1898720717627413,0.042661260200756876,-2.010651455429269,-4.040387846422668,-6.347762713870781,4.938879404727898,-10.0,4.782484844950337,5.981877169228869,-10.0,3.4361724806644207,-0.9384846687316895,-0.47552528977394104,0.12875515222549438,0.3091885447502136,-0.3356281816959381,-0.7587577104568481,1.0989510628634733,-0.5968583479856749,0.037822838213467797,-1.2847895508331748,0.25286845817454984,0.14166775228585918,-1.355357984032633,0.018280124412627045,-2.195435616535115,-4.601399398777988,-10.0,-2.113543524390691,-10.0,5.282577795222243,0.7621067609597832,-10.0,-9.67628743190911
1.0989510628634733,-0.5968583479856749,0.037822838213467797,-1.2847895508331748,0.25286845817454984,0.14166775228585918,-1.355357984032633,0.018280124412627045,-2.195435616535115,-4.601399398777988,-10.0,-2.113543524390691,-10.0,5.282577795222243,0.7621067609597832,-10.0,-9.67628743190911,-0.6142381429672241,-0.6274927854537964,-0.42700424790382385,0.979126513004303,-0.9430220127105713,0.9589342474937439,1.0589676296512611,-0.6930483441124229,0.014646884119327571,-1.4484245520649124,0.26535484957238575,0.1379632317157953,-1.5172541707291165,-0.00824174114852094,-2.0707803143645864,-5.386943923537482,-10.0,-3.3944694138965947,-10.0,-2.209492209725089,-1.393795153857335,-10.0,3.0857787007868036
1.0589676296512611,-0.6930483441124229,0.014646884119327571,-1.4484245520649124,0.26535484957238575,0.1379632317157953,-1.5172541707291165,-0.00824174114852094,-2.0707803143645864,-5.386943923537482,-10.0,-3.3944694138965947,-10.0,-2.209492209725089,-1.393795153857335,-10.0,3.0857787007868036,-0.1809176206588745,-9.711476013762876e-05,0.15813151001930237,-0.8770838379859924,0.4250761568546295,-0.31946519017219543,1.0141319618438418,-0.8212327144609158,-0.053620372889232784,-1.597742921555873,0.2517971702998052,0.08634769257147894,-1.6619690241888458,-0.0015786545165197962,-2.023074243469629,-5.847842372105235,-10.0,-10.0,-10.0,-1.116096961317924,-10.0,-10.0,-1.3640542214777591
1.0141319618438418,-0.8212327144609158,-0.053620372889232784,-1.597742921555873,0.2517971702998052,0.08634769257147894,-1.6619690241888458,-0.0015786545165197962,-2.023074243469629,-5.847842372105235,-10.0,-10.0,-10.0,-1.116096961317924,-10.0,-10.0,-1.3640542214777591,-0.918144166469574,0.5821484923362732,-0.15214940905570984,0.21188925206661224,0.9204963445663452,-0.226810023188591,0.9661423405895192,-0.9986769417117866,-0.20046812950371667,-1.7075576596294775,0.23579708856641488,-0.03985974844954405,-1.7692438497038334,-0.02927989146299359,-1.625643505824983,-6.179488695261862,-10.0,-10.0,-10.0,-2.8447267509538543,-10.0,-10.0,-5.557524234962862
0.9661423405895192,-0.9986769417117866,-0.20046812950371667,-1.7075576596294775,0.23579708856641488,-0.03985974844954405,-1.7692438497038334,-0.02927989146299359,-1.625643505824983,-6.179488695261862,-10.0,-10.0,-10.0,-2.8447267509538543,-10.0,-10.0,-5.557524234962862,0.8156189918518066,0.9866737723350525,-0.42450031638145447,0.01980176568031311,-0.9720672369003296,0.24484385550022125,0.91631372840418,-1.1782747327589609,-0.3558139762812535,-1.798485788747924,0.1819329014689333,-0.1724631634700412,-1.864605008702186,-0.06404534326002802,-1.0509801951514144,-6.2367244287916455,-10.0,-10.0,-10.0,-10.0,-10.0,-10.0,-3.0646591482939463
1.2522707545022143,0.0016872634746193703,-0.0031648886457468165,0.001580692845894579,-0.00478510319818016,-0.004152734933795067,-0.001790383861977718,-0.0026329897894902744,0.001120140767628985,-0.004230651771703416,0.004202814512790041,0.002598569175748626,-0.002732767768880381,0.0021606705961650027,-1.0227068108183829e-05,-0.0017166484878784593,-0.0006362223692889524,0.5337479114532471,0.40760135650634766,0.5749879479408264,0.20670096576213837,-0.27325934171676636,-0.890311062335968,1.252149635964606,0.011003655234778332,0.009246416466279397,-0.0020952599016172612,0.0224736810752832,0.007765758367102629,-0.0026569326201325836,-0.04852071771003301,0.1010075358227097,-0.02741376132029512,1.2330604180991098,1.4310432994728373,-0.12937995244894268,6.626362256969239,1.3621925494370575,0.4882874818038664,-10.0
1.252149635964606,0.011003655234778332,0.009246416466279397,-0.0020952599016172612,0.0224736810752832,0.007765758367102629,-0.0026569326201325836,-0.04852071771003301,0.1010075358227097,-0.02741376132029512,1.2330604180991098,1.4310432994728373,-0.12937995244894268,6.626362256969239,1.3621925494370575,0.4882874818038664,-10.0,-0.7010061144828796,-0.6788064241409302,-0.7948327660560608,0.9477177858352661,-0.2071266919374466,0.35212695598602295,1.2519607572392992,0.013074558318489691,0.01234141124568815,-0.0027183988199854445,0.035121237819084564,0.015591382589922634,-0.00983908579196725,-0.119677551553992,-0.22323124903836433,-0.020386653819541252,-0.6720919023237399,-0.5949269090575915,-0.06106636880232873,-3.427551907124951,0.6612417548817595,-2.3364104015970524,-6.1599726730831055
1.2519607572392992,0.013074558318489691,0.01234141124568815,-0.0027183988199854445,0.035121237819084564,0.015591382589922634,-0.00983908579196725,-0.119677551553992,-0.22323124903836433,-0.020386653819541252,-0.6720919023237399,-0.5949269090575915,-0.06106636880232873,-3.427551907124951,0.6612417548817595,-2.3364104015970524,-6.1599726730831055,0.7424152493476868,-0.23270002007484436,-0.016629206016659737,0.46827933192253113,-0.51434725522995,0.8309516310691833,1.2508519629432389,0.002520793448203646,0.00868937286365071,-0.01587106957353312,0.01529782177052651,0.020257254342019266,-0.041605251945486726,-0.1173147114152048,-0.5096544529928448,-0.26114993898152095,-1.965811470279946,-0.3361244573030715,-3.1935276015494125,-1.5511003193885382,0.5050335928931416,-5.61114807098616,6.691343816794445
1.2508519629432389,0.002520793448203646,0.00868937286365071,-0.01587106957353312,0.01529782177052651,0.020257254342019266,-0.041605251945486726,-0.1173147114152048,-0.5096544529928448,-0.26114993898152095,-1.965811470279946,-0.3361244573030715,-3.1935276015494125,-1.5511003193885382,0.5050335928931416,-5.61114807098616,6.691343816794445,-0.48212042450904846,0.3590155243873596,-0.031073449179530144,0.12243109196424484,0.4031982719898224,0.11933722347021103,1.2483307777217911,-0.025510304539678404,-0.020156736373341394,-0.018935745165959344,-0.005254588803546185,0.0017434065955554082,-0.07136852846786644,-0.06248606965145084,-0.440662980932095,-0.3735417798126298,-5.027448975085077,-6.849481567574,2.4096049744506063,-3.594791320282723,-5.111208837021528,-1.8354538067579176,7.05199434125086
1.2483307777217911,-0.025510304539678404,-0.020156736373341394,-0.018935745165959344,-0.005254588803546185,0.0017434065955554082,-0.07136852846786644,-0.06248606965145084,-0.440662980932095,-0.3735417798126298,-5.027448975085077,-6.849481567574,2.4096049744506063,-3.594791320282723,-5.111208837021528,-1.8354538067579176,7.05199434125086,0.5460658669471741,0.17036139965057373,0.8190833330154419,-0.45115000009536743,0.5702109932899475,-0.07514107972383499,1.2443822533314157,-0.0664550992911264,-0.07277233910914126,-0.008768108991809262,0.01314112043269071,-0.05137129347514739,-0.06329064587756136,-0.016187525376679376,-0.26472094507901683,-0.6154802739751817,-5.199827826697482,-6.293579172260958,0.14669793968051614,8.165630945715371,-8.153400175855637,3.84882738146153,4.521955756183001
1.2443822533314157,-0.0664550992911264,-0.07277233910914126,-0.008768108991809262,0.01314112043269071,-0.05137129347514739,-0.06329064587756136,-0.016187525376679376,-0.26472094507901683,-0.6154802739751817,-5.199827826697482,-6.293579172260958,0.14669793968051614,8.165630945715371,-8.153400175855637,3.84882738146153,4.521955756183001,-0.3467271625995636,-0.46764349937438965,-0.7030654549598694,0.2023756206035614,-0.030327951535582542,-0.4458804726600647,1.2398027832164509,-0.10921818500233516,-0.12339034850850793,-0.008415835677964239,0.039660272771458505,-0.11732239738127376,-0.031564479056689146,-0.00782085564499806,-0.38935118062884827,-0.5308224936612916,-5.498048410004702,-6.365653517935467,-0.08087597623793766,-1.4978209630761068,-8.342976551179431,4.0752004329279625,-2.40696087988305
1.2398027832164509,-0.10921818500233516,-0.12339034850850793,-0.008415835677964239,0.039660272771458505,-0.11732239738127376,-0.031564479056689146,-0.00782085564499806,-0.38935118062884827,-0.5308224936612916,-5.498048410004702,-6.365653517935467,-0.08087597623793766,-1.4978209630761068,-8.342976551179431,4.0752004329279625,-2.40696087988305,-0.8627132773399353,-0.46207067370414734,0.8044171333312988,0.4318355321884155,0.25707659125328064,-0.01700025610625744,1.2342353343259553,-0.16138634606259802,-0.1807429485607276,-0.017646996046073803,0.07450303978019568,-0.19469862419037284,0.0046262966702112305,-0.02692650465351662,-0.5715458838522501,-0.8675130137926022,-7.458226035884007,-7.8190876583739675,-2.2754799821127114,10.0,-10.0,4.50654540522711,-2.2009988856092
1.2342353343259553,-0.16138634606259802,-0.1807429485607276,-0.017646996046073803,0.07450303978019568,-0.19469862419037284,0.0046262966702112305,-0.02692650465351662,-0.5715458838522501,-0.8675130137926022,-7.458226035884007,-7.8190876583739675,-2.2754799821127114,10.0,-10.0,4.50654540522711,-2.2009988856092,-0.8315759301185608,-0.16444583237171173,0.23943686485290527,0.9557637572288513,-0.3348974585533142,-0.17628219723701477,1.2268955656233738,-0.21528253775235584,-0.23589745728087017,-0.03647533279796325,0.1654022531735223,-0.2620051364157465,0.019254205675643146,-0.045118141306521066,-0.6391957770095908,-0.9582266705754172,-6.031440845437243,-5.998164265024781,-2.3973419831333493,10.0,-6.188715976194852,-0.8241116501982182,-2.3179570852752596
1.2268955656233738,-0.21528253775235584,-0.23589745728087017,-0.03647533279796325,0.1654022531735223,-0.2620051364157465,0.019254205675643146,-0.045118141306521066,-0.6391957770095908,-0.9582266705754172,-6.031440845437243,-5.998164265024781,-2.3973419831333493,10.0,-6.188715976194852,-0.8241116501982182,-2.3179570852752596,0.009199974127113819,0.4296097457408905,0.8138113021850586,-0.7202907204627991,-0.63791424036026,-0.6481429934501648,1.2179528991366448,-0.2780007165328775,-0.3043425501947665,-0.04637839116911929,0.3022524588159933,-0.3288088435830731,0.013877522695398615,-0.08090355165953254,-0.8751237189817279,-1.2891771182700538,-9.622065211489867,-10.0,0.021690519052005586,10.0,-10.0,-0.5379887792482617,-2.788593812349643
1.2179528991366448,-0.2780007165328775,-0.3043425501947665,-0.04637839116911929,0.3022524588159933,-0.3288088435830731,0.013877522695398615,-0.08090355165953254,-0.8751237189817279,-1.2891771182700538,-9.622065211489867,-10.0,0.021690519052005586,10.0,-10.0,-0.5379887792482617,-2.788593812349643,-0.6326169371604919,0.3711922764778137,0.20142371952533722,0.39563462138175964,-0.8469704985618591,0.9187435507774353,1.2060441869847054,-0.35617517081279115,-0.40029415263132373,-0.029422423774078752,0.4814339317519286,-0.3961619634622938,-0.029579853062439786,-0.03691869762043909,-1.0211292143392243,-1.6969384618930492,-9.903452860390349,-10.0,4.282564185310258,10.0,-6.346954089941482,-10.0,10.0
1.2060441869847054,-0.35617517081279115,-0.40029415263132373,-0.029422423774078752,0.4814339317519286,-0.3961619634622938,-0.029579853062439786,-0.03691869762043909,-1.0211292143392243,-1.6969384618930492,-9.903452860390349,-10.0,4.282564185310258,10.0,-6.346954089941482,-10.0,10.0,0.5571218132972717,-0.47001612186431885,-0.83104407787323,0.8365419507026672,0.2808636426925659,-0.8652952313423157,1.1950215248868885,-0.405256695212086,-0.45678578879230836,-0.018667491669724125,0.6266562752918047,-0.4082484241587001,-0.11552801188467769,0.057977333850354626,-0.7446108645926954,-1.038927565550968,-2.416605369415975,-1.3031653505229195,-1.7071421788282404,10.0,3.2712472625640636,-10.0,10.0
1.1950215248868885,-0.405256695212086,-0.45678578879230836,-0.018667491669724125,0.6266562752918047,-0.4082484241587001,-0.11552801188467769,0.057977333850354626,-0.7446108645926954,-1.038927565550968,-2.416605369415975,-1.3031653505229195,-1.7071421788282404,10.0,3.2712472625640636,-10.0,10.0,-0.6500762104988098,-0.5780160427093506,0.13830766081809998,0.020205171778798103,-0.6864222884178162,-0.06981968134641647,1.1858131548293809,-0.4338291983975518,-0.47259736945203923,-0.0414375750703177,0.7377702733414405,-0.38463878132793233,-0.2183418606763195,0.14344387370600206,-1.1676496201347688,-1.1959309710629697,-4.9197524197800675,-2.8417422872337315,-4.127480675463018,10.0,2.2885097682007745,-10.0,10.0
1.1858131548293809,-0.4338291983975518,-0.47259736945203923,-0.0414375750703177,0.7377702733414405,-0.38463878132793233,-0.2183418606763195,0.14344387370600206,-1.1676496201347688,-1.1959309710629697,-4.9197524197800675,-2.8417422872337315,-4.127480675463018,10.0,2.2885097682007745,-10.0,10.0,-0.5747032165527344,-0.6373404860496521,-0.5742987990379333,-0.023662662133574486,0.5052347183227539,-0.9941332936286926,1.176338350329836,-0.4890222884384717,-0.5147236641240892,-0.07091435702932561,0.8233676391078975,-0.39649951503615927,-0.30545316636968617,0.19876386211412178,-1.3313655469358516,-1.1938813435503706,-8.820760556227757,-7.624959103207572,-3.1650642063632004,6.932111711907145,-5.060395969015932,-7.813687888265241,1.4754411788455721
1.176338350329836,-0.4890222884384717,-0.5147236641240892,-0.07091435702932561,0.8233676391078975,-0.39649951503615927,-0.30545316636968617,0.19876386211412178,-1.3313655469358516,-1.1938813435503706,-8.820760556227757,-7.624959103207572,-3.1650642063632004,6.932111711907145,-5.060395969015932,-7.813687888265241,1.4754411788455721,-0.22564934194087982,-0.6484319567680359,-0.4035259783267975,-0.17996127903461456,-0.7159872651100159,-0.8923200964927673,1.1667740078377884,-0.5650613432095737,-0.5750648869921,-0.10478587429715784,0.8577963157576415,-0.43672854709449715,-0.3758690363987436,0.20321232230502817,-1.7169837683101483,-1.223004235300185,-10.0,-7.352644610684216,-5.422335188094076,2.1856538789907267,-4.917079474967445,-9.83853758434386,0.2520034574800656
1.1667740078377884,-0.5650613432095737,-0.5750648869921,-0.10478587429715784,0.8577963157576415,-0.43672854709449715,-0.3758690363987436,0.20321232230502817,-1.7169837683101483,-1.223004235300185,-10.0,-7.352644610684216,-5.422335188094076,2.1856538789907267,-4.917079474967445,-9.83853758434386,0.2520034574800656,-0.1420772224664688,0.5574952960014343,0.14391016960144043,-0.6731141209602356,0.4071006774902344,-0.5803937911987305,1.155135004608183,-0.6679224579632506,-0.6712898292390518,-0.12544188089034078,0.8648344328931938,-0.5153448780365638,-0.4287089571519514,0.2030913046067987,-1.552816351544719,-1.7147026084736654,-10.0,-10.0,0.09029301123931877,-0.17001491187871992,-10.0,-3.598356134444617,-0.2416794246805994
1.155135004608183,-0.6679224579632506,-0.6712898292390518,-0.12544188089034078,0.8648344328931938,-0.5153448780365638,-0.4287089571519514,0.2030913046067987,-1.552816351544719,-1.7147026084736654,-10.0,-10.0,0.09029301123931877,-0.17001491187871992,-10.0,-3.598356134444617,-0.2416794246805994,0.9063047766685486,0.540094256401062,-0.36854287981987,-0.0636359378695488,0.13553258776664734,0.9702816009521484,1.142123695242688,-0.7773276015488279,-0.7862258351829394,-0.12639441676065857,0.8475423276040608,-0.6168976873169781,-0.4555570185087381,0.2467329449440698,-1.1267804349448216,-1.5175344795077212,-10.0,-10.0,-0.2288375065506423,-4.069586389350265,-10.0,-3.060130404726563,10.0
1.142123695242688,-0.7773276015488279,-0.7862258351829394,-0.12639441676065857,0.8475423276040608,-0.6168976873169781,-0.4555570185087381,0.2467329449440698,-1.1267804349448216,-1.5175344795077212,-10.0,-10.0,-0.2288375065506423,-4.069586389350265,-10.0,-3.060130404726563,10.0,0.8811783194541931,0.038137707859277725,0.885793924331665,-0.12177680432796478,-0.27478551864624023,-0.0230856966227293,1.1312090584948515,-0.8567472673759293,-0.8567208593059231,-0.14640864740198614,0.8240472315276542,-0.6806676242460248,-0.49018053918084786,0.3326038219953388,-1.1019014344980838,-1.2019783524301229,-7.992267939984308,-5.427349753114777,-4.6444157141737,-1.9965003903509506,-5.084515172159162,-5.570869249843737,10.0
1.1312090584948515,-0.8567472673759293,-0.8567208593059231,-0.14640864740198614,0.8240472315276542,-0.6806676242460248,-0.49018053918084786,0.3326038219953388,-1.1019014344980838,-1.2019783524301229,-7.992267939984308,-5.427349753114777,-4.6444157141737,-1.9965003903509506,-5.084515172159162,-5.570869249843737,10.0,-0.4824831783771515,-0.6308743357658386,-0.21268582344055176,0.2539583444595337,-0.37780386209487915,0.35251787304878235,1.1205951466391784,-0.9218827446520792,-0.8951215970243082,-0.19306736085104154,0.8062416198690587,-0.7164725615025649,-0.5453266037325455,0.42912605476940724,-1.2748790175745564,-1.4568870793020712,-8.2789623732603,-4.152818274920562,-7.034742943654168,-2.4763298807774814,-3.8705495609509932,-8.163456359100248,10.0
1.1205951466391784,-0.9218827446520792,-0.8951215970243082,-0.19306736085104154,0.8062416198690587,-0.7164725615025649,-0.5453266037325455,0.42912605476940724,-1.2748790175745564,-1.4568870793020712,-8.2789623732603,-4.152818274920562,-7.034742943654168,-2.4763298807774814,-3.8705495609509932,-8.163456359100248,10.0,-0.3855895400047302,0.19128486514091492,0.941413938999176,-0.33364540338516235,-0.3068881034851074,-0.4446987211704254,1.1068060770252557,-1.001100143023411,-0.9475286005246312,-0.24052007420260116,0.7933514939186459,-0.7622912484244563,-0.6103205105371756,0.5126650630978777,-1.2291231665120648,-1.9953384043518776,-10.0,-8.919107343978904,-4.853506339278244,-0.9097498779118994,-7.554848133475899,-8.12490154866999,7.067428242308301
1.2494475149952913,-0.0009309299656964018,0.0009038803723690333,0.000925953030678538,-0.002275204405991067,0.0012779569821513596,0.0014280468301187408,-0.0034621675498531135,-0.0040394497164291665,-0.0033351009456352478,0.0015385938942311913,-0.000784929340137892,-0.0021716952660067236,-0.003033554734521937,-0.0014616200970733804,0.0010936152158640125,0.0030702574865965225,0.2885020673274994,-0.3089148998260498,-0.767778217792511,0.7344204783439636,0.362293004989624,-0.9051635265350342,1.2503448599134617,-0.0011218529417294247,0.0016891462758143187,0.0009748081618591881,-0.046434855757891885,0.002141214840696709,0.002130826152234008,-0.05487223755108936,-0.16067807490302094,0.2267528626274518,-0.0944451976213495,0.16746515170547333,0.013468256601026811,-10.0,0.19574227582013107,0.15782468525732463,-10.0
1.2503448599134617,-0.0011218529417294247,0.0016891462758143187,0.0009748081618591881,-0.046434855757891885,0.002141214840696709,0.002130826152234008,-0.05487223755108936,-0.16067807490302094,0.2267528626274518,-0.0944451976213495,0.16746515170547333,0.013468256601026811,-10.0,0.19574227582013107,0.15782468525732463,-10.0,0.9627562165260315,0.9712384343147278,0.7282540202140808,0.7146901488304138,0.4143362045288086,-0.056090034544467926,1.2513193026974136,-0.0009284530047722547,0.0033777180231157242,0.0015455555277555377,-0.09608304933637905,0.00456133738527037,0.003568867374670918,-0.15733696624418747,-0.07960081002814381,0.017100637086851563,0.12413007023776199,0.23033063515990942,0.10964371037714842,-1.375782971328606,0.38573307663673084,0.19608504479248204,-10.0
1.2513193026974136,-0.0009284530047722547,0.0033777180231157242,0.0015455555277555377,-0.09608304933637905,0.00456133738527037,0.003568867374670918,-0.15733696624418747,-0.07960081002814381,0.017100637086851563,0.12413007023776199,0.23033063515990942,0.10964371037714842,-1.375782971328606,0.38573307663673084,0.19608504479248204,-10.0,0.9129829406738281,0.16171541810035706,0.7415363788604736,-0.32809150218963623,-0.5933057069778442,0.1593395322561264,1.2504545066100794,-0.004080814339426601,0.005133207142626038,-0.007519253302301076,-0.06234343012558397,0.006858551924163753,-0.0034391265476779323,-0.24029868710436442,-0.2701080406251457,-0.2353220797172568,-0.8954120045820491,0.20939142504368535,-2.3173623485061983,9.737387318138579,0.20070007768125683,-1.932862322559929,-6.645460226629982
1.2504545066100794,-0.004080814339426601,0.005133207142626038,-0.007519253302301076,-0.06234343012558397,0.006858551924163753,-0.0034391265476779323,-0.24029868710436442,-0.2701080406251457,-0.2353220797172568,-0.8954120045820491,0.20939142504368535,-2.3173623485061983,9.737387318138579,0.20070007768125683,-1.932862322559929,-6.645460226629982,-0.19378866255283356,-0.8392559885978699,0.8454822301864624,0.8016204833984375,-0.8118990659713745,0.1805548071861267,1.2473240981192002,-0.021446641706484658,0.006733842312724743,-0.049231451512376484,0.07064243838750793,0.00878231316136939,-0.04066200342195767,-0.2515332470563681,-0.867743505223427,-0.5604655291721534,-3.4422593944079947,0.18268320386394654,-7.998637966799749,10.0,0.2695893798918331,-7.356129217709543,3.265741128592027
1.2473240981192002,-0.021446641706484658,0.006733842312724743,-0.049231451512376484,0.07064243838750793,0.00878231316136939,-0.04066200342195767,-0.2515332470563681,-0.867743505223427,-0.5604655291721534,-3.4422593944079947,0.18268320386394654,-7.998637966799749,10.0,0.2695893798918331,-7.356129217709543,3.265741128592027,0.1785890758037567,-0.523690938949585,-0.13178133964538574,-0.6706523895263672,-0.9404070973396301,0.0964064747095108,1.2420135763178644,-0.05704387824330162,0.007291659971579662,-0.12633050490397063,0.2516596113445947,0.00982698320225746,-0.11390413969238242,-0.20242841765831748,-1.3540483448088398,-0.7850663715889324,-5.435761459258302,-0.01570672267285176,-10.0,10.0,0.01910994698670279,-10.0,8.736072225516882
1.2420135763178644,-0.05704387824330162,0.007291659971579662,-0.12633050490397063,0.2516596113445947,0.00982698320225746,-0.11390413969238242,-0.20242841765831748,-1.3540483448088398,-0.7850663715889324,-5.435761459258302,-0.01570672267285176,-10.0,10.0,0.01910994698670279,-10.0,8.736072225516882,-0.8045304417610168,-0.7078258395195007,-0.1588180661201477,0.35069817304611206,-0.818239688873291,-0.19231310486793518,1.234636794618829,-0.1096631544639225,0.001319428907560817,-0.22414346729230195,0.4164102249475305,0.009658253600793067,-0.21767312106272488,-0.12298391487543489,-1.8468357277268206,-1.0845809081432565,-7.696891281206983,-1.4454637210797883,-10.0,10.0,-0.05272189457125673,-10.0,10.0
1.234636794618829,-0.1096631544639225,0.001319428907560817,-0.22414346729230195,0.4164102249475305,0.009658253600793067,-0.21767312106272488,-0.12298391487543489,-1.8468357277268206,-1.0845809081432565,-7.696891281206983,-1.4454637210797883,-10.0,10.0,-0.05272189457125673,-10.0,10.0,0.811122477054596,0.035917729139328,-0.6418544054031372,-0.29520025849342346,0.0753394216299057,-0.013834268786013126,1.2253283276979807,-0.16727280376586465,-0.0032410772195113,-0.33492974659614627,0.5323363592985395,0.009183985373661656,-0.3278395144246663,-0.04118280936344773,-1.7336988768190476,-1.2378809484786333,-6.690524233684072,0.36210700476206803,-10.0,9.69553731791753,-0.05480231401226417,-10.0,9.504099729744825
1.2253283276979807,-0.16727280376586465,-0.0032410772195113,-0.33492974659614627,0.5323363592985395,0.009183985373661656,-0.3278395144246663,-0.04118280936344773,-1.7336988768190476,-1.2378809484786333,-6.690524233684072,0.36210700476206803,-10.0,9.69553731791753,-0.05480231401226417,-10.0,9.504099729744825,0.4224309027194977,0.587907612323761,-0.31034037470817566,-0.355291485786438,-0.9464592337608337,0.9694151878356934,1.213488976484266,-0.22536903406996275,-0.009899393455731407,-0.4419526396888003,0.5943367630788432,0.008797510759151613,-0.4437715926312941,0.0848814650485328,-1.7821678553229972,-1.7249978112356963,-7.765719234958111,-1.8951156540605003,-10.0,5.937849654955353,-0.04749467243976262,-10.0,10.0
1.213488976484266,-0.22536903406996275,-0.009899393455731407,-0.4419526396888003,0.5943367630788432,0.008797510759151613,-0.4437715926312941,0.0848814650485328,-1.7821678553229972,-1.7249978112356963,-7.765719234958111,-1.8951156540605003,-10.0,5.937849654955353,-0.04749467243976262,-10.0,10.0,0.21090078353881836,0.8934524655342102,0.002489760983735323,0.20020388066768646,-0.5251188278198242,-0.26921701431274414,1.1990121957206152,-0.28828747148699424,-0.03550248000344123,-0.5190724046347179,0.6418518940146919,0.008543389389553182,-0.5758316341382077,0.23422822280841848,-1.643758368557574,-1.8874680482279609,-7.950387227923222,-4.44007114387165,-7.1321390286686785,6.100905739169273,-0.020162669013855376,-10.0,10.0
1.1990121957206152,-0.28828747148699424,-0.03550248000344123,-0.5190724046347179,0.6418518940146919,0.008543389389553182,-0.5758316341382077,0.23422822280841848,-1.643758368557574,-1.8874680482279609,-7.950387227923222,-4.44007114387165,-7.1321390286686785,6.100905739169273,-0.020162669013855376,-10.0,10.0,0.3472394049167633,0.31935805082321167,-0.8127307295799255,-0.006518378388136625,-0.5917209982872009,-0.7996991276741028,1.1837881005099367,-0.3533519830988832,-0.07353885625150818,-0.5740887676286914,0.6463375937499843,0.00858051470563808,-0.7136405999414528,0.30521460186724436,-1.727512834181756,-1.9226673898743447,-8.319175215024934,-5.0513196778532885,-6.650436572697654,-4.934487459391231,0.023083997426355057,-10.0,2.1134353133477957
1.1837881005099367,-0.3533519830988832,-0.07353885625150818,-0.5740887676286914,0.6463375937499843,0.00858051470563808,-0.7136405999414528,0.30521460186724436,-1.727512834181756,-1.9226673898743447,-8.319175215024934,-5.0513196778532885,-6.650436572697654,-4.934487459391231,0.023083997426355057,-10.0,2.1134353133477957,-0.5523442029953003,0.48579367995262146,-0.5608897805213928,0.7204709649085999,0.9220433235168457,0.3076190948486328,1.1687995839684435,-0.42306448442110534,-0.12838500120225327,-0.6079573966289277,0.5789751737981816,-0.006576043686463455,-0.8316893005123023,0.3315062991052867,-1.408495109774672,-1.8125822312320816,-9.102067688006867,-8.621800114043676,-1.8259728655413763,-10.0,-3.739142411708661,-10.0,4.663022791739265
1.1687995839684435,-0.42306448442110534,-0.12838500120225327,-0.6079573966289277,0.5789751737981816,-0.006576043686463455,-0.8316893005123023,0.3315062991052867,-1.408495109774672,-1.8125822312320816,-9.102067688006867,-8.621800114043676,-1.8259728655413763,-10.0,-3.739142411708661,-10.0,4.663022791739265,0.3981380760669708,-0.6757813096046448,0.5414534211158752,0.3612131178379059,-0.3311217129230499,0.9958779811859131,1.1522938117905417,-0.472864340572508,-0.15636538964135469,-0.6513050586154077,0.5149798289256786,-0.0033688468598077857,-0.9412712080830493,0.4177827388337033,-1.1642853059144442,-2.3034536609643803,-3.36841251719652,1.5427073661373347,-8.939885899448935,-4.18199973431235,4.463715511610048,-10.0,10.0
1.1522938117905417,-0.472864340572508,-0.15636538964135469,-0.6513050586154077,0.5149798289256786,-0.0033688468598077857,-0.9412712080830493,0.4177827388337033,-1.1642853059144442,-2.3034536609643803,-3.36841251719652,1.5427073661373347,-8.939885899448935,-4.18199973431235,4.463715511610048,-10.0,10.0,-0.05411794036626816,0.13298577070236206,-0.35069653391838074,0.2034984529018402,0.5626025795936584,-0.3546980619430542,1.1341751381809335,-0.5043061834220047,-0.1531930057043944,-0.715015292035234,0.46046785875758994,0.021158295187105682,-1.049938870691028,0.531094143442917,-1.1077388937410955,-2.2201691973021926,-4.396692787334324,-0.5946893430534612,-7.039041548068216,-9.4128733207569,1.8508058409364505,-10.0,10.0
